P3
100 100
255
90 90 90 91 91 91 91 91 91 91 91 91 91 91 91 91 91 91 91 91 91 92 92 92 92 92 92 92 92 92 92 92 92 92 92 92 92 92 92 92 92 92 93 93 93 93 93 93 93 93 93 93 93 93 93 93 93 93 93 93 93 93 93 93 93 93 93 93 93 93 93 93 93 93 93 94 94 94 94 94 94 94 94 94 94 94 94 94 94 94 94 94 94 208 186 164 212 192 171 154 125 95 154 125 95 154 125 95 154 125 95 145 121 97 146 122 97 147 122 97 148 123 97 154 136 117 154 136 116 155 135 116 154 135 114 154 133 112 152 125 96 152 124 95 152 124 95 153 124 95 153 124 95 152 124 95 151 123 95 151 123 95 150 122 95 149 122 94 148 121 94 161 128 94 160 128 94 159 127 94 158 126 94 157 126 94 162 133 104 159 130 101 92 92 92 92 92 92 92 92 92 91 91 91 91 91 91 91 91 91 91 91 91 91 91 91 91 91 91 90 90 90 90 90 90 90 90 90 90 90 90 90 90 90 89 89 89 89 89 89 89 89 89 89 89 89 89 89 89 88 88 88 88 88 88 88 88 88 88 88 88 87 87 87 87 87 87 87 87 87 87 87 87 87 87 87 86 86 86 86 86 86 86 86 86 86 86 86 85 85 85 85 85 85 85 85 85 85 85 85 
91 91 91 91 91 91 91 91 91 91 91 91 92 92 92 92 92 92 92 92 92 92 92 92 92 92 92 92 92 92 93 93 93 93 93 93 93 93 93 93 93 93 93 93 93 93 93 93 93 93 93 94 94 94 94 94 94 94 94 94 94 94 94 94 94 94 94 94 94 94 94 94 94 94 94 94 94 94 94 94 94 94 94 94 94 94 94 94 94 94 95 95 95 211 190 169 153 125 96 153 125 96 154 125 96 154 125 96 145 122 98 145 122 98 146 122 98 147 123 98 149 124 98 157 139 120 159 140 121 161 141 121 161 141 120 159 138 116 157 128 99 155 126 97 155 126 96 155 126 96 155 126 96 154 125 96 153 125 95 152 124 95 151 124 95 150 123 95 149 122 95 134 115 95 160 128 95 159 127 95 158 127 95 157 126 95 156 126 94 161 133 104 158 130 101 92 92 92 92 92 92 92 92 92 92 92 92 92 92 92 91 91 91 91 91 91 91 91 91 91 91 91 91 91 91 91 91 91 90 90 90 90 90 90 90 90 90 90 90 90 90 90 90 89 89 89 89 89 89 89 89 89 89 89 89 88 88 88 88 88 88 88 88 88 88 88 88 87 87 87 87 87 87 87 87 87 87 87 87 86 86 86 86 86 86 86 86 86 86 86 86 85 85 85 85 85 85 85 85 85 
91 91 91 92 92 92 92 92 92 92 92 92 92 92 92 92 92 92 93 93 93 93 93 93 93 93 93 93 93 93 93 93 93 93 93 93 94 94 94 94 94 94 94 94 94 94 94 94 94 94 94 94 94 94 94 94 94 94 94 94 95 95 95 95 95 95 95 95 95 95 95 95 95 95 95 95 95 95 95 95 95 95 95 95 95 95 95 95 95 95 209 188 166 213 194 173 153 125 97 153 125 97 153 125 97 153 125 97 145 123 99 146 123 99 147 123 99 148 124 100 221 214 207 226 219 211 170 151 131 176 156 136 255 255 254 235 229 222 227 221 214 220 214 207 215 209 202 212 205 198 201 195 188 200 194 187 155 126 96 154 125 96 153 125 96 152 124 96 136 116 95 135 116 95 134 115 95 160 128 96 159 127 95 158 127 95 157 126 95 156 126 95 160 132 104 157 129 101 93 93 93 93 93 93 92 92 92 92 92 92 92 92 92 92 92 92 92 92 92 92 92 92 91 91 91 91 91 91 91 91 91 91 91 91 91 91 91 90 90 90 90 90 90 90 90 90 90 90 90 89 89 89 89 89 89 89 89 89 89 89 89 88 88 88 88 88 88 88 88 88 88 88 88 87 87 87 87 87 87 87 87 87 87 87 87 86 86 86 86 86 86 86 86 86 86 86 86 85 85 85 
92 92 92 92 92 92 92 92 92 93 93 93 93 93 93 93 93 93 93 93 93 93 93 93 94 94 94 94 94 94 94 94 94 94 94 94 94 94 94 94 94 94 94 94 94 95 95 95 95 95 95 95 95 95 95 95 95 95 95 95 95 95 95 95 95 95 95 95 95 96 96 96 96 96 96 96 96 96 96 96 96 96 96 96 96 96 96 96 96 96 211 191 171 160 131 101 162 130 98 162 130 98 162 130 98 162 130 98 161 144 125 147 124 100 148 124 100 150 126 102 227 220 212 239 231 223 255 255 255 148 148 148 150 150 150 137 137 137 119 119 119 105 105 105 99 99 99 96 96 96 201 195 187 199 193 186 197 191 184 195 189 182 154 126 97 153 125 97 137 117 96 136 116 96 135 116 96 134 115 96 159 128 96 158 127 96 157 127 96 156 126 96 155 126 95 159 132 104 156 129 101 93 93 93 93 93 93 93 93 93 93 93 93 93 93 93 92 92 92 92 92 92 92 92 92 92 92 92 92 92 92 91 91 91 91 91 91 91 91 91 91 91 91 90 90 90 90 90 90 90 90 90 90 90 90 89 89 89 89 89 89 89 89 89 89 89 89 88 88 88 88 88 88 88 88 88 88 88 88 87 87 87 87 87 87 87 87 87 87 87 87 86 86 86 86 86 86 86 86 86 
93 93 93 93 93 93 93 93 93 93 93 93 93 93 93 94 94 94 94 94 94 94 94 94 94 94 94 94 94 94 95 95 95 95 95 95 95 95 95 95 95 95 95 95 95 95 95 95 95 95 95 96 96 96 96 96 96 96 96 96 96 96 96 96 96 96 96 96 96 96 96 96 96 96 96 96 96 96 97 97 97 97 97 97 97 97 97 97 97 97 161 131 101 161 132 102 162 131 98 162 131 99 162 131 99 162 131 99 162 145 127 163 145 127 164 146 127 152 129 104 234 227 219 255 250 241 168 168 168 199 199 199 203 203 203 177 177 177 141 141 141 115 115 115 102 102 102 98 98 98 97 97 97 96 96 96 196 189 182 194 187 180 191 185 179 216 216 214 138 118 97 137 117 97 136 117 97 135 116 96 133 115 96 158 128 97 157 127 96 147 122 96 146 121 96 159 128 97 159 128 96 94 94 94 94 94 94 94 94 94 93 93 93 93 93 93 93 93 93 93 93 93 93 93 93 92 92 92 92 92 92 92 92 92 92 92 92 91 91 91 91 91 91 91 91 91 91 91 91 90 90 90 90 90 90 90 90 90 90 90 90 89 89 89 89 89 89 89 89 89 89 89 89 88 88 88 88 88 88 88 88 88 87 87 87 87 87 87 87 87 87 87 87 87 86 86 86 86 86 86 
93 93 93 93 93 93 94 94 94 94 94 94 94 94 94 94 94 94 94 94 94 95 95 95 95 95 95 95 95 95 95 95 95 95 95 95 96 96 96 96 96 96 96 96 96 96 96 96 96 96 96 96 96 96 96 96 96 97 97 97 97 97 97 97 97 97 97 97 97 97 97 97 97 97 97 97 97 97 97 97 97 97 97 97 97 97 97 163 132 101 162 132 102 162 132 103 162 131 99 162 131 99 162 131 99 162 131 99 164 146 129 164 147 128 165 147 129 170 151 132 241 234 226 152 152 152 206 206 206 255 255 255 255 255 255 223 223 223 167 167 167 125 125 125 120 108 106 108 99 99 106 97 97 106 97 97 106 97 97 97 97 97 189 183 176 215 215 213 139 119 98 138 118 98 137 117 97 135 117 97 134 116 97 149 124 97 148 123 97 147 122 97 146 122 97 145 121 96 159 128 97 159 128 96 95 95 95 94 94 94 94 94 94 94 94 94 94 94 94 93 93 93 93 93 93 93 93 93 93 93 93 93 93 93 92 92 92 92 92 92 92 92 92 92 92 92 91 91 91 91 91 91 91 91 91 90 90 90 90 90 90 90 90 90 90 90 90 89 89 89 89 89 89 89 89 89 88 88 88 88 88 88 88 88 88 88 88 88 87 87 87 87 87 87 87 87 87 86 86 86 
94 94 94 94 94 94 94 94 94 94 94 94 95 95 95 95 95 95 95 95 95 95 95 95 96 96 96 96 96 96 96 96 96 96 96 96 96 96 96 96 96 96 97 97 97 97 97 97 97 97 97 97 97 97 97 97 97 97 97 97 97 97 97 98 98 98 98 98 98 98 98 98 98 98 98 98 98 98 98 98 98 98 98 98 98 98 98 163 133 102 163 133 103 162 133 104 162 132 100 162 132 100 162 132 100 162 132 100 163 132 100 165 148 130 166 149 130 171 153 134 244 237 229 160 160 160 226 226 226 255 255 255 255 255 255 250 250 250 181 181 181 144 133 131 116 107 107 109 100 100 107 98 98 107 98 98 107 98 98 107 98 98 98 98 98 213 213 211 212 211 210 139 119 98 138 118 98 136 118 98 156 149 141 155 148 140 148 123 98 147 123 98 146 122 97 145 122 97 158 128 98 158 128 97 95 95 95 95 95 95 95 95 95 95 95 95 94 94 94 94 94 94 94 94 94 94 94 94 93 93 93 93 93 93 93 93 93 93 93 93 92 92 92 92 92 92 92 92 92 92 92 92 91 91 91 91 91 91 91 91 91 90 90 90 90 90 90 90 90 90 90 90 90 89 89 89 89 89 89 89 89 89 88 88 88 88 88 88 88 88 88 87 87 87 87 87 87 87 87 87 
94 94 94 95 95 95 95 95 95 95 95 95 95 95 95 96 96 96 96 96 96 96 96 96 96 96 96 96 96 96 97 97 97 97 97 97 97 97 97 97 97 97 97 97 97 98 98 98 98 98 98 98 98 98 98 98 98 98 98 98 98 98 98 98 98 98 99 99 99 99 99 99 99 99 99 99 99 99 99 99 99 99 99 99 99 99 99 99 99 99 163 134 104 163 134 105 162 132 101 162 132 101 163 132 101 163 132 101 163 132 101 166 149 132 167 150 132 171 153 135 117 117 117 153 153 153 213 213 213 255 255 255 255 255 255 238 238 238 190 180 180 142 131 128 116 107 107 110 101 101 108 99 99 108 99 99 108 99 99 108 99 99 107 98 98 98 98 98 210 209 208 209 208 207 138 119 99 158 151 142 157 150 142 156 149 141 148 124 99 147 123 98 147 123 98 146 122 98 158 129 99 158 128 98 96 96 96 96 96 96 96 96 96 95 95 95 95 95 95 95 95 95 95 95 95 94 94 94 94 94 94 94 94 94 94 94 94 93 93 93 93 93 93 93 93 93 92 92 92 92 92 92 92 92 92 92 92 92 91 91 91 91 91 91 91 91 91 90 90 90 90 90 90 90 90 90 89 89 89 89 89 89 89 89 89 88 88 88 88 88 88 88 88 88 88 88 88 87 87 87 
95 95 95 95 95 95 95 95 95 96 96 96 96 96 96 96 96 96 96 96 96 97 97 97 97 97 97 97 97 97 97 97 97 98 98 98 98 98 98 98 98 98 98 98 98 98 98 98 99 99 99 99 99 99 99 99 99 99 99 99 99 99 99 99 99 99 99 99 99 100 100 100 100 100 100 100 100 100 100 100 100 100 100 100 100 100 100 100 100 100 164 135 105 163 135 106 163 135 107 163 133 102 163 133 102 163 133 102 163 133 102 167 150 133 168 151 133 170 153 135 111 111 111 135 135 135 175 175 175 215 215 215 224 224 224 255 255 255 161 152 151 133 122 119 114 105 105 111 102 102 110 101 101 109 100 100 109 100 100 108 99 99 108 99 99 120 111 111 99 99 99 206 205 204 205 204 203 159 152 144 158 151 143 157 150 143 149 124 99 148 124 99 147 123 99 146 123 99 145 122 98 158 129 99 158 128 98 97 97 97 96 96 96 96 96 96 96 96 96 96 96 96 95 95 95 95 95 95 95 95 95 94 94 94 94 94 94 94 94 94 94 94 94 93 93 93 93 93 93 93 93 93 92 92 92 92 92 92 92 92 92 91 91 91 91 91 91 91 91 91 91 91 91 90 90 90 90 90 90 90 90 90 89 89 89 89 89 89 89 89 89 88 88 88 88 88 88 88 88 88 
96 96 96 96 96 96 96 96 96 96 96 96 97 97 97 97 97 97 97 97 97 97 97 97 98 98 98 98 98 98 98 98 98 98 98 98 99 99 99 99 99 99 99 99 99 99 99 99 99 99 99 100 100 100 100 100 100 100 100 100 100 100 100 100 100 100 100 100 100 100 100 100 101 101 101 101 101 101 101 101 101 101 101 101 101 101 101 101 101 101 164 135 106 164 136 107 164 136 108 163 133 103 163 133 103 163 133 103 163 133 103 168 151 134 168 152 134 170 153 135 174 156 138 117 117 117 137 137 137 157 157 157 162 162 162 160 151 151 148 139 139 119 110 110 116 107 107 115 106 106 115 106 106 114 105 105 113 104 104 110 101 101 109 100 100 111 101 100 100 100 100 100 100 100 202 201 200 161 153 145 159 152 144 158 151 144 157 151 143 148 124 100 147 124 100 146 123 100 145 123 99 158 129 100 157 129 99 97 97 97 97 97 97 97 97 97 97 97 97 96 96 96 96 96 96 96 96 96 95 95 95 95 95 95 95 95 95 95 95 95 94 94 94 94 94 94 94 94 94 93 93 93 93 93 93 93 93 93 92 92 92 92 92 92 92 92 92 91 91 91 91 91 91 91 91 91 90 90 90 90 90 90 90 90 90 89 89 89 89 89 89 89 89 89 88 88 88 88 88 88 
96 96 96 96 96 96 97 97 97 97 97 97 97 97 97 98 98 98 98 98 98 98 98 98 98 98 98 99 99 99 99 99 99 99 99 99 99 99 99 100 100 100 100 100 100 100 100 100 100 100 100 100 100 100 101 101 101 101 101 101 101 101 101 101 101 101 101 101 101 101 101 101 101 101 101 102 102 102 102 102 102 102 102 102 102 102 102 102 102 102 165 136 107 165 137 108 165 137 109 163 134 104 163 134 104 163 134 104 163 134 104 163 134 104 169 153 136 170 153 136 171 154 136 107 107 107 114 114 114 121 121 121 123 123 123 129 120 120 131 122 122 114 105 105 118 109 109 117 108 108 117 108 108 117 108 108 116 107 107 115 106 106 110 101 101 112 102 101 101 101 101 101 101 101 101 101 101 227 226 225 160 153 145 159 152 145 158 152 144 148 125 101 139 121 102 138 120 101 137 119 101 158 130 102 157 129 101 98 98 98 98 98 98 98 98 98 97 97 97 97 97 97 97 97 97 96 96 96 96 96 96 96 96 96 96 96 96 95 95 95 95 95 95 95 95 95 94 94 94 94 94 94 94 94 94 93 93 93 93 93 93 93 93 93 92 92 92 92 92 92 92 92 92 91 91 91 91 91 91 91 91 91 90 90 90 90 90 90 89 89 89 89 89 89 89 89 89 88 88 88 
97 97 97 97 97 97 97 97 97 98 98 98 98 98 98 98 98 98 99 99 99 99 99 99 99 99 99 99 99 99 100 100 100 100 100 100 100 100 100 100 100 100 101 101 101 101 101 101 101 101 101 101 101 101 101 101 101 102 102 102 102 102 102 102 102 102 102 102 102 102 102 102 102 102 102 103 103 103 103 103 103 103 103 103 103 103 103 103 103 103 103 103 103 165 137 109 165 138 110 163 134 105 163 135 105 164 135 105 171 138 105 171 138 105 171 138 105 191 178 165 192 179 165 193 179 165 106 106 106 108 108 108 108 108 108 123 114 114 116 107 107 115 106 106 112 103 103 119 110 110 119 110 110 118 109 109 118 109 109 117 108 108 111 102 102 121 112 112 102 102 102 102 102 102 102 102 102 225 224 222 161 154 146 160 153 146 221 220 219 140 122 103 139 122 103 139 121 102 138 120 102 165 134 101 166 134 101 157 129 101 99 99 99 98 98 98 98 98 98 98 98 98 97 97 97 97 97 97 97 97 97 97 97 97 96 96 96 96 96 96 96 96 96 95 95 95 95 95 95 95 95 95 94 94 94 94 94 94 94 94 94 93 93 93 93 93 93 92 92 92 92 92 92 92 92 92 91 91 91 91 91 91 91 91 91 90 90 90 90 90 90 89 89 89 89 89 89 89 89 89 
97 97 97 98 98 98 98 98 98 98 98 98 99 99 99 99 99 99 99 99 99 100 100 100 100 100 100 100 100 100 100 100 100 101 101 101 101 101 101 101 101 101 101 101 101 102 102 102 102 102 102 102 102 102 102 102 102 103 103 103 103 103 103 103 103 103 103 103 103 103 103 103 103 103 103 104 104 104 104 104 104 104 104 104 104 104 104 104 104 104 104 104 104 166 138 110 166 139 111 166 139 112 171 139 106 171 139 106 171 139 106 171 139 106 171 139 106 172 139 106 192 180 166 192 180 166 193 180 166 105 105 105 105 105 105 105 105 105 115 106 106 121 112 112 114 105 105 114 105 105 113 104 104 115 105 104 115 105 104 113 104 104 113 104 104 103 103 103 103 103 103 103 103 103 103 103 103 221 221 219 226 226 224 225 224 222 223 222 221 141 123 105 140 122 104 139 122 104 138 121 103 165 134 102 166 134 102 166 134 101 100 100 100 99 99 99 99 99 99 99 99 99 98 98 98 98 98 98 98 98 98 97 97 97 97 97 97 97 97 97 96 96 96 96 96 96 96 96 96 95 95 95 95 95 95 94 94 94 94 94 94 94 94 94 93 93 93 93 93 93 93 93 93 92 92 92 92 92 92 91 91 91 91 91 91 91 91 91 90 90 90 90 90 90 90 90 90 89 89 89 
98 98 98 98 98 98 99 99 99 99 99 99 99 99 99 100 100 100 100 100 100 100 100 100 101 101 101 101 101 101 101 101 101 102 102 102 102 102 102 102 102 102 102 102 102 103 103 103 103 103 103 103 103 103 103 103 103 104 104 104 104 104 104 104 104 104 104 104 104 104 104 104 104 104 104 105 105 105 105 105 105 105 105 105 105 105 105 105 105 105 105 105 105 167 139 111 167 140 112 177 143 107 171 140 107 172 140 107 172 140 107 172 140 107 172 140 107 172 140 107 193 181 168 193 180 167 193 180 167 106 106 106 106 106 106 106 106 106 115 106 106 122 113 113 122 113 113 124 115 114 116 107 107 116 107 107 115 106 106 125 116 116 113 104 104 104 104 104 104 104 104 104 104 104 104 104 104 103 103 103 228 228 226 226 226 224 143 125 107 142 124 106 141 123 105 140 123 105 165 135 103 166 135 103 166 134 103 101 101 101 100 100 100 100 100 100 100 100 100 99 99 99 99 99 99 99 99 99 98 98 98 98 98 98 98 98 98 97 97 97 97 97 97 97 97 97 96 96 96 96 96 96 95 95 95 95 95 95 95 95 95 94 94 94 94 94 94 94 94 94 93 93 93 93 93 93 92 92 92 92 92 92 92 92 92 91 91 91 91 91 91 90 90 90 90 90 90 90 90 90 
99 99 99 99 99 99 99 99 99 100 100 100 100 100 100 101 101 101 101 101 101 101 101 101 102 102 102 102 102 102 102 102 102 102 102 102 103 103 103 103 103 103 103 103 103 104 104 104 104 104 104 104 104 104 104 104 104 105 105 105 105 105 105 105 105 105 105 105 105 105 105 105 106 106 106 106 106 106 106 106 106 106 106 106 106 106 106 106 106 106 106 106 106 167 140 112 179 144 108 179 144 108 178 144 109 172 141 108 172 141 108 172 141 109 173 141 109 173 141 109 173 141 109 194 181 169 194 181 168 194 181 168 107 107 107 107 107 107 107 107 107 115 106 106 124 115 115 124 115 115 124 115 115 123 114 114 122 113 113 115 106 106 105 105 105 105 105 105 105 105 105 105 105 105 105 105 105 104 104 104 230 229 228 228 227 226 143 126 108 142 125 107 141 124 107 140 124 106 166 135 104 166 135 104 166 135 104 102 102 102 101 101 101 101 101 101 101 101 101 100 100 100 100 100 100 100 100 100 99 99 99 99 99 99 98 98 98 98 98 98 98 98 98 97 97 97 97 97 97 97 97 97 96 96 96 96 96 96 95 95 95 95 95 95 95 95 95 94 94 94 94 94 94 93 93 93 93 93 93 92 92 92 92 92 92 92 92 92 91 91 91 91 91 91 90 90 90 90 90 90 
99 99 99 100 100 100 100 100 100 101 101 101 101 101 101 101 101 101 102 102 102 102 102 102 102 102 102 103 103 103 103 103 103 103 103 103 104 104 104 104 104 104 104 104 104 105 105 105 105 105 105 105 105 105 105 105 105 106 106 106 106 106 106 106 106 106 106 106 106 106 106 106 107 107 107 107 107 107 107 107 107 107 107 107 107 107 107 107 107 107 108 108 108 108 108 108 180 145 110 180 145 110 179 145 110 179 145 110 173 142 110 173 142 110 173 142 110 173 142 110 173 142 110 173 142 110 194 182 169 194 182 169 194 181 168 108 108 108 108 108 108 108 108 108 108 108 108 117 108 108 121 112 112 117 108 108 107 107 107 107 107 107 107 107 107 106 106 106 106 106 106 106 106 106 106 106 106 233 232 231 231 230 229 220 219 218 144 127 109 143 126 109 142 125 108 141 125 107 166 136 105 166 136 105 166 136 105 103 103 103 102 102 102 102 102 102 102 102 102 101 101 101 101 101 101 100 100 100 100 100 100 100 100 100 99 99 99 99 99 99 98 98 98 98 98 98 98 98 98 97 97 97 97 97 97 96 96 96 96 96 96 96 96 96 95 95 95 95 95 95 94 94 94 94 94 94 93 93 93 93 93 93 92 92 92 92 92 92 92 92 92 91 91 91 91 91 91 90 90 90 
100 100 100 100 100 100 101 101 101 101 101 101 102 102 102 102 102 102 102 102 102 103 103 103 103 103 103 104 104 104 104 104 104 104 104 104 105 105 105 105 105 105 105 105 105 106 106 106 106 106 106 106 106 106 106 106 106 107 107 107 107 107 107 107 107 107 107 107 107 108 108 108 108 108 108 108 108 108 108 108 108 108 108 108 109 109 109 109 109 109 109 109 109 109 109 109 182 147 111 181 146 111 181 146 111 180 146 111 179 146 111 174 143 111 174 143 111 174 143 111 174 143 111 174 143 111 174 143 111 195 183 170 195 182 169 203 192 181 202 192 180 109 109 109 109 109 109 109 109 109 109 109 109 108 108 108 108 108 108 108 108 108 108 108 108 108 108 108 107 107 107 107 107 107 107 107 107 225 224 223 160 147 133 159 146 132 157 144 130 155 142 129 153 141 127 142 126 109 166 136 106 166 136 106 166 136 105 104 104 104 103 103 103 103 103 103 102 102 102 102 102 102 102 102 102 101 101 101 101 101 101 100 100 100 100 100 100 100 100 100 99 99 99 99 99 99 98 98 98 98 98 98 97 97 97 97 97 97 97 97 97 96 96 96 96 96 96 95 95 95 95 95 95 94 94 94 94 94 94 93 93 93 93 93 93 92 92 92 92 92 92 92 92 92 91 91 91 91 91 91 
101 101 101 101 101 101 102 102 102 102 102 102 102 102 102 103 103 103 103 103 103 104 104 104 104 104 104 104 104 104 105 105 105 105 105 105 106 106 106 106 106 106 106 106 106 107 107 107 107 107 107 107 107 107 107 107 107 108 108 108 108 108 108 108 108 108 109 109 109 109 109 109 109 109 109 109 109 109 109 109 109 110 110 110 110 110 110 110 110 110 110 110 110 110 110 110 230 208 186 182 148 112 182 147 112 181 147 112 181 147 112 180 147 112 175 144 112 175 144 112 175 144 112 175 144 112 175 144 112 175 144 112 204 194 183 203 193 182 203 193 182 202 192 181 201 191 180 110 110 110 110 110 110 110 110 110 110 110 110 109 109 109 109 109 109 109 109 109 109 109 109 108 108 108 232 231 230 163 150 137 162 149 135 160 147 134 158 146 132 156 144 131 174 141 108 173 141 108 166 137 107 166 137 107 217 189 160 105 105 105 104 104 104 104 104 104 103 103 103 103 103 103 103 103 103 102 102 102 102 102 102 101 101 101 101 101 101 100 100 100 100 100 100 100 100 100 99 99 99 99 99 99 98 98 98 98 98 98 97 97 97 97 97 97 96 96 96 96 96 96 95 95 95 95 95 95 94 94 94 94 94 94 93 93 93 93 93 93 92 92 92 92 92 92 91 91 91 91 91 91 
101 101 101 102 102 102 102 102 102 103 103 103 103 103 103 104 104 104 104 104 104 105 105 105 105 105 105 105 105 105 106 106 106 106 106 106 107 107 107 107 107 107 107 107 107 108 108 108 108 108 108 108 108 108 109 109 109 109 109 109 109 109 109 109 109 109 110 110 110 110 110 110 110 110 110 110 110 110 111 111 111 111 111 111 111 111 111 111 111 111 111 111 111 112 112 112 112 112 112 232 211 188 183 149 114 183 149 114 182 148 114 182 148 114 181 148 114 175 145 114 176 145 114 176 145 114 176 145 114 179 147 114 179 147 114 180 147 114 204 194 183 203 193 182 202 192 181 201 191 180 200 189 178 198 188 177 111 111 111 190 179 168 188 178 167 187 176 165 185 174 163 183 172 161 166 153 140 164 152 138 163 150 137 161 149 136 159 147 134 174 142 109 174 142 109 174 142 109 174 141 108 166 138 108 106 106 106 106 106 106 105 105 105 105 105 105 104 104 104 104 104 104 104 104 104 103 103 103 103 103 103 102 102 102 102 102 102 101 101 101 101 101 101 100 100 100 100 100 100 99 99 99 99 99 99 98 98 98 98 98 98 97 97 97 97 97 97 96 96 96 96 96 96 95 95 95 95 95 95 94 94 94 94 94 94 93 93 93 93 93 93 92 92 92 92 92 92 91 91 91 
102 102 102 103 103 103 103 103 103 104 104 104 104 104 104 104 104 104 105 105 105 105 105 105 106 106 106 106 106 106 107 107 107 107 107 107 107 107 107 108 108 108 108 108 108 109 109 109 109 109 109 109 109 109 110 110 110 110 110 110 110 110 110 111 111 111 111 111 111 111 111 111 112 112 112 112 112 112 112 112 112 112 112 112 112 112 112 113 113 113 113 113 113 113 113 113 113 113 113 113 113 113 233 212 191 184 150 115 184 150 115 183 149 115 182 149 115 182 149 115 176 146 115 176 146 115 180 148 115 180 148 115 180 148 115 180 148 115 180 148 115 180 148 115 180 148 115 202 192 181 201 190 180 199 189 178 192 182 171 191 181 170 189 179 168 188 177 166 186 176 165 184 174 163 182 172 161 165 153 140 164 152 139 162 150 137 175 143 111 175 143 111 175 143 110 174 143 110 174 142 110 174 142 109 107 107 107 107 107 107 106 106 106 106 106 106 105 105 105 105 105 105 104 104 104 104 104 104 104 104 104 103 103 103 103 103 103 102 102 102 102 102 102 101 101 101 101 101 101 100 100 100 100 100 100 99 99 99 99 99 99 98 98 98 97 97 97 97 97 97 96 96 96 96 96 96 95 95 95 95 95 95 94 94 94 94 94 94 93 93 93 93 93 93 92 92 92 92 92 92 
103 103 103 103 103 103 104 104 104 104 104 104 105 105 105 105 105 105 106 106 106 106 106 106 107 107 107 107 107 107 108 108 108 108 108 108 108 108 108 109 109 109 109 109 109 110 110 110 110 110 110 111 111 111 111 111 111 111 111 111 112 112 112 112 112 112 112 112 112 113 113 113 113 113 113 113 113 113 113 113 113 114 114 114 114 114 114 114 114 114 114 114 114 114 114 114 115 115 115 115 115 115 115 115 115 235 214 193 185 151 117 184 151 117 184 151 117 183 150 117 183 150 117 177 147 117 181 149 117 181 149 117 181 149 117 181 149 116 181 149 116 181 149 116 181 149 116 181 149 116 181 149 116 200 190 180 193 183 173 192 182 171 190 180 170 189 179 168 187 177 166 185 175 164 183 173 162 181 171 160 165 153 141 176 145 113 176 144 112 175 144 112 175 144 112 175 143 111 175 143 111 180 146 111 108 108 108 108 108 108 107 107 107 107 107 107 106 106 106 106 106 106 105 105 105 105 105 105 104 104 104 104 104 104 103 103 103 103 103 103 102 102 102 102 102 102 101 101 101 101 101 101 100 100 100 100 100 100 99 99 99 99 99 99 98 98 98 98 98 98 97 97 97 96 96 96 96 96 96 95 95 95 95 95 95 94 94 94 94 94 94 93 93 93 93 93 93 92 92 92 
103 103 103 104 104 104 104 104 104 105 105 105 106 106 106 106 106 106 107 107 107 107 107 107 108 108 108 108 108 108 109 109 109 109 109 109 110 110 110 110 110 110 110 110 110 111 111 111 111 111 111 112 112 112 112 112 112 112 112 112 113 113 113 113 113 113 114 114 114 114 114 114 114 114 114 114 114 114 115 115 115 115 115 115 115 115 115 115 115 115 116 116 116 116 116 116 116 116 116 116 116 116 116 116 116 116 116 116 236 216 195 186 152 118 185 152 118 185 152 118 184 152 118 192 156 118 182 151 118 182 151 118 182 151 118 182 151 118 182 151 118 182 150 118 182 150 118 182 150 117 182 150 117 182 150 117 182 150 117 182 149 117 182 149 116 181 149 116 181 149 116 181 149 115 181 148 115 181 148 115 180 148 114 176 146 114 176 145 114 176 145 113 176 145 113 176 144 112 182 147 112 182 147 112 109 109 109 109 109 109 108 108 108 108 108 108 107 107 107 107 107 107 106 106 106 106 106 106 105 105 105 105 105 105 104 104 104 104 104 104 103 103 103 103 103 103 102 102 102 101 101 101 101 101 101 100 100 100 100 100 100 99 99 99 99 99 99 98 98 98 97 97 97 97 97 97 96 96 96 96 96 96 95 95 95 95 95 95 94 94 94 93 93 93 93 93 93 92 92 92 
104 104 104 105 105 105 105 105 105 106 106 106 106 106 106 107 107 107 107 107 107 108 108 108 108 108 108 109 109 109 110 110 110 110 110 110 111 111 111 111 111 111 112 112 112 112 112 112 112 112 112 113 113 113 113 113 113 114 114 114 114 114 114 115 115 115 115 115 115 115 115 115 116 116 116 116 116 116 116 116 116 116 116 116 117 117 117 117 117 117 117 117 117 117 117 117 118 118 118 118 118 118 118 118 118 118 118 118 118 118 118 237 217 196 187 154 120 186 153 120 186 153 120 194 158 120 194 157 120 194 157 120 194 157 120 184 152 120 184 152 120 183 152 119 183 152 119 183 152 119 183 151 119 183 151 119 183 151 118 183 151 118 183 151 118 182 150 118 182 150 117 182 150 117 182 150 117 181 149 116 181 149 116 177 147 115 177 146 115 177 146 114 176 146 114 183 149 114 183 149 113 111 111 111 111 111 111 110 110 110 110 110 110 109 109 109 108 108 108 108 108 108 107 107 107 107 107 107 106 106 106 106 106 106 105 105 105 105 105 105 104 104 104 103 103 103 103 103 103 102 102 102 102 102 102 101 101 101 100 100 100 100 100 100 99 99 99 99 99 99 98 98 98 97 97 97 97 97 97 96 96 96 96 96 96 95 95 95 94 94 94 94 94 94 93 93 93 93 93 93 
105 105 105 105 105 105 106 106 106 106 106 106 107 107 107 108 108 108 108 108 108 109 109 109 109 109 109 110 110 110 110 110 110 111 111 111 112 112 112 112 112 112 113 113 113 113 113 113 114 114 114 114 114 114 115 115 115 115 115 115 115 115 115 116 116 116 116 116 116 117 117 117 117 117 117 117 117 117 118 118 118 118 118 118 118 118 118 119 119 119 119 119 119 119 119 119 119 119 119 119 119 119 120 120 120 120 120 120 120 120 120 120 120 120 238 218 198 188 155 122 196 159 122 196 159 122 196 159 122 196 159 122 196 159 122 195 159 122 195 158 121 185 153 121 184 153 121 184 153 121 184 153 120 184 152 120 184 152 120 184 152 120 184 152 119 183 152 119 183 151 119 183 151 118 183 151 118 182 150 118 182 150 117 178 148 117 178 147 116 184 151 117 184 151 116 185 150 115 185 150 115 112 112 112 112 112 112 111 111 111 111 111 111 110 110 110 110 110 110 109 109 109 108 108 108 108 108 108 107 107 107 107 107 107 106 106 106 105 105 105 105 105 105 104 104 104 104 104 104 103 103 103 102 102 102 102 102 102 101 101 101 100 100 100 100 100 100 99 99 99 99 99 99 98 98 98 97 97 97 97 97 97 96 96 96 95 95 95 95 95 95 94 94 94 93 93 93 93 93 93 
105 105 105 106 106 106 106 106 106 107 107 107 108 108 108 108 108 108 109 109 109 110 110 110 110 110 110 111 111 111 111 111 111 112 112 112 113 113 113 113 113 113 114 114 114 114 114 114 115 115 115 115 115 115 116 116 116 116 116 116 117 117 117 117 117 117 118 118 118 118 118 118 118 118 118 119 119 119 119 119 119 119 119 119 120 120 120 120 120 120 120 120 120 121 121 121 121 121 121 121 121 121 121 121 121 121 121 121 121 121 121 122 122 122 122 122 122 238 219 199 198 161 124 198 161 124 198 161 124 198 161 124 197 161 123 197 161 123 197 160 123 196 160 123 196 160 123 185 154 122 185 154 122 185 154 122 185 154 122 185 153 121 185 153 121 184 153 121 184 153 120 184 152 120 184 152 120 183 152 119 183 151 119 179 149 118 185 153 119 186 152 118 186 152 117 115 115 115 114 114 114 114 114 114 113 113 113 112 112 112 112 112 112 111 111 111 111 111 111 110 110 110 109 109 109 109 109 109 108 108 108 108 108 108 107 107 107 106 106 106 106 106 106 105 105 105 104 104 104 104 104 104 103 103 103 102 102 102 102 102 102 101 101 101 100 100 100 100 100 100 99 99 99 98 98 98 98 98 98 97 97 97 96 96 96 96 96 96 95 95 95 94 94 94 94 94 94 93 93 93 
106 106 106 106 106 106 107 107 107 108 108 108 108 108 108 109 109 109 110 110 110 110 110 110 111 111 111 112 112 112 112 112 112 113 113 113 114 114 114 114 114 114 115 115 115 115 115 115 116 116 116 116 116 116 117 117 117 118 118 118 118 118 118 119 119 119 119 119 119 119 119 119 120 120 120 120 120 120 121 121 121 121 121 121 121 121 121 122 122 122 122 122 122 122 122 122 123 123 123 123 123 123 123 123 123 123 123 123 123 123 123 123 123 123 123 123 123 124 124 124 227 202 177 228 204 179 200 163 125 200 163 125 199 163 125 199 162 125 199 162 125 198 162 125 198 162 125 197 161 124 197 161 124 196 160 124 186 155 123 196 160 123 196 160 123 196 159 123 196 159 122 195 159 122 195 159 121 195 158 121 194 158 120 187 155 121 187 154 120 187 154 119 117 117 117 116 116 116 115 115 115 115 115 115 114 114 114 114 114 114 113 113 113 112 112 112 112 112 112 111 111 111 110 110 110 110 110 110 109 109 109 108 108 108 108 108 108 107 107 107 106 106 106 106 106 106 105 105 105 104 104 104 104 104 104 103 103 103 102 102 102 102 102 102 101 101 101 100 100 100 99 99 99 99 99 99 98 98 98 97 97 97 97 97 97 96 96 96 95 95 95 95 95 95 94 94 94 93 93 93 
106 106 106 107 107 107 108 108 108 108 108 108 109 109 109 110 110 110 110 110 110 111 111 111 112 112 112 113 113 113 113 113 113 114 114 114 115 115 115 115 115 115 116 116 116 116 116 116 117 117 117 118 118 118 118 118 118 119 119 119 119 119 119 120 120 120 120 120 120 121 121 121 121 121 121 122 122 122 122 122 122 123 123 123 123 123 123 123 123 123 124 124 124 124 124 124 124 124 124 125 125 125 125 125 125 125 125 125 125 125 125 125 125 125 125 125 125 125 125 125 125 125 125 125 125 125 227 202 177 228 204 179 201 165 127 201 164 127 201 164 127 200 164 127 200 163 126 199 163 126 199 163 126 198 162 126 198 162 125 198 162 125 198 162 125 198 161 124 198 161 124 197 161 123 197 160 123 197 160 122 196 159 122 189 156 122 189 155 121 118 118 118 118 118 118 117 117 117 117 117 117 116 116 116 115 115 115 115 115 115 114 114 114 113 113 113 113 113 113 112 112 112 111 111 111 111 111 111 110 110 110 109 109 109 109 109 109 108 108 108 107 107 107 106 106 106 106 106 106 105 105 105 104 104 104 103 103 103 103 103 103 102 102 102 101 101 101 101 101 101 100 100 100 99 99 99 98 98 98 98 98 98 97 97 97 96 96 96 96 96 96 95 95 95 94 94 94 93 93 93 
107 107 107 107 107 107 108 108 108 109 109 109 110 110 110 110 110 110 111 111 111 112 112 112 113 113 113 113 113 113 114 114 114 115 115 115 116 116 116 116 116 116 117 117 117 118 118 118 118 118 118 119 119 119 120 120 120 120 120 120 121 121 121 121 121 121 122 122 122 122 122 122 123 123 123 123 123 123 124 124 124 124 124 124 125 125 125 125 125 125 125 125 125 126 126 126 126 126 126 126 126 126 127 127 127 127 127 127 127 127 127 127 127 127 127 127 127 127 127 127 127 127 127 127 127 127 127 127 127 127 127 127 127 127 127 227 203 178 227 204 180 202 166 129 202 165 128 201 165 128 201 165 128 200 164 127 200 164 127 200 164 127 200 164 126 200 163 126 200 163 126 199 163 125 199 162 125 199 162 124 198 161 124 190 157 124 121 121 121 120 120 120 119 119 119 119 119 119 118 118 118 117 117 117 117 117 117 116 116 116 115 115 115 115 115 115 114 114 114 113 113 113 112 112 112 112 112 112 111 111 111 110 110 110 109 109 109 109 109 109 108 108 108 107 107 107 106 106 106 106 106 106 105 105 105 104 104 104 103 103 103 103 103 103 102 102 102 101 101 101 100 100 100 99 99 99 99 99 99 98 98 98 97 97 97 96 96 96 96 96 96 95 95 95 94 94 94 94 94 94 
107 107 107 108 108 108 109 109 109 109 109 109 110 110 110 111 111 111 112 112 112 113 113 113 113 113 113 114 114 114 115 115 115 116 116 116 116 116 116 117 117 117 118 118 118 119 119 119 119 119 119 120 120 120 121 121 121 121 121 121 122 122 122 123 123 123 123 123 123 124 124 124 124 124 124 125 125 125 125 125 125 126 126 126 126 126 126 127 127 127 127 127 127 128 128 128 128 128 128 128 128 128 128 128 128 129 129 129 129 129 129 129 129 129 129 129 129 129 129 129 129 129 129 129 129 129 129 129 129 129 129 129 129 129 129 129 129 129 129 129 129 226 201 177 226 202 178 203 167 130 203 167 130 203 166 129 202 166 129 202 166 129 202 166 128 202 165 128 202 165 127 240 216 192 236 212 187 124 124 124 123 123 123 123 123 123 122 122 122 121 121 121 121 121 121 120 120 120 119 119 119 119 119 119 118 118 118 117 117 117 116 116 116 116 116 116 115 115 115 114 114 114 113 113 113 113 113 113 112 112 112 111 111 111 110 110 110 109 109 109 109 109 109 108 108 108 107 107 107 106 106 106 105 105 105 105 105 105 104 104 104 103 103 103 102 102 102 101 101 101 101 101 101 100 100 100 99 99 99 98 98 98 97 97 97 97 97 97 96 96 96 95 95 95 94 94 94 94 94 94 
107 107 107 108 108 108 109 109 109 110 110 110 111 111 111 111 111 111 112 112 112 113 113 113 114 114 114 115 115 115 116 116 116 116 116 116 117 117 117 118 118 118 119 119 119 120 120 120 120 120 120 121 121 121 122 122 122 123 123 123 123 123 123 124 124 124 125 125 125 125 125 125 126 126 126 126 126 126 127 127 127 128 128 128 128 128 128 128 128 128 129 129 129 129 129 129 130 130 130 130 130 130 130 130 130 131 131 131 131 131 131 131 131 131 131 131 131 131 131 131 131 131 131 109 56 2 109 56 2 109 56 2 109 56 2 109 56 2 109 56 2 109 56 2 109 56 2 108 56 2 108 56 2 108 56 2 108 56 2 107 55 2 128 128 128 128 128 128 127 127 127 127 127 127 126 126 126 125 125 125 125 125 125 124 124 124 124 124 124 123 123 123 122 122 122 121 121 121 121 121 121 120 120 120 119 119 119 118 118 118 118 118 118 117 117 117 116 116 116 115 115 115 114 114 114 113 113 113 113 113 113 112 112 112 111 111 111 110 110 110 109 109 109 108 108 108 108 108 108 107 107 107 106 106 106 105 105 105 104 104 104 103 103 103 102 102 102 102 102 102 101 101 101 100 100 100 99 99 99 98 98 98 98 98 98 97 97 97 96 96 96 95 95 95 94 94 94 94 94 94 
107 107 107 108 108 108 109 109 109 110 110 110 111 111 111 112 112 112 113 113 113 114 114 114 115 115 115 115 115 115 116 116 116 117 117 117 118 118 118 119 119 119 120 120 120 121 121 121 121 121 121 122 122 122 123 123 123 124 124 124 125 125 125 125 125 125 126 126 126 127 127 127 127 127 127 128 128 128 129 129 129 129 129 129 130 130 130 130 130 130 131 131 131 131 131 131 131 131 131 132 132 132 132 132 132 132 132 132 133 133 133 133 133 133 133 133 133 113 58 2 104 54 2 104 54 2 110 57 2 110 57 2 110 57 2 110 57 2 110 57 2 110 57 2 110 57 2 110 57 2 110 57 2 109 56 2 109 56 2 109 56 2 109 56 2 108 56 2 129 129 129 128 128 128 128 128 128 127 127 127 126 126 126 126 126 126 125 125 125 124 124 124 124 124 124 123 123 123 122 122 122 121 121 121 120 120 120 120 120 120 119 119 119 118 118 118 117 117 117 116 116 116 115 115 115 114 114 114 113 113 113 113 113 113 112 112 112 111 111 111 110 110 110 109 109 109 108 108 108 107 107 107 106 106 106 105 105 105 105 105 105 104 104 104 103 103 103 102 102 102 101 101 101 100 100 100 99 99 99 98 98 98 98 98 98 97 97 97 96 96 96 95 95 95 94 94 94 94 94 94 
108 108 108 108 108 108 109 109 109 110 110 110 111 111 111 112 112 112 113 113 113 114 114 114 115 115 115 116 116 116 117 117 117 118 118 118 119 119 119 120 120 120 121 121 121 121 121 121 122 122 122 123 123 123 124 124 124 125 125 125 126 126 126 126 126 126 127 127 127 128 128 128 129 129 129 129 129 129 130 130 130 131 131 131 131 131 131 132 132 132 132 132 132 133 133 133 133 133 133 134 134 134 134 134 134 134 134 134 135 135 135 115 59 2 105 54 2 105 54 2 105 54 2 105 54 2 105 54 2 112 58 2 112 58 2 112 58 2 112 58 2 112 58 2 111 57 2 111 57 2 111 57 2 111 57 2 111 57 2 110 57 2 110 57 2 110 57 2 109 56 2 109 56 2 109 56 2 129 129 129 128 128 128 127 127 127 126 126 126 126 126 126 125 125 125 124 124 124 123 123 123 122 122 122 122 122 122 121 121 121 120 120 120 119 119 119 118 118 118 117 117 117 116 116 116 115 115 115 114 114 114 113 113 113 112 112 112 111 111 111 110 110 110 109 109 109 109 109 109 108 108 108 107 107 107 106 106 106 105 105 105 104 104 104 103 103 103 102 102 102 101 101 101 100 100 100 99 99 99 98 98 98 98 98 98 97 97 97 96 96 96 95 95 95 94 94 94 93 93 93 
108 108 108 108 108 108 109 109 109 110 110 110 111 111 111 112 112 112 113 113 113 114 114 114 115 115 115 116 116 116 117 117 117 118 118 118 119 119 119 120 120 120 121 121 121 122 122 122 123 123 123 124 124 124 125 125 125 126 126 126 127 127 127 128 128 128 128 128 128 129 129 129 130 130 130 131 131 131 131 131 131 132 132 132 133 133 133 133 133 133 134 134 134 134 134 134 135 135 135 135 135 135 136 136 136 136 136 136 116 60 2 106 55 2 107 55 2 107 55 2 107 55 2 107 55 2 107 55 2 42 22 1 35 19 1 35 19 1 35 19 1 35 19 1 35 19 1 35 19 1 35 19 1 35 19 1 35 18 1 35 18 1 35 18 1 111 57 2 111 57 2 111 57 2 110 57 2 110 57 2 109 56 2 129 129 129 128 128 128 127 127 127 126 126 126 125 125 125 124 124 124 124 124 124 123 123 123 122 122 122 121 121 121 120 120 120 119 119 119 118 118 118 117 117 117 116 116 116 115 115 115 114 114 114 113 113 113 112 112 112 111 111 111 110 110 110 109 109 109 108 108 108 107 107 107 106 106 106 105 105 105 104 104 104 103 103 103 102 102 102 101 101 101 100 100 100 99 99 99 98 98 98 98 98 98 97 97 97 96 96 96 95 95 95 94 94 94 93 93 93 
107 107 107 108 108 108 109 109 109 110 110 110 111 111 111 113 113 113 114 114 114 115 115 115 116 116 116 117 117 117 118 118 118 119 119 119 120 120 120 121 121 121 122 122 122 123 123 123 124 124 124 125 125 125 126 126 126 127 127 127 128 128 128 129 129 129 129 129 129 130 130 130 131 131 131 132 132 132 133 133 133 133 133 133 134 134 134 135 135 135 135 135 135 136 136 136 137 137 137 137 137 137 118 61 2 116 60 2 108 56 2 108 56 2 108 56 2 108 56 2 108 56 2 108 56 2 42 22 1 42 22 1 36 19 1 36 19 1 36 19 1 36 19 1 36 19 1 36 19 1 36 19 1 36 19 1 36 19 1 35 19 1 35 19 1 35 19 1 35 19 1 112 58 2 112 58 2 111 57 2 111 57 2 110 57 2 129 129 129 128 128 128 127 127 127 126 126 126 126 126 126 125 125 125 124 124 124 123 123 123 122 122 122 121 121 121 119 119 119 118 118 118 117 117 117 116 116 116 115 115 115 114 114 114 113 113 113 112 112 112 111 111 111 110 110 110 109 109 109 108 108 108 107 107 107 106 106 106 105 105 105 104 104 104 103 103 103 102 102 102 101 101 101 100 100 100 99 99 99 98 98 98 97 97 97 96 96 96 95 95 95 95 95 95 94 94 94 93 93 93 
107 107 107 108 108 108 109 109 109 110 110 110 111 111 111 112 112 112 114 114 114 115 115 115 116 116 116 117 117 117 118 118 118 119 119 119 120 120 120 121 121 121 122 122 122 123 123 123 124 124 124 125 125 125 126 126 126 127 127 127 128 128 128 129 129 129 130 130 130 131 131 131 132 132 132 133 133 133 134 134 134 135 135 135 135 135 135 136 136 136 137 137 137 137 137 137 138 138 138 118 61 2 109 56 2 109 56 2 109 56 2 109 56 2 109 56 2 109 56 2 109 56 2 43 22 1 43 23 1 43 23 1 36 19 1 36 19 1 36 19 1 36 19 1 36 19 1 36 19 1 36 19 1 36 19 1 36 19 1 36 19 1 36 19 1 36 19 1 36 19 1 35 19 1 35 19 1 35 19 1 112 58 2 105 54 2 105 54 2 129 129 129 128 128 128 127 127 127 126 126 126 125 125 125 124 124 124 123 123 123 122 122 122 121 121 121 120 120 120 119 119 119 118 118 118 117 117 117 116 116 116 115 115 115 114 114 114 112 112 112 111 111 111 110 110 110 109 109 109 108 108 108 107 107 107 106 106 106 105 105 105 104 104 104 103 103 103 102 102 102 101 101 101 100 100 100 99 99 99 98 98 98 97 97 97 96 96 96 95 95 95 94 94 94 93 93 93 92 92 92 
107 107 107 108 108 108 109 109 109 110 110 110 111 111 111 112 112 112 113 113 113 114 114 114 116 116 116 117 117 117 118 118 118 119 119 119 120 120 120 121 121 121 122 122 122 124 124 124 125 125 125 126 126 126 127 127 127 128 128 128 129 129 129 130 130 130 131 131 131 132 132 132 133 133 133 134 134 134 135 135 135 136 136 136 137 137 137 137 137 137 138 138 138 139 139 139 119 61 2 110 57 2 110 57 2 110 57 2 110 57 2 110 57 2 110 57 2 43 23 1 43 23 1 43 23 1 44 23 1 44 23 1 44 23 1 37 19 1 37 19 1 37 19 1 37 19 1 37 19 1 37 19 1 37 19 1 37 19 1 36 19 1 36 19 1 36 19 1 36 19 1 36 19 1 36 19 1 36 19 1 42 22 1 107 55 2 106 55 2 106 55 2 129 129 129 128 128 128 127 127 127 126 126 126 125 125 125 124 124 124 123 123 123 122 122 122 121 121 121 119 119 119 118 118 118 117 117 117 116 116 116 115 115 115 114 114 114 113 113 113 111 111 111 110 110 110 109 109 109 108 108 108 107 107 107 106 106 106 105 105 105 104 104 104 103 103 103 102 102 102 101 101 101 100 100 100 99 99 99 98 98 98 97 97 97 96 96 96 95 95 95 94 94 94 93 93 93 92 92 92 
106 106 106 107 107 107 108 108 108 109 109 109 111 111 111 112 112 112 113 113 113 114 114 114 115 115 115 116 116 116 118 118 118 119 119 119 120 120 120 121 121 121 122 122 122 124 124 124 125 125 125 126 126 126 127 127 127 128 128 128 129 129 129 130 130 130 132 132 132 133 133 133 134 134 134 135 135 135 136 136 136 137 137 137 137 137 137 138 138 138 121 62 2 92 48 2 99 51 2 99 51 2 111 57 2 111 57 2 111 57 2 111 57 2 44 23 1 44 23 1 44 23 1 44 23 1 44 23 1 44 23 1 44 23 1 37 20 1 37 20 1 37 20 1 37 20 1 160 159 156 154 153 150 148 147 144 200 199 196 37 20 1 37 19 1 37 19 1 37 19 1 37 19 1 36 19 1 36 19 1 43 22 1 42 22 1 108 56 2 107 55 2 107 55 2 129 129 129 128 128 128 127 127 127 126 126 126 124 124 124 123 123 123 122 122 122 121 121 121 120 120 120 118 118 118 117 117 117 116 116 116 115 115 115 114 114 114 113 113 113 111 111 111 110 110 110 109 109 109 108 108 108 107 107 107 106 106 106 105 105 105 103 103 103 102 102 102 101 101 101 100 100 100 99 99 99 98 98 98 97 97 97 96 96 96 95 95 95 94 94 94 93 93 93 92 92 92 91 91 91 
105 105 105 106 106 106 107 107 107 109 109 109 110 110 110 111 111 111 112 112 112 113 113 113 115 115 115 116 116 116 117 117 117 118 118 118 120 120 120 121 121 121 122 122 122 123 123 123 125 125 125 126 126 126 127 127 127 128 128 128 129 129 129 131 131 131 132 132 132 133 133 133 134 134 134 135 135 135 136 136 136 137 137 137 138 138 138 139 139 139 94 49 2 93 48 2 100 52 2 100 52 2 100 52 2 101 52 2 113 58 2 44 23 1 44 23 1 44 23 1 45 23 1 45 23 1 45 23 1 45 24 1 83 82 79 182 180 178 177 175 173 171 170 168 166 165 162 160 159 156 154 153 150 204 203 201 203 202 199 202 200 198 200 199 196 37 20 1 37 20 1 37 20 1 37 19 1 44 23 1 43 23 1 43 23 1 43 22 1 109 56 2 108 56 2 107 55 2 128 128 128 127 127 127 126 126 126 125 125 125 123 123 123 122 122 122 121 121 121 120 120 120 118 118 118 117 117 117 116 116 116 115 115 115 114 114 114 112 112 112 111 111 111 110 110 110 109 109 109 108 108 108 106 106 106 105 105 105 104 104 104 103 103 103 102 102 102 101 101 101 100 100 100 99 99 99 97 97 97 96 96 96 95 95 95 94 94 94 93 93 93 92 92 92 91 91 91 91 91 91 
104 104 104 105 105 105 106 106 106 108 108 108 109 109 109 110 110 110 111 111 111 113 113 113 114 114 114 115 115 115 116 116 116 118 118 118 119 119 119 120 120 120 122 122 122 123 123 123 124 124 124 125 125 125 127 127 127 128 128 128 129 129 129 130 130 130 132 132 132 133 133 133 134 134 134 135 135 135 136 136 136 137 137 137 138 138 138 95 49 2 95 49 2 101 52 2 101 52 2 101 52 2 102 52 2 102 52 2 57 30 1 45 23 1 45 24 1 45 24 1 45 24 1 45 24 1 45 24 1 91 89 87 82 81 79 183 181 179 177 176 174 172 171 168 166 165 163 160 159 157 154 153 150 207 206 204 206 205 203 205 203 201 203 201 199 201 199 197 198 197 194 195 194 192 44 23 1 44 23 1 44 23 1 44 23 1 43 23 1 43 23 1 110 57 2 109 56 2 108 56 2 127 127 127 126 126 126 125 125 125 123 123 123 122 122 122 121 121 121 119 119 119 118 118 118 117 117 117 116 116 116 114 114 114 113 113 113 112 112 112 111 111 111 109 109 109 108 108 108 107 107 107 106 106 106 105 105 105 103 103 103 102 102 102 101 101 101 100 100 100 99 99 99 98 98 98 97 97 97 96 96 96 95 95 95 94 94 94 93 93 93 92 92 92 91 91 91 90 90 90 
103 103 103 104 104 104 105 105 105 106 106 106 108 108 108 109 109 109 110 110 110 112 112 112 113 113 113 114 114 114 115 115 115 117 117 117 118 118 118 119 119 119 121 121 121 122 122 122 123 123 123 125 125 125 126 126 126 127 127 127 129 129 129 130 130 130 131 131 131 132 132 132 134 134 134 135 135 135 136 136 136 137 137 137 138 138 138 96 50 2 95 49 2 102 53 2 102 53 2 103 53 2 103 53 2 103 53 2 57 30 1 58 30 1 46 24 1 46 24 1 46 24 1 46 24 1 99 97 95 90 89 87 81 80 78 183 182 180 178 177 174 172 171 169 166 165 163 160 159 156 35 34 31 210 209 207 209 208 205 207 206 204 205 204 202 203 202 200 201 199 197 198 197 194 134 133 131 45 23 1 45 23 1 44 23 1 44 23 1 44 23 1 43 23 1 110 57 2 110 57 2 109 56 2 126 126 126 124 124 124 123 123 123 122 122 122 120 120 120 119 119 119 118 118 118 116 116 116 115 115 115 114 114 114 112 112 112 111 111 111 110 110 110 109 109 109 107 107 107 106 106 106 105 105 105 104 104 104 103 103 103 101 101 101 100 100 100 99 99 99 98 98 98 97 97 97 96 96 96 95 95 95 94 94 94 93 93 93 92 92 92 91 91 91 90 90 90 89 89 89 
101 101 101 103 103 103 104 104 104 105 105 105 106 106 106 108 108 108 109 109 109 110 110 110 111 111 111 113 113 113 114 114 114 115 115 115 117 117 117 118 118 118 119 119 119 121 121 121 122 122 122 124 124 124 125 125 125 126 126 126 128 128 128 129 129 129 130 130 130 131 131 131 133 133 133 134 134 134 135 135 135 136 136 136 137 137 137 97 50 2 96 50 2 103 53 2 104 54 2 104 54 2 104 54 2 104 54 2 58 30 1 58 30 1 59 31 1 46 24 1 47 24 1 107 106 103 98 97 95 90 88 86 146 146 146 146 146 146 146 146 146 146 146 146 145 145 145 145 145 145 144 144 144 144 144 144 29 27 25 210 209 207 208 207 204 206 204 202 203 202 199 137 136 133 138 137 135 140 138 136 45 24 1 45 24 1 45 23 1 44 23 1 44 23 1 44 23 1 111 57 2 111 57 2 110 57 2 124 124 124 122 122 122 121 121 121 120 120 120 118 118 118 117 117 117 116 116 116 114 114 114 113 113 113 112 112 112 110 110 110 109 109 109 108 108 108 106 106 106 105 105 105 104 104 104 103 103 103 102 102 102 100 100 100 99 99 99 98 98 98 97 97 97 96 96 96 95 95 95 94 94 94 93 93 93 91 91 91 90 90 90 89 89 89 88 88 88 88 88 88 
100 100 100 101 101 101 102 102 102 103 103 103 105 105 105 106 106 106 107 107 107 109 109 109 110 110 110 111 111 111 113 113 113 114 114 114 115 115 115 117 117 117 118 118 118 119 119 119 121 121 121 122 122 122 123 123 123 125 125 125 126 126 126 128 128 128 129 129 129 130 130 130 131 131 131 133 133 133 134 134 134 135 135 135 99 51 2 98 51 2 104 54 2 105 54 2 105 54 2 105 54 2 105 54 2 59 30 1 59 31 1 59 31 1 60 31 1 60 31 1 115 114 112 107 106 103 98 97 94 146 146 146 146 146 146 146 146 146 145 145 145 145 145 145 145 145 145 144 144 144 144 144 144 143 143 143 142 142 142 142 142 142 141 141 141 32 31 29 140 138 136 141 140 138 143 142 139 144 143 140 145 144 141 46 24 1 45 24 1 45 24 1 45 23 1 44 23 1 44 23 1 112 58 2 99 51 2 123 123 123 121 121 121 120 120 120 118 118 118 117 117 117 116 116 116 114 114 114 113 113 113 112 112 112 110 110 110 109 109 109 108 108 108 106 106 106 105 105 105 104 104 104 103 103 103 101 101 101 100 100 100 99 99 99 98 98 98 97 97 97 96 96 96 94 94 94 93 93 93 92 92 92 91 91 91 90 90 90 89 89 89 88 88 88 87 87 87 86 86 86 
98 98 98 99 99 99 100 100 100 102 102 102 103 103 103 104 104 104 105 105 105 107 107 107 108 108 108 109 109 109 111 111 111 112 112 112 113 113 113 115 115 115 116 116 116 117 117 117 119 119 119 120 120 120 122 122 122 123 123 123 124 124 124 126 126 126 127 127 127 128 128 128 130 130 130 131 131 131 132 132 132 133 133 133 99 51 2 98 51 2 106 54 2 106 55 2 106 55 2 106 55 2 106 55 2 59 31 1 60 31 1 60 31 1 60 31 1 53 52 49 115 114 112 106 105 103 144 144 144 144 144 144 144 144 144 144 144 144 144 144 144 144 144 144 143 143 143 143 143 143 142 142 142 142 142 142 141 141 141 140 140 140 139 139 139 138 138 138 41 40 38 146 145 142 147 146 144 148 147 145 149 148 145 149 148 146 46 24 1 46 24 1 45 24 1 45 24 1 57 30 1 101 52 2 101 52 2 100 52 2 120 120 120 118 118 118 117 117 117 116 116 116 114 114 114 113 113 113 112 112 112 110 110 110 109 109 109 108 108 108 106 106 106 105 105 105 104 104 104 102 102 102 101 101 101 100 100 100 99 99 99 98 98 98 96 96 96 95 95 95 94 94 94 93 93 93 92 92 92 91 91 91 90 90 90 89 89 89 88 88 88 87 87 87 86 86 86 85 85 85 
96 96 96 97 97 97 98 98 98 99 99 99 101 101 101 102 102 102 103 103 103 104 104 104 106 106 106 107 107 107 108 108 108 110 110 110 111 111 111 112 112 112 114 114 114 115 115 115 117 117 117 118 118 118 119 119 119 121 121 121 122 122 122 123 123 123 125 125 125 126 126 126 127 127 127 129 129 129 130 130 130 131 131 131 100 52 2 106 55 2 107 55 2 107 55 2 107 55 2 107 55 2 60 31 1 60 31 1 60 31 1 61 32 1 61 32 1 54 53 51 115 114 112 142 142 142 142 142 142 142 142 142 142 142 142 142 142 142 142 142 142 142 142 142 142 142 142 141 141 141 141 141 141 140 140 140 139 139 139 138 138 138 138 138 138 137 137 137 136 136 136 45 44 42 152 150 148 153 151 149 153 152 150 154 153 150 154 153 150 46 24 1 59 30 1 58 30 1 58 30 1 103 53 2 102 53 2 101 52 2 118 118 118 117 117 117 115 115 115 114 114 114 113 113 113 111 111 111 110 110 110 108 108 108 107 107 107 106 106 106 105 105 105 103 103 103 102 102 102 101 101 101 99 99 99 98 98 98 97 97 97 96 96 96 95 95 95 94 94 94 92 92 92 91 91 91 90 90 90 89 89 89 88 88 88 87 87 87 86 86 86 85 85 85 84 84 84 83 83 83 
94 94 94 95 95 95 96 96 96 97 97 97 98 98 98 100 100 100 101 101 101 102 102 102 103 103 103 105 105 105 106 106 106 107 107 107 109 109 109 110 110 110 111 111 111 113 113 113 114 114 114 115 115 115 117 117 117 118 118 118 119 119 119 121 121 121 122 122 122 123 123 123 125 125 125 126 126 126 127 127 127 102 53 2 101 52 2 108 56 2 108 56 2 108 56 2 108 56 2 108 56 2 60 31 1 61 32 1 61 32 1 62 32 1 62 32 1 55 54 52 139 139 139 139 139 139 140 140 140 140 140 140 140 140 140 140 140 140 140 140 140 139 139 139 139 139 139 138 138 138 29 14 14 137 137 137 137 137 137 136 136 136 135 135 135 134 134 134 133 133 133 132 132 132 49 48 46 157 156 153 158 157 154 158 157 154 42 41 39 60 31 1 59 31 1 59 31 1 58 30 1 58 30 1 104 53 2 103 53 2 116 116 116 114 114 114 113 113 113 112 112 112 110 110 110 109 109 109 108 108 108 106 106 106 105 105 105 104 104 104 103 103 103 101 101 101 100 100 100 99 99 99 98 98 98 96 96 96 95 95 95 94 94 94 93 93 93 92 92 92 91 91 91 90 90 90 89 89 89 87 87 87 86 86 86 85 85 85 84 84 84 83 83 83 83 83 83 82 82 82 
91 91 91 92 92 92 93 93 93 95 95 95 96 96 96 97 97 97 98 98 98 99 99 99 101 101 101 102 102 102 103 103 103 104 104 104 106 106 106 107 107 107 108 108 108 110 110 110 111 111 111 112 112 112 114 114 114 115 115 115 116 116 116 118 118 118 119 119 119 120 120 120 121 121 121 123 123 123 124 124 124 102 53 2 101 52 2 109 56 2 109 56 2 109 56 2 109 56 2 110 56 2 61 32 1 62 32 1 62 32 1 63 33 1 70 68 66 56 55 53 136 136 136 136 136 136 136 136 136 136 136 136 136 136 136 136 136 136 136 136 136 29 14 14 21 6 6 16 1 1 18 1 0 18 1 0 17 2 2 24 9 9 132 132 132 131 131 131 130 130 130 129 129 129 128 128 128 53 52 50 162 161 159 44 42 40 45 44 42 61 32 1 60 31 1 60 31 1 59 31 1 59 31 1 105 54 2 104 54 2 103 53 2 112 112 112 111 111 111 109 109 109 108 108 108 107 107 107 105 105 105 104 104 104 103 103 103 101 101 101 100 100 100 99 99 99 98 98 98 97 97 97 95 95 95 94 94 94 93 93 93 92 92 92 91 91 91 90 90 90 89 89 89 88 88 88 87 87 87 86 86 86 85 85 85 84 84 84 83 83 83 82 82 82 81 81 81 80 80 80 
89 89 89 90 90 90 91 91 91 92 92 92 93 93 93 94 94 94 95 95 95 96 96 96 98 98 98 99 99 99 100 100 100 101 101 101 103 103 103 104 104 104 105 105 105 106 106 106 108 108 108 109 109 109 110 110 110 111 111 111 113 113 113 114 114 114 115 115 115 117 117 117 118 118 118 119 119 119 104 54 2 103 53 2 110 56 2 110 57 2 110 57 2 110 57 2 110 57 2 61 32 1 62 32 1 62 32 1 63 33 1 63 33 1 71 70 68 57 56 54 132 132 132 132 132 132 132 132 132 132 132 132 132 132 132 132 132 132 28 13 13 16 1 0 19 2 0 26 11 11 26 11 11 26 11 11 26 11 11 26 11 11 18 3 2 127 127 127 127 127 127 126 126 126 125 125 125 124 124 124 45 43 41 47 45 43 49 47 45 50 49 47 61 32 1 61 32 1 60 31 1 59 31 1 106 55 2 106 54 2 105 54 2 109 109 109 108 108 108 106 106 106 105 105 105 104 104 104 103 103 103 101 101 101 100 100 100 99 99 99 98 98 98 97 97 97 95 95 95 94 94 94 93 93 93 92 92 92 91 91 91 90 90 90 89 89 89 88 88 88 86 86 86 85 85 85 84 84 84 83 83 83 82 82 82 82 82 82 81 81 81 80 80 80 79 79 79 78 78 78 
86 86 86 87 87 87 88 88 88 89 89 89 90 90 90 91 91 91 92 92 92 93 93 93 94 94 94 96 96 96 97 97 97 98 98 98 99 99 99 100 100 100 102 102 102 103 103 103 104 104 104 105 105 105 106 106 106 108 108 108 109 109 109 110 110 110 111 111 111 113 113 113 114 114 114 115 115 115 105 54 2 68 35 1 96 49 2 96 49 2 96 50 2 96 50 2 96 50 2 96 50 2 78 40 2 79 41 2 80 41 2 64 33 1 73 72 69 127 127 127 127 127 127 127 127 127 128 128 128 128 128 128 128 128 128 29 14 14 19 4 3 15 0 0 25 10 10 25 10 10 24 9 9 24 9 9 25 10 10 25 10 10 26 11 11 30 15 14 122 122 122 122 122 122 121 121 121 120 120 120 48 47 44 50 49 46 52 51 48 53 52 50 62 32 1 61 32 1 61 32 1 60 31 1 60 31 1 107 55 2 106 55 2 106 106 106 105 105 105 103 103 103 102 102 102 101 101 101 100 100 100 98 98 98 97 97 97 96 96 96 95 95 95 94 94 94 93 93 93 92 92 92 90 90 90 89 89 89 88 88 88 87 87 87 86 86 86 85 85 85 84 84 84 83 83 83 82 82 82 81 81 81 80 80 80 79 79 79 78 78 78 78 78 78 77 77 77 76 76 76 
83 83 83 84 84 84 85 85 85 86 86 86 87 87 87 88 88 88 89 89 89 90 90 90 91 91 91 92 92 92 93 93 93 95 95 95 96 96 96 97 97 97 98 98 98 99 99 99 100 100 100 101 101 101 103 103 103 104 104 104 105 105 105 106 106 106 107 107 107 108 108 108 109 109 109 110 110 110 69 36 1 69 36 1 68 35 1 97 50 2 97 50 2 97 50 2 98 50 2 98 50 2 79 41 2 80 41 2 80 42 2 81 42 2 74 73 71 122 122 122 122 122 122 122 122 122 123 123 123 123 123 123 123 123 123 27 12 12 15 0 0 24 9 9 23 8 8 22 7 7 22 7 7 22 7 7 22 7 7 23 8 8 24 9 9 15 0 0 118 118 118 117 117 117 116 116 116 115 115 115 31 30 27 53 52 50 55 54 52 57 56 53 63 33 1 62 32 1 62 32 1 61 32 1 60 31 1 108 56 2 108 55 2 107 55 2 101 101 101 100 100 100 99 99 99 98 98 98 96 96 96 95 95 95 94 94 94 93 93 93 92 92 92 91 91 91 90 90 90 89 89 89 88 88 88 87 87 87 86 86 86 85 85 85 84 84 84 83 83 83 82 82 82 81 81 81 80 80 80 79 79 79 78 78 78 77 77 77 76 76 76 75 75 75 74 74 74 74 74 74 
80 80 80 81 81 81 82 82 82 83 83 83 84 84 84 85 85 85 86 86 86 87 87 87 88 88 88 89 89 89 90 90 90 91 91 91 92 92 92 93 93 93 94 94 94 95 95 95 96 96 96 97 97 97 98 98 98 99 99 99 101 101 101 102 102 102 103 103 103 104 104 104 105 105 105 106 106 106 70 36 1 70 36 1 69 36 1 98 51 2 98 51 2 98 51 2 99 51 2 99 51 2 80 41 2 80 42 2 81 42 2 82 42 2 75 63 51 116 116 116 117 117 117 117 117 117 117 117 117 117 117 117 117 117 117 24 9 9 15 0 0 19 4 4 17 2 2 16 1 1 16 1 1 16 1 1 17 2 2 18 3 3 20 5 5 21 3 0 113 113 113 112 112 112 111 111 111 111 111 111 25 24 21 57 56 53 59 58 55 60 59 57 62 61 58 63 33 1 63 33 1 62 32 1 61 32 1 109 56 2 109 56 2 108 56 2 97 97 97 96 96 96 95 95 95 94 94 94 93 93 93 92 92 92 91 91 91 90 90 90 89 89 89 88 88 88 87 87 87 86 86 86 85 85 85 84 84 84 83 83 83 82 82 82 81 81 81 80 80 80 79 79 79 78 78 78 77 77 77 76 76 76 75 75 75 75 75 75 74 74 74 73 73 73 72 72 72 71 71 71 
77 77 77 78 78 78 79 79 79 79 79 79 80 80 80 81 81 81 82 82 82 83 83 83 84 84 84 85 85 85 86 86 86 87 87 87 88 88 88 89 89 89 90 90 90 91 91 91 92 92 92 93 93 93 94 94 94 95 95 95 96 96 96 97 97 97 98 98 98 99 99 99 100 100 100 101 101 101 71 37 1 71 37 1 70 36 1 99 51 2 99 51 2 100 51 2 100 52 2 100 52 2 80 42 2 81 42 2 82 43 2 83 43 2 87 75 62 111 111 111 111 111 111 111 111 111 112 112 112 112 112 112 26 10 10 18 3 3 17 1 0 15 0 0 15 0 0 15 0 0 15 0 0 15 0 0 15 0 0 15 0 0 15 0 0 21 3 0 24 9 9 107 107 107 106 106 106 106 106 106 105 105 105 61 59 57 63 61 59 64 63 60 65 64 62 64 33 1 63 33 1 63 33 1 62 32 1 61 32 1 110 57 2 109 56 2 94 94 94 93 93 93 92 92 92 91 91 91 90 90 90 89 89 89 88 88 88 87 87 87 86 86 86 85 85 85 84 84 84 83 83 83 82 82 82 81 81 81 80 80 80 79 79 79 78 78 78 77 77 77 76 76 76 75 75 75 75 75 75 74 74 74 73 73 73 72 72 72 71 71 71 71 71 71 70 70 70 69 69 69 
74 74 74 75 75 75 75 75 75 76 76 76 77 77 77 78 78 78 79 79 79 80 80 80 81 81 81 81 81 81 82 82 82 83 83 83 84 84 84 85 85 85 86 86 86 87 87 87 88 88 88 89 89 89 90 90 90 91 91 91 92 92 92 93 93 93 93 93 93 94 94 94 95 95 95 96 96 96 97 97 97 72 37 1 71 37 1 100 52 2 101 52 2 101 52 2 101 52 2 101 52 2 81 42 2 82 42 2 83 43 2 84 43 2 85 44 2 105 105 105 105 105 105 106 106 106 106 106 106 106 106 106 106 106 106 15 0 0 17 1 0 23 4 0 15 0 0 15 0 0 15 0 0 15 0 0 15 0 0 15 0 0 15 0 0 17 1 0 102 102 102 102 102 102 101 101 101 101 101 101 100 100 100 45 44 42 26 15 2 27 15 3 27 16 3 81 42 2 80 42 2 79 41 2 78 41 2 97 50 2 96 50 2 96 49 2 90 90 90 89 89 89 88 88 88 87 87 87 86 86 86 85 85 85 84 84 84 83 83 83 82 82 82 81 81 81 80 80 80 79 79 79 79 79 79 78 78 78 77 77 77 76 76 76 75 75 75 74 74 74 74 74 74 73 73 73 72 72 72 71 71 71 70 70 70 70 70 70 69 69 69 68 68 68 67 67 67 67 67 67 
71 71 71 71 71 71 72 72 72 73 73 73 74 74 74 74 74 74 75 75 75 76 76 76 77 77 77 78 78 78 79 79 79 79 79 79 80 80 80 81 81 81 82 82 82 83 83 83 84 84 84 85 85 85 85 85 85 86 86 86 87 87 87 88 88 88 89 89 89 90 90 90 90 90 90 91 91 91 92 92 92 73 38 2 72 37 2 72 37 2 102 52 2 102 53 2 102 53 2 102 53 2 102 53 2 83 43 2 84 43 2 85 44 2 86 44 2 99 99 99 99 99 99 100 100 100 100 100 100 100 100 100 100 100 100 43 0 0 19 4 4 21 3 0 15 0 0 15 0 0 15 0 0 15 0 0 15 0 0 15 0 0 15 0 0 17 1 0 97 97 97 97 97 97 96 96 96 95 95 95 95 95 95 27 16 2 28 16 3 28 17 4 28 17 5 82 43 2 81 42 2 80 42 2 79 41 2 98 51 2 97 50 2 97 50 2 85 85 85 85 85 85 84 84 84 83 83 83 82 82 82 81 81 81 80 80 80 79 79 79 79 79 79 78 78 78 77 77 77 76 76 76 75 75 75 75 75 75 74 74 74 73 73 73 72 72 72 71 71 71 71 71 71 70 70 70 69 69 69 68 68 68 68 68 68 67 67 67 66 66 66 66 66 66 65 65 65 64 64 64 
67 67 67 68 68 68 69 69 69 70 70 70 70 70 70 71 71 71 72 72 72 73 73 73 73 73 73 74 74 74 75 75 75 76 76 76 76 76 76 77 77 77 78 78 78 79 79 79 79 79 79 80 80 80 81 81 81 82 82 82 83 83 83 83 83 83 84 84 84 85 85 85 85 85 85 86 86 86 87 87 87 74 38 2 73 38 2 73 38 2 103 53 2 103 53 2 103 53 2 103 53 2 103 53 2 84 43 2 85 44 2 85 44 2 86 45 2 95 82 69 94 94 94 94 94 94 94 94 94 94 94 94 94 94 94 105 0 0 59 0 0 42 9 9 21 3 0 27 6 0 15 0 0 15 0 0 15 0 0 26 5 0 21 3 0 15 0 0 92 92 92 91 91 91 91 91 91 90 90 90 90 90 90 29 17 4 29 17 4 30 18 5 84 44 2 83 43 2 82 43 2 81 42 2 80 42 2 99 51 2 99 51 2 98 51 2 81 81 81 81 81 81 80 80 80 79 79 79 78 78 78 77 77 77 77 77 77 76 76 76 75 75 75 74 74 74 74 74 74 73 73 73 72 72 72 71 71 71 71 71 71 70 70 70 69 69 69 68 68 68 68 68 68 67 67 67 66 66 66 66 66 66 65 65 65 64 64 64 64 64 64 63 63 63 62 62 62 62 62 62 
64 64 64 65 65 65 66 66 66 66 66 66 67 67 67 68 68 68 68 68 68 69 69 69 70 70 70 70 70 70 71 71 71 72 72 72 72 72 72 73 73 73 74 74 74 75 75 75 75 75 75 76 76 76 77 77 77 77 77 77 78 78 78 79 79 79 79 79 79 80 80 80 81 81 81 81 81 81 82 82 82 75 39 2 74 39 2 74 39 2 104 54 2 104 54 2 104 54 2 105 54 2 105 54 2 84 44 2 85 44 2 86 45 2 87 45 2 107 95 82 88 88 88 88 88 88 88 88 88 89 89 89 89 89 89 89 89 89 130 5 5 100 13 13 78 13 11 58 5 0 46 5 0 38 5 0 35 4 0 36 3 0 43 0 0 87 87 87 86 86 86 86 86 86 86 86 86 85 85 85 85 85 85 30 18 5 31 19 6 31 20 7 85 44 2 84 44 2 83 43 2 82 43 2 81 42 2 101 52 2 100 52 2 99 51 2 77 77 77 76 76 76 76 76 76 75 75 75 74 74 74 74 74 74 73 73 73 72 72 72 72 72 72 71 71 71 70 70 70 69 69 69 69 69 69 68 68 68 67 67 67 67 67 67 66 66 66 65 65 65 65 65 65 64 64 64 64 64 64 63 63 63 62 62 62 62 62 62 61 61 61 60 60 60 60 60 60 59 59 59 
61 61 61 62 62 62 62 62 62 63 63 63 64 64 64 64 64 64 65 65 65 65 65 65 66 66 66 67 67 67 67 67 67 68 68 68 69 69 69 69 69 69 70 70 70 71 71 71 71 71 71 72 72 72 72 72 72 73 73 73 74 74 74 74 74 74 75 75 75 75 75 75 76 76 76 77 77 77 77 77 77 76 39 2 75 39 2 75 39 2 105 54 2 105 54 2 106 54 2 106 55 2 106 55 2 85 44 2 86 45 2 87 45 2 88 46 2 105 54 2 83 83 83 83 83 83 83 83 83 83 83 83 83 83 83 83 83 83 83 83 83 177 9 9 239 108 108 198 88 88 147 49 48 112 22 21 92 2 2 103 0 0 82 82 82 82 82 82 81 81 81 81 81 81 80 80 80 80 80 80 80 80 80 32 20 7 33 21 8 33 21 8 86 45 2 85 44 2 84 44 2 83 43 2 82 43 2 102 53 2 101 52 2 101 52 2 73 73 73 72 72 72 72 72 72 71 71 71 71 71 71 70 70 70 69 69 69 69 69 69 68 68 68 67 67 67 67 67 67 66 66 66 66 66 66 65 65 65 64 64 64 64 64 64 63 63 63 62 62 62 62 62 62 61 61 61 61 61 61 60 60 60 60 60 60 59 59 59 58 58 58 58 58 58 57 57 57 57 57 57 
58 58 58 59 59 59 59 59 59 60 60 60 60 60 60 61 61 61 61 61 61 62 62 62 63 63 63 63 63 63 64 64 64 64 64 64 65 65 65 65 65 65 66 66 66 67 67 67 67 67 67 68 68 68 68 68 68 69 69 69 69 69 69 70 70 70 70 70 70 71 71 71 71 71 71 72 72 72 72 72 72 73 73 73 77 40 2 76 40 3 106 55 2 106 55 2 107 55 2 107 55 2 107 55 2 107 55 2 102 53 2 103 53 2 104 54 2 105 54 2 106 55 2 77 77 77 78 78 78 78 78 78 78 78 78 78 78 78 78 78 78 78 78 78 78 78 78 78 78 78 200 1 1 77 77 77 77 77 77 77 77 77 77 77 77 76 76 76 76 76 76 76 76 76 76 76 76 75 75 75 34 21 7 34 22 8 35 23 9 35 23 10 87 45 2 86 45 2 85 44 2 84 43 2 104 53 2 103 53 2 103 53 2 70 70 70 69 69 69 68 68 68 68 68 68 67 67 67 67 67 67 66 66 66 66 66 66 65 65 65 65 65 65 64 64 64 63 63 63 63 63 63 62 62 62 62 62 62 61 61 61 61 61 61 60 60 60 59 59 59 59 59 59 58 58 58 58 58 58 57 57 57 57 57 57 56 56 56 56 56 56 55 55 55 55 55 55 54 54 54 
55 55 55 56 56 56 56 56 56 57 57 57 57 57 57 58 58 58 58 58 58 59 59 59 59 59 59 60 60 60 60 60 60 61 61 61 61 61 61 62 62 62 62 62 62 63 63 63 63 63 63 64 64 64 64 64 64 65 65 65 65 65 65 66 66 66 66 66 66 67 67 67 67 67 67 68 68 68 68 68 68 68 68 68 78 41 2 78 41 3 77 41 4 108 56 2 108 56 2 108 56 2 93 48 2 93 48 2 102 53 2 103 53 2 105 54 2 106 55 2 107 55 2 108 56 2 72 72 72 73 73 73 73 73 73 73 73 73 73 73 73 73 73 73 73 73 73 73 73 73 72 72 72 72 72 72 72 72 72 72 72 72 72 72 72 72 72 72 71 71 71 71 71 71 71 71 71 70 70 70 66 34 1 65 34 1 64 33 2 105 54 2 88 46 2 87 45 2 86 44 2 85 44 2 105 54 2 104 54 2 104 54 2 66 66 66 65 65 65 65 65 65 64 64 64 64 64 64 63 63 63 63 63 63 62 62 62 62 62 62 61 61 61 61 61 61 60 60 60 60 60 60 59 59 59 59 59 59 58 58 58 57 57 57 57 57 57 56 56 56 56 56 56 56 56 56 55 55 55 55 55 55 54 54 54 54 54 54 53 53 53 53 53 53 52 52 52 52 52 52 
52 52 52 53 53 53 53 53 53 54 54 54 54 54 54 54 54 54 55 55 55 55 55 55 56 56 56 56 56 56 57 57 57 57 57 57 58 58 58 58 58 58 59 59 59 59 59 59 59 59 59 60 60 60 60 60 60 61 61 61 61 61 61 62 62 62 62 62 62 62 62 62 63 63 63 63 63 63 64 64 64 64 64 64 79 41 2 79 42 3 79 42 4 109 56 2 94 48 2 94 49 2 94 49 2 95 49 2 95 49 2 104 54 2 105 54 2 106 55 2 107 55 2 109 56 2 170 138 105 68 68 68 68 68 68 68 68 68 68 68 68 68 68 68 68 68 68 68 68 68 68 68 68 68 68 68 67 67 67 67 67 67 67 67 67 67 67 67 67 67 67 66 66 66 66 66 66 68 35 2 67 35 2 65 34 2 107 55 2 105 54 2 104 54 2 103 53 2 87 45 2 86 44 2 106 55 2 106 55 2 105 54 2 62 62 62 61 61 61 61 61 61 60 60 60 60 60 60 59 59 59 59 59 59 59 59 59 58 58 58 58 58 58 57 57 57 57 57 57 56 56 56 56 56 56 55 55 55 55 55 55 54 54 54 54 54 54 54 54 54 53 53 53 53 53 53 52 52 52 52 52 52 51 51 51 51 51 51 51 51 51 50 50 50 50 50 50 49 49 49 
49 49 49 50 50 50 50 50 50 51 51 51 51 51 51 51 51 51 52 52 52 52 52 52 53 53 53 53 53 53 53 53 53 54 54 54 54 54 54 55 55 55 55 55 55 55 55 55 56 56 56 56 56 56 57 57 57 57 57 57 57 57 57 58 58 58 58 58 58 58 58 58 59 59 59 59 59 59 59 59 59 60 60 60 81 42 2 80 42 3 80 43 4 95 49 2 95 49 2 95 49 2 96 49 2 96 49 2 96 50 2 96 50 2 105 54 2 107 55 2 108 56 2 109 56 2 110 57 2 173 140 106 63 63 63 63 63 63 63 63 63 63 63 63 63 63 63 63 63 63 63 63 63 63 63 63 63 63 63 63 63 63 63 63 63 62 62 62 62 62 62 62 62 62 70 37 2 69 36 3 68 36 3 109 56 2 107 55 2 106 55 2 105 54 2 104 54 2 103 53 2 102 52 2 107 55 2 107 55 2 106 55 2 58 58 58 58 58 58 57 57 57 57 57 57 56 56 56 56 56 56 56 56 56 55 55 55 55 55 55 54 54 54 54 54 54 54 54 54 53 53 53 53 53 53 52 52 52 52 52 52 52 52 52 51 51 51 51 51 51 50 50 50 50 50 50 50 50 50 49 49 49 49 49 49 48 48 48 48 48 48 48 48 48 47 47 47 47 47 47 
47 47 47 47 47 47 47 47 47 48 48 48 48 48 48 48 48 48 49 49 49 49 49 49 49 49 49 50 50 50 50 50 50 51 51 51 51 51 51 51 51 51 52 52 52 52 52 52 52 52 52 53 53 53 53 53 53 53 53 53 54 54 54 54 54 54 54 54 54 55 55 55 55 55 55 55 55 55 56 56 56 56 56 56 82 43 2 71 51 29 74 54 32 77 57 36 96 50 2 97 50 2 97 50 2 97 50 2 97 50 2 97 50 2 97 50 2 107 55 2 108 56 2 109 56 2 111 57 2 112 58 2 176 141 106 59 59 59 59 59 59 59 59 59 59 59 59 59 59 59 59 59 59 59 59 59 59 59 59 58 58 58 58 58 58 58 58 58 58 58 58 72 38 3 71 38 4 70 38 4 111 57 2 109 56 2 108 56 2 107 55 2 106 55 2 105 54 2 103 53 2 94 49 2 94 48 2 108 56 2 108 56 2 54 54 54 54 54 54 54 54 54 53 53 53 53 53 53 53 53 53 52 52 52 52 52 52 52 52 52 51 51 51 51 51 51 50 50 50 50 50 50 50 50 50 49 49 49 49 49 49 49 49 49 48 48 48 48 48 48 48 48 48 47 47 47 47 47 47 46 46 46 46 46 46 46 46 46 45 45 45 45 45 45 45 45 45 44 44 44 
44 44 44 44 44 44 45 45 45 45 45 45 45 45 45 45 45 45 46 46 46 46 46 46 46 46 46 47 47 47 47 47 47 47 47 47 48 48 48 48 48 48 48 48 48 49 49 49 49 49 49 49 49 49 50 50 50 50 50 50 50 50 50 50 50 50 51 51 51 51 51 51 51 51 51 52 52 52 52 52 52 52 52 52 52 52 52 72 51 29 75 54 32 78 57 36 80 60 39 98 51 2 98 51 2 98 51 2 98 51 2 99 51 2 99 51 2 99 51 2 109 56 2 110 57 2 111 57 2 112 58 2 114 59 2 124 64 3 178 133 87 171 124 75 55 55 55 55 55 55 55 55 55 55 55 55 54 54 54 54 54 54 54 54 54 111 64 15 109 63 15 74 40 5 73 40 6 113 58 2 111 57 2 110 57 2 109 56 2 108 56 2 107 55 2 105 54 2 96 50 2 96 49 2 95 49 2 94 49 2 109 56 2 51 51 51 51 51 51 50 50 50 50 50 50 50 50 50 49 49 49 49 49 49 49 49 49 48 48 48 48 48 48 48 48 48 47 47 47 47 47 47 47 47 47 46 46 46 46 46 46 46 46 46 46 46 46 45 45 45 45 45 45 45 45 45 44 44 44 44 44 44 44 44 44 43 43 43 43 43 43 43 43 43 42 42 42 42 42 42 
41 41 41 42 42 42 42 42 42 42 42 42 42 42 42 43 43 43 43 43 43 43 43 43 44 44 44 44 44 44 44 44 44 44 44 44 45 45 45 45 45 45 45 45 45 46 46 46 46 46 46 46 46 46 46 46 46 47 47 47 47 47 47 47 47 47 47 47 47 48 48 48 48 48 48 48 48 48 48 48 48 48 48 48 49 49 49 49 49 49 76 55 32 79 58 36 82 61 39 84 64 42 99 51 2 100 51 2 100 51 2 100 52 2 100 52 2 100 52 2 100 52 2 110 57 2 111 57 2 113 58 2 123 64 3 124 64 3 125 64 3 126 65 3 126 65 3 177 132 84 170 121 72 122 74 25 121 73 25 119 73 25 118 72 25 116 71 25 125 65 3 125 64 3 124 64 3 113 58 2 112 58 2 111 57 2 110 57 2 109 56 2 107 55 2 98 50 2 97 50 2 97 50 2 96 50 2 96 49 2 48 48 48 47 47 47 47 47 47 47 47 47 47 47 47 46 46 46 46 46 46 46 46 46 46 46 46 45 45 45 45 45 45 45 45 45 45 45 45 44 44 44 44 44 44 44 44 44 43 43 43 43 43 43 43 43 43 43 43 43 42 42 42 42 42 42 42 42 42 41 41 41 41 41 41 41 41 41 41 41 41 40 40 40 40 40 40 40 40 40 
39 39 39 39 39 39 39 39 39 40 40 40 40 40 40 40 40 40 40 40 40 41 41 41 41 41 41 41 41 41 41 41 41 42 42 42 42 42 42 42 42 42 42 42 42 43 43 43 43 43 43 43 43 43 43 43 43 43 43 43 44 44 44 44 44 44 44 44 44 44 44 44 45 45 45 45 45 45 45 45 45 45 45 45 45 45 45 45 45 45 46 46 46 80 58 35 83 61 39 85 64 42 88 67 45 101 52 2 101 52 2 101 52 2 101 52 2 101 52 2 101 52 2 101 52 2 112 58 2 123 63 3 123 64 3 124 64 3 125 64 3 126 65 3 126 65 3 127 65 3 127 66 3 128 66 3 128 66 3 127 66 3 127 65 3 126 65 3 126 65 3 125 64 3 124 64 3 123 64 3 113 58 2 112 58 2 110 57 2 109 56 2 99 51 2 99 51 2 99 51 2 98 51 2 98 50 2 63 43 21 44 44 44 44 44 44 44 44 44 44 44 44 44 44 44 43 43 43 43 43 43 43 43 43 43 43 43 42 42 42 42 42 42 42 42 42 42 42 42 41 41 41 41 41 41 41 41 41 41 41 41 40 40 40 40 40 40 40 40 40 40 40 40 39 39 39 39 39 39 39 39 39 39 39 39 38 38 38 38 38 38 38 38 38 38 38 38 37 37 37 
36 36 36 37 37 37 37 37 37 37 37 37 37 37 37 37 37 37 38 38 38 38 38 38 38 38 38 38 38 38 39 39 39 39 39 39 39 39 39 39 39 39 39 39 39 40 40 40 40 40 40 40 40 40 40 40 40 40 40 40 41 41 41 41 41 41 41 41 41 41 41 41 41 41 41 42 42 42 42 42 42 42 42 42 42 42 42 42 42 42 42 42 42 42 42 42 84 62 39 87 65 42 89 68 45 92 71 48 102 53 2 102 53 2 103 53 2 103 53 2 103 53 2 103 53 2 103 53 2 122 63 3 123 64 3 124 64 3 125 64 3 126 65 3 126 65 3 127 65 3 127 66 3 128 66 3 128 66 3 127 66 3 127 65 3 126 65 3 126 65 3 125 65 3 124 64 3 124 64 3 123 63 3 112 58 2 111 57 2 101 52 2 101 52 2 100 52 2 100 52 2 100 51 2 71 51 29 42 42 42 41 41 41 41 41 41 41 41 41 41 41 41 41 41 41 40 40 40 40 40 40 40 40 40 40 40 40 40 40 40 39 39 39 39 39 39 39 39 39 39 39 39 39 39 39 38 38 38 38 38 38 38 38 38 38 38 38 37 37 37 37 37 37 37 37 37 37 37 37 37 37 37 36 36 36 36 36 36 36 36 36 36 36 36 35 35 35 35 35 35 
34 34 34 34 34 34 34 34 34 35 35 35 35 35 35 35 35 35 35 35 35 35 35 35 36 36 36 36 36 36 36 36 36 36 36 36 36 36 36 37 37 37 37 37 37 37 37 37 37 37 37 37 37 37 37 37 37 38 38 38 38 38 38 38 38 38 38 38 38 38 38 38 38 38 38 39 39 39 39 39 39 39 39 39 39 39 39 39 39 39 39 39 39 39 39 39 40 40 40 88 65 42 91 69 45 93 71 49 95 74 52 104 54 2 104 54 2 104 54 2 104 54 2 104 54 2 94 49 2 94 49 2 95 49 2 124 64 3 125 64 3 126 65 3 126 65 3 127 65 3 127 66 3 128 66 3 128 66 3 128 66 3 127 65 3 127 65 3 126 65 3 125 65 3 125 64 3 124 64 3 123 63 3 122 63 3 102 53 2 102 53 2 102 53 2 102 53 2 101 52 2 81 60 37 39 39 39 39 39 39 39 39 39 38 38 38 38 38 38 38 38 38 38 38 38 38 38 38 38 38 38 37 37 37 37 37 37 37 37 37 37 37 37 37 37 37 36 36 36 36 36 36 36 36 36 36 36 36 36 36 36 35 35 35 35 35 35 35 35 35 35 35 35 35 35 35 34 34 34 34 34 34 34 34 34 34 34 34 34 34 34 33 33 33 33 33 33 33 33 33 
32 32 32 32 32 32 32 32 32 32 32 32 32 32 32 33 33 33 33 33 33 33 33 33 33 33 33 33 33 33 33 33 33 34 34 34 34 34 34 34 34 34 34 34 34 34 34 34 34 34 34 35 35 35 35 35 35 35 35 35 35 35 35 35 35 35 35 35 35 35 35 35 36 36 36 36 36 36 36 36 36 36 36 36 36 36 36 36 36 36 36 36 36 36 36 36 37 37 37 89 66 42 92 69 45 94 72 49 97 75 52 105 54 2 105 54 2 105 54 2 105 54 2 105 54 2 96 49 2 96 50 2 96 50 2 96 50 2 96 50 2 96 50 2 126 65 3 127 65 3 127 65 3 128 66 3 128 66 3 128 66 3 127 65 3 127 65 3 126 65 3 125 65 3 125 64 3 95 49 2 95 49 2 94 49 2 104 54 2 104 54 2 104 53 2 103 53 2 90 69 47 36 36 36 36 36 36 36 36 36 36 36 36 36 36 36 35 35 35 35 35 35 35 35 35 35 35 35 35 35 35 35 35 35 35 35 35 34 34 34 34 34 34 34 34 34 34 34 34 34 34 34 34 34 34 33 33 33 33 33 33 33 33 33 33 33 33 33 33 33 33 33 33 32 32 32 32 32 32 32 32 32 32 32 32 32 32 32 32 32 32 31 31 31 31 31 31 31 31 31 
30 30 30 30 30 30 30 30 30 30 30 30 30 30 30 30 30 30 31 31 31 31 31 31 31 31 31 31 31 31 31 31 31 31 31 31 31 31 31 32 32 32 32 32 32 32 32 32 32 32 32 32 32 32 32 32 32 32 32 32 32 32 32 33 33 33 33 33 33 33 33 33 33 33 33 33 33 33 33 33 33 33 33 33 33 33 33 34 34 34 34 34 34 34 34 34 34 34 34 34 34 34 93 70 45 96 73 49 98 76 52 100 78 55 107 55 2 107 55 2 107 55 2 97 50 2 97 50 2 97 50 2 97 50 2 98 50 2 98 50 2 98 50 2 98 50 2 98 50 2 97 50 2 127 66 3 128 66 3 127 66 3 97 50 2 97 50 2 97 50 2 97 50 2 97 50 2 97 50 2 96 50 2 96 50 2 105 54 2 105 54 2 105 54 2 105 54 2 34 34 34 33 33 33 33 33 33 33 33 33 33 33 33 33 33 33 33 33 33 33 33 33 33 33 33 33 33 33 32 32 32 32 32 32 32 32 32 32 32 32 32 32 32 32 32 32 32 32 32 31 31 31 31 31 31 31 31 31 31 31 31 31 31 31 31 31 31 31 31 31 30 30 30 30 30 30 30 30 30 30 30 30 30 30 30 30 30 30 29 29 29 29 29 29 29 29 29 29 29 29 
28 28 28 28 28 28 28 28 28 28 28 28 28 28 28 28 28 28 28 28 28 28 28 28 29 29 29 29 29 29 29 29 29 29 29 29 29 29 29 29 29 29 29 29 29 29 29 29 30 30 30 30 30 30 30 30 30 30 30 30 30 30 30 30 30 30 30 30 30 30 30 30 30 30 30 31 31 31 31 31 31 31 31 31 31 31 31 31 31 31 31 31 31 31 31 31 31 31 31 31 31 31 31 31 31 97 73 48 99 76 52 102 79 55 104 81 58 108 56 2 98 51 2 98 51 2 99 51 2 99 51 2 99 51 2 99 51 2 99 51 2 99 51 2 99 51 2 99 51 2 99 51 2 99 51 2 98 51 2 99 51 2 99 51 2 99 51 2 99 51 2 98 51 2 98 51 2 98 51 2 98 50 2 97 50 2 97 50 2 107 55 2 106 55 2 31 31 31 31 31 31 31 31 31 31 31 31 31 31 31 31 31 31 31 31 31 30 30 30 30 30 30 30 30 30 30 30 30 30 30 30 30 30 30 30 30 30 30 30 30 30 30 30 29 29 29 29 29 29 29 29 29 29 29 29 29 29 29 29 29 29 29 29 29 29 29 29 28 28 28 28 28 28 28 28 28 28 28 28 28 28 28 28 28 28 28 28 28 27 27 27 27 27 27 27 27 27 27 27 27 
26 26 26 26 26 26 26 26 26 26 26 26 26 26 26 26 26 26 26 26 26 26 26 26 26 26 26 27 27 27 27 27 27 27 27 27 27 27 27 27 27 27 27 27 27 27 27 27 27 27 27 27 27 27 28 28 28 28 28 28 28 28 28 28 28 28 28 28 28 28 28 28 28 28 28 28 28 28 28 28 28 28 28 28 28 28 28 28 28 28 29 29 29 29 29 29 29 29 29 29 29 29 29 29 29 29 29 29 100 77 51 103 79 55 105 82 58 153 142 130 154 143 132 100 51 2 100 52 2 100 52 2 100 52 2 101 52 2 101 52 2 101 52 2 101 52 2 101 52 2 100 52 2 100 52 2 100 52 2 100 52 2 100 52 2 100 52 2 100 52 2 100 52 2 100 52 2 100 51 2 99 51 2 99 51 2 98 51 2 108 56 2 98 74 50 29 29 29 29 29 29 28 28 28 28 28 28 28 28 28 28 28 28 28 28 28 28 28 28 28 28 28 28 28 28 28 28 28 28 28 28 28 28 28 28 28 28 27 27 27 27 27 27 27 27 27 27 27 27 27 27 27 27 27 27 27 27 27 27 27 27 27 27 27 26 26 26 26 26 26 26 26 26 26 26 26 26 26 26 26 26 26 26 26 26 26 26 26 26 26 26 25 25 25 25 25 25 25 25 25 
24 24 24 24 24 24 24 24 24 24 24 24 24 24 24 24 24 24 24 24 24 24 24 24 24 24 24 25 25 25 25 25 25 25 25 25 25 25 25 25 25 25 25 25 25 25 25 25 25 25 25 25 25 25 25 25 25 25 25 25 26 26 26 26 26 26 26 26 26 26 26 26 26 26 26 26 26 26 26 26 26 26 26 26 26 26 26 26 26 26 26 26 26 26 26 26 26 26 26 26 26 26 26 26 26 26 26 26 26 26 26 104 80 54 106 82 57 154 143 131 156 144 132 157 146 133 157 146 134 158 147 134 102 53 2 102 53 2 102 53 2 102 53 2 102 53 2 102 53 2 102 53 2 102 52 2 101 52 2 102 52 2 102 53 2 102 53 2 102 52 2 102 52 2 101 52 2 101 52 2 101 52 2 106 95 83 97 86 74 109 86 61 26 26 26 26 26 26 26 26 26 26 26 26 26 26 26 26 26 26 26 26 26 26 26 26 26 26 26 26 26 26 26 26 26 26 26 26 26 26 26 25 25 25 25 25 25 25 25 25 25 25 25 25 25 25 25 25 25 25 25 25 25 25 25 25 25 25 25 25 25 25 25 25 24 24 24 24 24 24 24 24 24 24 24 24 24 24 24 24 24 24 24 24 24 24 24 24 24 24 24 24 24 24 23 23 23 23 23 23 
22 22 22 22 22 22 22 22 22 22 22 22 22 22 22 22 22 22 22 22 22 22 22 22 23 23 23 23 23 23 23 23 23 23 23 23 23 23 23 23 23 23 23 23 23 23 23 23 23 23 23 23 23 23 23 23 23 23 23 23 23 23 23 23 23 23 24 24 24 24 24 24 24 24 24 24 24 24 24 24 24 24 24 24 24 24 24 24 24 24 24 24 24 24 24 24 24 24 24 24 24 24 24 24 24 24 24 24 24 24 24 24 24 24 153 142 129 155 144 131 157 145 132 158 146 134 159 147 134 159 148 135 159 147 135 158 147 135 158 146 134 104 54 2 104 53 2 104 53 2 103 53 2 103 53 2 103 53 2 103 53 2 103 53 2 103 53 2 103 53 2 103 53 2 125 114 102 117 106 93 108 97 84 99 88 76 90 79 66 24 24 24 24 24 24 24 24 24 24 24 24 24 24 24 24 24 24 24 24 24 24 24 24 24 24 24 24 24 24 24 24 24 24 24 24 24 24 24 23 23 23 23 23 23 23 23 23 23 23 23 23 23 23 23 23 23 23 23 23 23 23 23 23 23 23 23 23 23 23 23 23 23 23 23 23 23 23 22 22 22 22 22 22 22 22 22 22 22 22 22 22 22 22 22 22 22 22 22 22 22 22 22 22 22 22 22 22 22 22 22 
20 20 20 20 20 20 20 20 20 20 20 20 20 20 20 20 20 20 21 21 21 21 21 21 21 21 21 21 21 21 21 21 21 21 21 21 21 21 21 21 21 21 21 21 21 21 21 21 21 21 21 21 21 21 21 21 21 21 21 21 21 21 21 21 21 21 22 22 22 22 22 22 22 22 22 22 22 22 22 22 22 22 22 22 22 22 22 22 22 22 22 22 22 22 22 22 22 22 22 22 22 22 22 22 22 22 22 22 22 22 22 22 22 22 22 22 22 22 22 22 22 22 22 22 22 22 160 148 135 160 148 135 160 148 135 159 148 135 159 147 134 157 146 133 156 144 131 154 142 130 151 140 128 105 54 2 105 54 2 105 54 2 151 140 127 144 133 120 137 125 112 128 117 104 120 108 95 111 99 86 101 89 76 22 22 22 22 22 22 22 22 22 22 22 22 22 22 22 22 22 22 22 22 22 22 22 22 22 22 22 22 22 22 22 22 22 22 22 22 22 22 22 22 22 22 22 22 22 21 21 21 21 21 21 21 21 21 21 21 21 21 21 21 21 21 21 21 21 21 21 21 21 21 21 21 21 21 21 21 21 21 21 21 21 21 21 21 21 21 21 21 21 21 21 21 21 20 20 20 20 20 20 20 20 20 20 20 20 20 20 20 20 20 20 20 20 20 20 20 20 
18 18 18 18 18 18 19 19 19 19 19 19 19 19 19 19 19 19 19 19 19 19 19 19 19 19 19 19 19 19 19 19 19 19 19 19 19 19 19 19 19 19 19 19 19 19 19 19 19 19 19 19 19 19 19 19 19 19 19 19 20 20 20 20 20 20 20 20 20 20 20 20 20 20 20 20 20 20 20 20 20 20 20 20 20 20 20 20 20 20 20 20 20 20 20 20 20 20 20 20 20 20 20 20 20 20 20 20 20 20 20 20 20 20 20 20 20 20 20 20 20 20 20 20 20 20 20 20 20 20 20 20 20 20 20 160 148 135 159 147 134 158 146 133 156 144 131 154 142 129 151 140 127 149 137 124 162 150 137 155 144 130 148 136 123 140 128 115 132 119 106 20 20 20 20 20 20 20 20 20 20 20 20 20 20 20 20 20 20 20 20 20 20 20 20 20 20 20 20 20 20 20 20 20 20 20 20 20 20 20 20 20 20 20 20 20 20 20 20 20 20 20 20 20 20 20 20 20 20 20 20 20 20 20 20 20 20 19 19 19 19 19 19 19 19 19 19 19 19 19 19 19 19 19 19 19 19 19 19 19 19 19 19 19 19 19 19 19 19 19 19 19 19 19 19 19 19 19 19 19 19 19 19 19 19 19 19 19 18 18 18 18 18 18 18 18 18 18 18 18 
17 17 17 17 17 17 17 17 17 17 17 17 17 17 17 17 17 17 17 17 17 17 17 17 17 17 17 17 17 17 17 17 17 17 17 17 17 17 17 17 17 17 17 17 17 18 18 18 18 18 18 18 18 18 18 18 18 18 18 18 18 18 18 18 18 18 18 18 18 18 18 18 18 18 18 18 18 18 18 18 18 18 18 18 18 18 18 18 18 18 18 18 18 18 18 18 18 18 18 18 18 18 18 18 18 18 18 18 18 18 18 18 18 18 18 18 18 18 18 18 18 18 18 18 18 18 18 18 18 18 18 18 18 18 18 18 18 18 18 18 18 18 18 18 156 144 130 154 142 128 151 139 126 166 154 140 160 147 133 18 18 18 18 18 18 18 18 18 18 18 18 18 18 18 18 18 18 18 18 18 18 18 18 18 18 18 18 18 18 18 18 18 18 18 18 18 18 18 18 18 18 18 18 18 18 18 18 18 18 18 18 18 18 18 18 18 18 18 18 18 18 18 18 18 18 18 18 18 18 18 18 18 18 18 18 18 18 18 18 18 18 18 18 18 18 18 18 18 18 18 18 18 17 17 17 17 17 17 17 17 17 17 17 17 17 17 17 17 17 17 17 17 17 17 17 17 17 17 17 17 17 17 17 17 17 17 17 17 17 17 17 17 17 17 17 17 17 17 17 17 
15 15 15 15 15 15 15 15 15 15 15 15 15 15 15 15 15 15 16 16 16 16 16 16 16 16 16 16 16 16 16 16 16 16 16 16 16 16 16 16 16 16 16 16 16 16 16 16 16 16 16 16 16 16 16 16 16 16 16 16 16 16 16 16 16 16 16 16 16 16 16 16 16 16 16 16 16 16 16 16 16 16 16 16 16 16 16 16 16 16 16 16 16 16 16 16 16 16 16 16 16 16 16 16 16 16 16 16 16 16 16 16 16 16 16 16 16 16 16 16 16 16 16 16 16 16 16 16 16 17 17 17 17 17 17 17 17 17 17 17 17 17 17 17 17 17 17 17 17 17 17 17 17 17 17 17 17 17 17 17 17 17 17 17 17 17 17 17 16 16 16 16 16 16 16 16 16 16 16 16 16 16 16 16 16 16 16 16 16 16 16 16 16 16 16 16 16 16 16 16 16 16 16 16 16 16 16 16 16 16 16 16 16 16 16 16 16 16 16 16 16 16 16 16 16 16 16 16 16 16 16 16 16 16 16 16 16 16 16 16 16 16 16 16 16 16 16 16 16 16 16 16 16 16 16 16 16 16 16 16 16 16 16 16 16 16 16 16 16 16 16 16 16 16 16 16 16 16 16 15 15 15 15 15 15 15 15 15 15 15 15 15 15 15 15 15 15 15 15 15 
14 14 14 14 14 14 14 14 14 14 14 14 14 14 14 14 14 14 14 14 14 14 14 14 14 14 14 14 14 14 14 14 14 14 14 14 14 14 14 14 14 14 14 14 14 14 14 14 14 14 14 14 14 14 14 14 14 14 14 14 14 14 14 14 14 14 14 14 14 14 14 14 15 15 15 15 15 15 15 15 15 15 15 15 15 15 15 15 15 15 15 15 15 15 15 15 15 15 15 15 15 15 15 15 15 15 15 15 15 15 15 15 15 15 15 15 15 15 15 15 15 15 15 15 15 15 15 15 15 15 15 15 15 15 15 15 15 15 15 15 15 15 15 15 15 15 15 15 15 15 15 15 15 15 15 15 15 15 15 15 15 15 15 15 15 15 15 15 15 15 15 15 15 15 15 15 15 15 15 15 15 15 15 15 15 15 15 15 15 15 15 15 15 15 15 15 15 15 15 15 15 15 15 15 15 15 15 15 15 15 15 15 15 15 15 15 15 15 15 15 15 15 15 15 15 14 14 14 14 14 14 14 14 14 14 14 14 14 14 14 14 14 14 14 14 14 14 14 14 14 14 14 14 14 14 14 14 14 14 14 14 14 14 14 14 14 14 14 14 14 14 14 14 14 14 14 14 14 14 14 14 14 14 14 14 14 14 14 14 14 14 14 14 14 14 14 14 14 14 14 
12 12 12 12 12 12 12 12 12 12 12 12 12 12 12 13 13 13 13 13 13 13 13 13 13 13 13 13 13 13 13 13 13 13 13 13 13 13 13 13 13 13 13 13 13 13 13 13 13 13 13 13 13 13 13 13 13 13 13 13 13 13 13 13 13 13 13 13 13 13 13 13 13 13 13 13 13 13 13 13 13 13 13 13 13 13 13 13 13 13 13 13 13 13 13 13 13 13 13 13 13 13 13 13 13 13 13 13 13 13 13 13 13 13 13 13 13 13 13 13 13 13 13 13 13 13 13 13 13 13 13 13 13 13 13 13 13 13 13 13 13 13 13 13 13 13 13 13 13 13 13 13 13 13 13 13 13 13 13 13 13 13 13 13 13 13 13 13 13 13 13 13 13 13 13 13 13 13 13 13 13 13 13 13 13 13 13 13 13 13 13 13 13 13 13 13 13 13 13 13 13 13 13 13 13 13 13 13 13 13 13 13 13 13 13 13 13 13 13 13 13 13 13 13 13 13 13 13 13 13 13 13 13 13 13 13 13 13 13 13 13 13 13 13 13 13 13 13 13 13 13 13 13 13 13 13 13 13 13 13 13 13 13 13 13 13 13 13 13 13 13 13 13 13 13 13 13 13 13 13 13 13 13 13 13 12 12 12 12 12 12 12 12 12 12 12 12 12 12 12 
11 11 11 11 11 11 11 11 11 11 11 11 11 11 11 11 11 11 11 11 11 11 11 11 11 11 11 11 11 11 11 11 11 11 11 11 11 11 11 11 11 11 11 11 11 11 11 11 11 11 11 11 11 11 11 11 11 11 11 11 11 11 11 11 11 11 11 11 11 11 11 11 11 11 11 11 11 11 11 11 11 11 11 11 11 11 11 11 11 11 11 11 11 12 12 12 12 12 12 12 12 12 12 12 12 12 12 12 12 12 12 12 12 12 12 12 12 12 12 12 12 12 12 12 12 12 12 12 12 12 12 12 12 12 12 12 12 12 12 12 12 12 12 12 12 12 12 12 12 12 12 12 12 12 12 12 12 12 12 12 12 12 12 12 12 12 12 12 12 12 12 12 12 12 12 12 12 12 12 12 12 12 12 12 12 12 12 12 12 12 12 12 12 12 12 12 12 12 12 12 12 12 12 12 12 12 12 11 11 11 11 11 11 11 11 11 11 11 11 11 11 11 11 11 11 11 11 11 11 11 11 11 11 11 11 11 11 11 11 11 11 11 11 11 11 11 11 11 11 11 11 11 11 11 11 11 11 11 11 11 11 11 11 11 11 11 11 11 11 11 11 11 11 11 11 11 11 11 11 11 11 11 11 11 11 11 11 11 11 11 11 11 11 11 11 11 11 11 11 11 
10 10 10 10 10 10 10 10 10 10 10 10 10 10 10 10 10 10 10 10 10 10 10 10 10 10 10 10 10 10 10 10 10 10 10 10 10 10 10 10 10 10 10 10 10 10 10 10 10 10 10 10 10 10 10 10 10 10 10 10 10 10 10 10 10 10 10 10 10 10 10 10 10 10 10 10 10 10 10 10 10 10 10 10 10 10 10 10 10 10 10 10 10 10 10 10 10 10 10 10 10 10 10 10 10 10 10 10 10 10 10 10 10 10 10 10 10 10 10 10 10 10 10 10 10 10 10 10 10 10 10 10 10 10 10 10 10 10 10 10 10 10 10 10 10 10 10 10 10 10 10 10 10 10 10 10 10 10 10 10 10 10 10 10 10 10 10 10 10 10 10 10 10 10 10 10 10 10 10 10 10 10 10 10 10 10 10 10 10 10 10 10 10 10 10 10 10 10 10 10 10 10 10 10 10 10 10 10 10 10 10 10 10 10 10 10 10 10 10 10 10 10 10 10 10 10 10 10 10 10 10 10 10 10 10 10 10 10 10 10 10 10 10 10 10 10 10 10 10 10 10 10 10 10 10 10 10 10 10 10 10 10 10 10 10 10 10 10 10 10 10 10 10 10 10 10 10 10 10 10 10 10 10 10 10 10 10 10 10 10 10 10 10 10 10 10 10 10 10 10 
8 8 8 8 8 8 8 8 8 9 9 9 9 9 9 9 9 9 9 9 9 9 9 9 9 9 9 9 9 9 9 9 9 9 9 9 9 9 9 9 9 9 9 9 9 9 9 9 9 9 9 9 9 9 9 9 9 9 9 9 9 9 9 9 9 9 9 9 9 9 9 9 9 9 9 9 9 9 9 9 9 9 9 9 9 9 9 9 9 9 9 9 9 9 9 9 9 9 9 9 9 9 9 9 9 9 9 9 9 9 9 9 9 9 9 9 9 9 9 9 9 9 9 9 9 9 9 9 9 9 9 9 9 9 9 9 9 9 9 9 9 9 9 9 9 9 9 9 9 9 9 9 9 9 9 9 9 9 9 9 9 9 9 9 9 9 9 9 9 9 9 9 9 9 9 9 9 9 9 9 9 9 9 9 9 9 9 9 9 9 9 9 9 9 9 9 9 9 9 9 9 9 9 9 9 9 9 9 9 9 9 9 9 9 9 9 9 9 9 9 9 9 9 9 9 9 9 9 9 9 9 9 9 9 9 9 9 9 9 9 9 9 9 9 9 9 9 9 9 9 9 9 9 9 9 9 9 9 9 9 9 9 9 9 9 9 9 9 9 9 9 9 9 9 9 9 9 9 9 9 9 9 9 9 9 9 9 9 9 9 9 9 9 9 8 8 8 8 8 8 
7 7 7 7 7 7 7 7 7 7 7 7 7 7 7 7 7 7 7 7 7 7 7 7 7 7 7 7 7 7 7 7 7 7 7 7 7 7 7 7 7 7 7 7 7 7 7 7 7 7 7 7 7 7 7 7 7 7 7 7 7 7 7 7 7 7 7 7 7 7 7 7 7 7 7 7 7 7 7 7 7 7 7 7 7 7 7 7 7 7 7 7 7 7 7 7 7 7 7 7 7 7 7 7 7 7 7 7 7 7 7 7 7 7 7 7 7 7 7 7 7 7 7 7 7 7 7 7 7 7 7 7 7 7 7 7 7 7 7 7 7 7 7 7 7 7 7 7 7 7 7 7 7 7 7 7 7 7 7 7 7 7 7 7 7 7 7 7 7 7 7 7 7 7 7 7 7 7 7 7 7 7 7 7 7 7 7 7 7 7 7 7 7 7 7 7 7 7 7 7 7 7 7 7 7 7 7 7 7 7 7 7 7 7 7 7 7 7 7 7 7 7 7 7 7 7 7 7 7 7 7 7 7 7 7 7 7 7 7 7 7 7 7 7 7 7 7 7 7 7 7 7 7 7 7 7 7 7 7 7 7 7 7 7 7 7 7 7 7 7 7 7 7 7 7 7 7 7 7 7 7 7 7 7 7 7 7 7 7 7 7 7 7 7 7 7 7 7 7 7 
0 0 0 0 0 0 0 0 0 0 0 0 0 0 0 0 0 0 0 0 0 0 0 0 0 0 0 0 0 0 0 0 0 0 0 0 0 0 0 0 0 0 0 0 0 0 0 0 0 0 0 0 0 0 0 0 0 0 0 0 0 0 0 0 0 0 0 0 0 0 0 0 0 0 0 0 0 0 0 0 0 0 0 0 0 0 0 0 0 0 0 0 0 0 0 0 0 0 0 0 0 0 0 0 0 0 0 0 0 0 0 0 0 0 0 0 0 0 0 0 0 0 0 0 0 0 0 0 0 0 0 0 0 0 0 0 0 0 0 0 0 0 0 0 0 0 0 0 0 0 0 0 0 0 0 0 0 0 0 0 0 0 0 0 0 0 0 0 0 0 0 0 0 0 0 0 0 0 0 0 0 0 0 0 0 0 0 0 0 0 0 0 0 0 0 0 0 0 0 0 0 0 0 0 0 0 0 0 0 0 0 0 0 0 0 0 0 0 0 0 0 0 0 0 0 0 0 0 0 0 0 0 0 0 0 0 0 0 0 0 0 0 0 0 0 0 0 0 0 0 0 0 0 0 0 0 0 0 0 0 0 0 0 0 0 0 0 0 0 0 0 0 0 0 0 0 0 0 0 0 0 0 0 0 0 0 0 0 0 0 0 0 0 0 0 0 0 0 0 0 
0 0 0 0 0 0 0 0 0 0 0 0 0 0 0 0 0 0 0 0 0 0 0 0 0 0 0 0 0 0 0 0 0 0 0 0 0 0 0 0 0 0 0 0 0 0 0 0 0 0 0 0 0 0 0 0 0 0 0 0 0 0 0 0 0 0 0 0 0 0 0 0 0 0 0 0 0 0 0 0 0 0 0 0 0 0 0 0 0 0 0 0 0 0 0 0 0 0 0 0 0 0 0 0 0 0 0 0 0 0 0 0 0 0 0 0 0 0 0 0 0 0 0 0 0 0 0 0 0 0 0 0 0 0 0 0 0 0 0 0 0 0 0 0 0 0 0 0 0 0 0 0 0 0 0 0 0 0 0 0 0 0 0 0 0 0 0 0 0 0 0 0 0 0 0 0 0 0 0 0 0 0 0 0 0 0 0 0 0 0 0 0 0 0 0 0 0 0 0 0 0 0 0 0 0 0 0 0 0 0 0 0 0 0 0 0 0 0 0 0 0 0 0 0 0 0 0 0 0 0 0 0 0 0 0 0 0 0 0 0 0 0 0 0 0 0 0 0 0 0 0 0 0 0 0 0 0 0 0 0 0 0 0 0 0 0 0 0 0 0 0 0 0 0 0 0 0 0 0 0 0 0 0 0 0 0 0 0 0 0 0 0 0 0 0 0 0 0 0 0 
0 0 0 0 0 0 0 0 0 0 0 0 0 0 0 0 0 0 0 0 0 0 0 0 0 0 0 0 0 0 0 0 0 0 0 0 0 0 0 0 0 0 0 0 0 0 0 0 0 0 0 0 0 0 0 0 0 0 0 0 0 0 0 0 0 0 0 0 0 0 0 0 0 0 0 0 0 0 0 0 0 0 0 0 0 0 0 0 0 0 0 0 0 0 0 0 0 0 0 0 0 0 0 0 0 0 0 0 0 0 0 0 0 0 0 0 0 0 0 0 0 0 0 0 0 0 0 0 0 0 0 0 0 0 0 0 0 0 0 0 0 0 0 0 0 0 0 0 0 0 0 0 0 0 0 0 0 0 0 0 0 0 0 0 0 0 0 0 0 0 0 0 0 0 0 0 0 0 0 0 0 0 0 0 0 0 0 0 0 0 0 0 0 0 0 0 0 0 0 0 0 0 0 0 0 0 0 0 0 0 0 0 0 0 0 0 0 0 0 0 0 0 0 0 0 0 0 0 0 0 0 0 0 0 0 0 0 0 0 0 0 0 0 0 0 0 0 0 0 0 0 0 0 0 0 0 0 0 0 0 0 0 0 0 0 0 0 0 0 0 0 0 0 0 0 0 0 0 0 0 0 0 0 0 0 0 0 0 0 0 0 0 0 0 0 0 0 0 0 0 
0 0 0 0 0 0 0 0 0 0 0 0 0 0 0 0 0 0 0 0 0 0 0 0 0 0 0 0 0 0 0 0 0 0 0 0 0 0 0 0 0 0 0 0 0 0 0 0 0 0 0 0 0 0 0 0 0 0 0 0 0 0 0 0 0 0 0 0 0 0 0 0 0 0 0 0 0 0 0 0 0 0 0 0 0 0 0 0 0 0 0 0 0 0 0 0 0 0 0 0 0 0 0 0 0 0 0 0 0 0 0 0 0 0 0 0 0 0 0 0 0 0 0 0 0 0 0 0 0 0 0 0 0 0 0 0 0 0 0 0 0 0 0 0 0 0 0 0 0 0 0 0 0 0 0 0 0 0 0 0 0 0 0 0 0 0 0 0 0 0 0 0 0 0 0 0 0 0 0 0 0 0 0 0 0 0 0 0 0 0 0 0 0 0 0 0 0 0 0 0 0 0 0 0 0 0 0 0 0 0 0 0 0 0 0 0 0 0 0 0 0 0 0 0 0 0 0 0 0 0 0 0 0 0 0 0 0 0 0 0 0 0 0 0 0 0 0 0 0 0 0 0 0 0 0 0 0 0 0 0 0 0 0 0 0 0 0 0 0 0 0 0 0 0 0 0 0 0 0 0 0 0 0 0 0 0 0 0 0 0 0 0 0 0 0 0 0 0 0 0 
0 0 0 0 0 0 0 0 0 0 0 0 0 0 0 0 0 0 0 0 0 0 0 0 0 0 0 0 0 0 0 0 0 0 0 0 0 0 0 0 0 0 0 0 0 0 0 0 0 0 0 0 0 0 0 0 0 0 0 0 0 0 0 0 0 0 0 0 0 0 0 0 0 0 0 0 0 0 0 0 0 0 0 0 0 0 0 0 0 0 0 0 0 0 0 0 0 0 0 0 0 0 0 0 0 0 0 0 0 0 0 0 0 0 0 0 0 0 0 0 0 0 0 0 0 0 0 0 0 0 0 0 0 0 0 0 0 0 0 0 0 0 0 0 0 0 0 0 0 0 0 0 0 0 0 0 0 0 0 0 0 0 0 0 0 0 0 0 0 0 0 0 0 0 0 0 0 0 0 0 0 0 0 0 0 0 0 0 0 0 0 0 0 0 0 0 0 0 0 0 0 0 0 0 0 0 0 0 0 0 0 0 0 0 0 0 0 0 0 0 0 0 0 0 0 0 0 0 0 0 0 0 0 0 0 0 0 0 0 0 0 0 0 0 0 0 0 0 0 0 0 0 0 0 0 0 0 0 0 0 0 0 0 0 0 0 0 0 0 0 0 0 0 0 0 0 0 0 0 0 0 0 0 0 0 0 0 0 0 0 0 0 0 0 0 0 0 0 0 0 
0 0 0 0 0 0 0 0 0 0 0 0 0 0 0 0 0 0 0 0 0 0 0 0 0 0 0 0 0 0 0 0 0 0 0 0 0 0 0 0 0 0 0 0 0 0 0 0 0 0 0 0 0 0 0 0 0 0 0 0 0 0 0 0 0 0 0 0 0 0 0 0 0 0 0 0 0 0 0 0 0 0 0 0 0 0 0 0 0 0 0 0 0 0 0 0 0 0 0 0 0 0 0 0 0 0 0 0 0 0 0 0 0 0 0 0 0 0 0 0 0 0 0 0 0 0 0 0 0 0 0 0 0 0 0 0 0 0 0 0 0 0 0 0 0 0 0 0 0 0 0 0 0 0 0 0 0 0 0 0 0 0 0 0 0 0 0 0 0 0 0 0 0 0 0 0 0 0 0 0 0 0 0 0 0 0 0 0 0 0 0 0 0 0 0 0 0 0 0 0 0 0 0 0 0 0 0 0 0 0 0 0 0 0 0 0 0 0 0 0 0 0 0 0 0 0 0 0 0 0 0 0 0 0 0 0 0 0 0 0 0 0 0 0 0 0 0 0 0 0 0 0 0 0 0 0 0 0 0 0 0 0 0 0 0 0 0 0 0 0 0 0 0 0 0 0 0 0 0 0 0 0 0 0 0 0 0 0 0 0 0 0 0 0 0 0 0 0 0 0 
0 0 0 0 0 0 0 0 0 0 0 0 0 0 0 0 0 0 0 0 0 0 0 0 0 0 0 0 0 0 0 0 0 0 0 0 0 0 0 0 0 0 0 0 0 0 0 0 0 0 0 0 0 0 0 0 0 0 0 0 0 0 0 0 0 0 0 0 0 0 0 0 0 0 0 0 0 0 0 0 0 0 0 0 0 0 0 0 0 0 0 0 0 0 0 0 0 0 0 0 0 0 0 0 0 0 0 0 0 0 0 0 0 0 0 0 0 0 0 0 0 0 0 0 0 0 0 0 0 0 0 0 0 0 0 0 0 0 0 0 0 0 0 0 0 0 0 0 0 0 0 0 0 0 0 0 0 0 0 0 0 0 0 0 0 0 0 0 0 0 0 0 0 0 0 0 0 0 0 0 0 0 0 0 0 0 0 0 0 0 0 0 0 0 0 0 0 0 0 0 0 0 0 0 0 0 0 0 0 0 0 0 0 0 0 0 0 0 0 0 0 0 0 0 0 0 0 0 0 0 0 0 0 0 0 0 0 0 0 0 0 0 0 0 0 0 0 0 0 0 0 0 0 0 0 0 0 0 0 0 0 0 0 0 0 0 0 0 0 0 0 0 0 0 0 0 0 0 0 0 0 0 0 0 0 0 0 0 0 0 0 0 0 0 0 0 0 0 0 0 
0 0 0 0 0 0 0 0 0 0 0 0 0 0 0 0 0 0 0 0 0 0 0 0 0 0 0 0 0 0 0 0 0 0 0 0 0 0 0 0 0 0 0 0 0 0 0 0 0 0 0 0 0 0 0 0 0 0 0 0 0 0 0 0 0 0 0 0 0 0 0 0 0 0 0 0 0 0 0 0 0 0 0 0 0 0 0 0 0 0 0 0 0 0 0 0 0 0 0 0 0 0 0 0 0 0 0 0 0 0 0 0 0 0 0 0 0 0 0 0 0 0 0 0 0 0 0 0 0 0 0 0 0 0 0 0 0 0 0 0 0 0 0 0 0 0 0 0 0 0 0 0 0 0 0 0 0 0 0 0 0 0 0 0 0 0 0 0 0 0 0 0 0 0 0 0 0 0 0 0 0 0 0 0 0 0 0 0 0 0 0 0 0 0 0 0 0 0 0 0 0 0 0 0 0 0 0 0 0 0 0 0 0 0 0 0 0 0 0 0 0 0 0 0 0 0 0 0 0 0 0 0 0 0 0 0 0 0 0 0 0 0 0 0 0 0 0 0 0 0 0 0 0 0 0 0 0 0 0 0 0 0 0 0 0 0 0 0 0 0 0 0 0 0 0 0 0 0 0 0 0 0 0 0 0 0 0 0 0 0 0 0 0 0 0 0 0 0 0 0 
0 0 0 0 0 0 0 0 0 0 0 0 0 0 0 0 0 0 0 0 0 0 0 0 0 0 0 0 0 0 0 0 0 0 0 0 0 0 0 0 0 0 0 0 0 0 0 0 0 0 0 0 0 0 0 0 0 0 0 0 0 0 0 0 0 0 0 0 0 0 0 0 0 0 0 0 0 0 0 0 0 0 0 0 0 0 0 0 0 0 0 0 0 0 0 0 0 0 0 0 0 0 0 0 0 0 0 0 0 0 0 0 0 0 0 0 0 0 0 0 0 0 0 0 0 0 0 0 0 0 0 0 0 0 0 0 0 0 0 0 0 0 0 0 0 0 0 0 0 0 0 0 0 0 0 0 0 0 0 0 0 0 0 0 0 0 0 0 0 0 0 0 0 0 0 0 0 0 0 0 0 0 0 0 0 0 0 0 0 0 0 0 0 0 0 0 0 0 0 0 0 0 0 0 0 0 0 0 0 0 0 0 0 0 0 0 0 0 0 0 0 0 0 0 0 0 0 0 0 0 0 0 0 0 0 0 0 0 0 0 0 0 0 0 0 0 0 0 0 0 0 0 0 0 0 0 0 0 0 0 0 0 0 0 0 0 0 0 0 0 0 0 0 0 0 0 0 0 0 0 0 0 0 0 0 0 0 0 0 0 0 0 0 0 0 0 0 0 0 0 
0 0 0 0 0 0 0 0 0 0 0 0 0 0 0 0 0 0 0 0 0 0 0 0 0 0 0 0 0 0 0 0 0 0 0 0 0 0 0 0 0 0 0 0 0 0 0 0 0 0 0 0 0 0 0 0 0 0 0 0 0 0 0 0 0 0 0 0 0 0 0 0 0 0 0 0 0 0 0 0 0 0 0 0 0 0 0 0 0 0 0 0 0 0 0 0 0 0 0 0 0 0 0 0 0 0 0 0 0 0 0 0 0 0 0 0 0 0 0 0 0 0 0 0 0 0 0 0 0 0 0 0 0 0 0 0 0 0 0 0 0 0 0 0 0 0 0 0 0 0 0 0 0 0 0 0 0 0 0 0 0 0 0 0 0 0 0 0 0 0 0 0 0 0 0 0 0 0 0 0 0 0 0 0 0 0 0 0 0 0 0 0 0 0 0 0 0 0 0 0 0 0 0 0 0 0 0 0 0 0 0 0 0 0 0 0 0 0 0 0 0 0 0 0 0 0 0 0 0 0 0 0 0 0 0 0 0 0 0 0 0 0 0 0 0 0 0 0 0 0 0 0 0 0 0 0 0 0 0 0 0 0 0 0 0 0 0 0 0 0 0 0 0 0 0 0 0 0 0 0 0 0 0 0 0 0 0 0 0 0 0 0 0 0 0 0 0 0 0 0 
0 0 0 0 0 0 0 0 0 0 0 0 0 0 0 0 0 0 0 0 0 0 0 0 0 0 0 0 0 0 0 0 0 0 0 0 0 0 0 0 0 0 0 0 0 0 0 0 0 0 0 0 0 0 0 0 0 0 0 0 0 0 0 0 0 0 0 0 0 0 0 0 0 0 0 0 0 0 0 0 0 0 0 0 0 0 0 0 0 0 0 0 0 0 0 0 0 0 0 0 0 0 0 0 0 0 0 0 0 0 0 0 0 0 0 0 0 0 0 0 0 0 0 0 0 0 0 0 0 0 0 0 0 0 0 0 0 0 0 0 0 0 0 0 0 0 0 0 0 0 0 0 0 0 0 0 0 0 0 0 0 0 0 0 0 0 0 0 0 0 0 0 0 0 0 0 0 0 0 0 0 0 0 0 0 0 0 0 0 0 0 0 0 0 0 0 0 0 0 0 0 0 0 0 0 0 0 0 0 0 0 0 0 0 0 0 0 0 0 0 0 0 0 0 0 0 0 0 0 0 0 0 0 0 0 0 0 0 0 0 0 0 0 0 0 0 0 0 0 0 0 0 0 0 0 0 0 0 0 0 0 0 0 0 0 0 0 0 0 0 0 0 0 0 0 0 0 0 0 0 0 0 0 0 0 0 0 0 0 0 0 0 0 0 0 0 0 0 0 0 
0 0 0 0 0 0 0 0 0 0 0 0 0 0 0 0 0 0 0 0 0 0 0 0 0 0 0 0 0 0 0 0 0 0 0 0 0 0 0 0 0 0 0 0 0 0 0 0 0 0 0 0 0 0 0 0 0 0 0 0 0 0 0 0 0 0 0 0 0 0 0 0 0 0 0 0 0 0 0 0 0 0 0 0 0 0 0 0 0 0 0 0 0 0 0 0 0 0 0 0 0 0 0 0 0 0 0 0 0 0 0 0 0 0 0 0 0 0 0 0 0 0 0 0 0 0 0 0 0 0 0 0 0 0 0 0 0 0 0 0 0 0 0 0 0 0 0 0 0 0 0 0 0 0 0 0 0 0 0 0 0 0 0 0 0 0 0 0 0 0 0 0 0 0 0 0 0 0 0 0 0 0 0 0 0 0 0 0 0 0 0 0 0 0 0 0 0 0 0 0 0 0 0 0 0 0 0 0 0 0 0 0 0 0 0 0 0 0 0 0 0 0 0 0 0 0 0 0 0 0 0 0 0 0 0 0 0 0 0 0 0 0 0 0 0 0 0 0 0 0 0 0 0 0 0 0 0 0 0 0 0 0 0 0 0 0 0 0 0 0 0 0 0 0 0 0 0 0 0 0 0 0 0 0 0 0 0 0 0 0 0 0 0 0 0 0 0 0 0 0 
0 0 0 0 0 0 0 0 0 0 0 0 0 0 0 0 0 0 0 0 0 0 0 0 0 0 0 0 0 0 0 0 0 0 0 0 0 0 0 0 0 0 0 0 0 0 0 0 0 0 0 0 0 0 0 0 0 0 0 0 0 0 0 0 0 0 0 0 0 0 0 0 0 0 0 0 0 0 0 0 0 0 0 0 0 0 0 0 0 0 0 0 0 0 0 0 0 0 0 0 0 0 0 0 0 0 0 0 0 0 0 0 0 0 0 0 0 0 0 0 0 0 0 0 0 0 0 0 0 0 0 0 0 0 0 0 0 0 0 0 0 0 0 0 0 0 0 0 0 0 0 0 0 0 0 0 0 0 0 0 0 0 0 0 0 0 0 0 0 0 0 0 0 0 0 0 0 0 0 0 0 0 0 0 0 0 0 0 0 0 0 0 0 0 0 0 0 0 0 0 0 0 0 0 0 0 0 0 0 0 0 0 0 0 0 0 0 0 0 0 0 0 0 0 0 0 0 0 0 0 0 0 0 0 0 0 0 0 0 0 0 0 0 0 0 0 0 0 0 0 0 0 0 0 0 0 0 0 0 0 0 0 0 0 0 0 0 0 0 0 0 0 0 0 0 0 0 0 0 0 0 0 0 0 0 0 0 0 0 0 0 0 0 0 0 0 0 0 0 0 
0 0 0 0 0 0 0 0 0 0 0 0 0 0 0 0 0 0 0 0 0 0 0 0 0 0 0 0 0 0 0 0 0 0 0 0 0 0 0 0 0 0 0 0 0 0 0 0 0 0 0 0 0 0 0 0 0 0 0 0 0 0 0 0 0 0 0 0 0 0 0 0 0 0 0 0 0 0 0 0 0 0 0 0 0 0 0 0 0 0 0 0 0 0 0 0 0 0 0 0 0 0 0 0 0 0 0 0 0 0 0 0 0 0 0 0 0 0 0 0 0 0 0 0 0 0 0 0 0 0 0 0 0 0 0 0 0 0 0 0 0 0 0 0 0 0 0 0 0 0 0 0 0 0 0 0 0 0 0 0 0 0 0 0 0 0 0 0 0 0 0 0 0 0 0 0 0 0 0 0 0 0 0 0 0 0 0 0 0 0 0 0 0 0 0 0 0 0 0 0 0 0 0 0 0 0 0 0 0 0 0 0 0 0 0 0 0 0 0 0 0 0 0 0 0 0 0 0 0 0 0 0 0 0 0 0 0 0 0 0 0 0 0 0 0 0 0 0 0 0 0 0 0 0 0 0 0 0 0 0 0 0 0 0 0 0 0 0 0 0 0 0 0 0 0 0 0 0 0 0 0 0 0 0 0 0 0 0 0 0 0 0 0 0 0 0 0 0 0 0 
0 0 0 0 0 0 0 0 0 0 0 0 0 0 0 0 0 0 0 0 0 0 0 0 0 0 0 0 0 0 0 0 0 0 0 0 0 0 0 0 0 0 0 0 0 0 0 0 0 0 0 0 0 0 0 0 0 0 0 0 0 0 0 0 0 0 0 0 0 0 0 0 0 0 0 0 0 0 0 0 0 0 0 0 0 0 0 0 0 0 0 0 0 0 0 0 0 0 0 0 0 0 0 0 0 0 0 0 0 0 0 0 0 0 0 0 0 0 0 0 0 0 0 0 0 0 0 0 0 0 0 0 0 0 0 0 0 0 0 0 0 0 0 0 0 0 0 0 0 0 0 0 0 0 0 0 0 0 0 0 0 0 0 0 0 0 0 0 0 0 0 0 0 0 0 0 0 0 0 0 0 0 0 0 0 0 0 0 0 0 0 0 0 0 0 0 0 0 0 0 0 0 0 0 0 0 0 0 0 0 0 0 0 0 0 0 0 0 0 0 0 0 0 0 0 0 0 0 0 0 0 0 0 0 0 0 0 0 0 0 0 0 0 0 0 0 0 0 0 0 0 0 0 0 0 0 0 0 0 0 0 0 0 0 0 0 0 0 0 0 0 0 0 0 0 0 0 0 0 0 0 0 0 0 0 0 0 0 0 0 0 0 0 0 0 0 0 0 0 0 
0 0 0 0 0 0 0 0 0 0 0 0 0 0 0 0 0 0 0 0 0 0 0 0 0 0 0 0 0 0 0 0 0 0 0 0 0 0 0 0 0 0 0 0 0 0 0 0 0 0 0 0 0 0 0 0 0 0 0 0 0 0 0 0 0 0 0 0 0 0 0 0 0 0 0 0 0 0 0 0 0 0 0 0 0 0 0 0 0 0 0 0 0 0 0 0 0 0 0 0 0 0 0 0 0 0 0 0 0 0 0 0 0 0 0 0 0 0 0 0 0 0 0 0 0 0 0 0 0 0 0 0 0 0 0 0 0 0 0 0 0 0 0 0 0 0 0 0 0 0 0 0 0 0 0 0 0 0 0 0 0 0 0 0 0 0 0 0 0 0 0 0 0 0 0 0 0 0 0 0 0 0 0 0 0 0 0 0 0 0 0 0 0 0 0 0 0 0 0 0 0 0 0 0 0 0 0 0 0 0 0 0 0 0 0 0 0 0 0 0 0 0 0 0 0 0 0 0 0 0 0 0 0 0 0 0 0 0 0 0 0 0 0 0 0 0 0 0 0 0 0 0 0 0 0 0 0 0 0 0 0 0 0 0 0 0 0 0 0 0 0 0 0 0 0 0 0 0 0 0 0 0 0 0 0 0 0 0 0 0 0 0 0 0 0 0 0 0 0 0 
0 0 0 0 0 0 0 0 0 0 0 0 0 0 0 0 0 0 0 0 0 0 0 0 0 0 0 0 0 0 0 0 0 0 0 0 0 0 0 0 0 0 0 0 0 0 0 0 0 0 0 0 0 0 0 0 0 0 0 0 0 0 0 0 0 0 0 0 0 0 0 0 0 0 0 0 0 0 0 0 0 0 0 0 0 0 0 0 0 0 0 0 0 0 0 0 0 0 0 0 0 0 0 0 0 0 0 0 0 0 0 0 0 0 0 0 0 0 0 0 0 0 0 0 0 0 0 0 0 0 0 0 0 0 0 0 0 0 0 0 0 0 0 0 0 0 0 0 0 0 0 0 0 0 0 0 0 0 0 0 0 0 0 0 0 0 0 0 0 0 0 0 0 0 0 0 0 0 0 0 0 0 0 0 0 0 0 0 0 0 0 0 0 0 0 0 0 0 0 0 0 0 0 0 0 0 0 0 0 0 0 0 0 0 0 0 0 0 0 0 0 0 0 0 0 0 0 0 0 0 0 0 0 0 0 0 0 0 0 0 0 0 0 0 0 0 0 0 0 0 0 0 0 0 0 0 0 0 0 0 0 0 0 0 0 0 0 0 0 0 0 0 0 0 0 0 0 0 0 0 0 0 0 0 0 0 0 0 0 0 0 0 0 0 0 0 0 0 0 0 
0 0 0 0 0 0 0 0 0 0 0 0 0 0 0 0 0 0 0 0 0 0 0 0 0 0 0 0 0 0 0 0 0 0 0 0 0 0 0 0 0 0 0 0 0 0 0 0 0 0 0 0 0 0 0 0 0 0 0 0 0 0 0 0 0 0 0 0 0 0 0 0 0 0 0 0 0 0 0 0 0 0 0 0 0 0 0 0 0 0 0 0 0 0 0 0 0 0 0 0 0 0 0 0 0 0 0 0 0 0 0 0 0 0 0 0 0 0 0 0 0 0 0 0 0 0 0 0 0 0 0 0 0 0 0 0 0 0 0 0 0 0 0 0 0 0 0 0 0 0 0 0 0 0 0 0 0 0 0 0 0 0 0 0 0 0 0 0 0 0 0 0 0 0 0 0 0 0 0 0 0 0 0 0 0 0 0 0 0 0 0 0 0 0 0 0 0 0 0 0 0 0 0 0 0 0 0 0 0 0 0 0 0 0 0 0 0 0 0 0 0 0 0 0 0 0 0 0 0 0 0 0 0 0 0 0 0 0 0 0 0 0 0 0 0 0 0 0 0 0 0 0 0 0 0 0 0 0 0 0 0 0 0 0 0 0 0 0 0 0 0 0 0 0 0 0 0 0 0 0 0 0 0 0 0 0 0 0 0 0 0 0 0 0 0 0 0 0 0 0 
