P3
200 200
255
90 90 90 91 91 91 91 91 91 91 91 91 91 91 91 91 91 91 91 91 91 91 91 91 91 91 91 91 91 91 91 91 91 91 91 91 91 91 91 92 92 92 92 92 92 92 92 92 92 92 92 92 92 92 92 92 92 92 92 92 92 92 92 92 92 92 92 92 92 92 92 92 92 92 92 92 92 92 92 92 92 92 92 92 93 93 93 93 93 93 93 93 93 93 93 93 93 93 93 93 93 93 93 93 93 93 93 93 93 93 93 93 93 93 93 93 93 93 93 93 93 93 93 93 93 93 93 93 93 93 93 93 93 93 93 93 93 93 93 93 93 93 93 93 93 93 93 94 94 94 94 94 94 94 94 94 94 94 94 94 94 94 94 94 94 94 94 94 94 94 94 94 94 94 94 94 94 94 94 94 94 94 94 94 94 94 208 186 164 210 189 168 212 192 171 154 125 95 154 125 95 154 125 95 154 125 95 154 125 95 154 125 95 154 125 95 154 125 95 144 121 97 145 121 97 145 121 97 146 122 97 146 122 97 147 122 97 147 122 97 148 123 97 148 123 97 154 136 117 154 136 117 154 136 116 155 136 116 155 135 116 155 135 115 154 135 114 154 134 113 154 133 112 152 125 96 152 125 96 152 124 96 152 124 95 152 124 95 152 124 95 152 124 95 153 124 95 153 124 95 153 124 95 153 124 95 152 124 95 152 124 95 151 123 95 151 123 95 151 123 95 150 123 95 150 122 95 149 122 94 149 122 94 148 122 94 148 121 94 167 131 95 161 128 94 161 128 94 160 128 94 160 127 94 159 127 94 159 127 94 158 126 94 158 126 94 157 126 94 157 126 94 162 133 104 160 132 102 159 130 101 92 92 92 92 92 92 92 92 92 92 92 92 92 92 92 92 92 92 91 91 91 91 91 91 91 91 91 91 91 91 91 91 91 91 91 91 91 91 91 91 91 91 91 91 91 91 91 91 91 91 91 91 91 91 90 90 90 90 90 90 90 90 90 90 90 90 90 90 90 90 90 90 90 90 90 90 90 90 90 90 90 90 90 90 90 90 90 89 89 89 89 89 89 89 89 89 89 89 89 89 89 89 89 89 89 89 89 89 89 89 89 89 89 89 88 88 88 88 88 88 88 88 88 88 88 88 88 88 88 88 88 88 88 88 88 88 88 88 88 88 88 87 87 87 87 87 87 87 87 87 87 87 87 87 87 87 87 87 87 87 87 87 87 87 87 87 87 87 86 86 86 86 86 86 86 86 86 86 86 86 86 86 86 86 86 86 86 86 86 86 86 86 85 85 85 85 85 85 85 85 85 85 85 85 85 85 85 85 85 85 85 85 85 85 85 85 84 84 84 
91 91 91 91 91 91 91 91 91 91 91 91 91 91 91 91 91 91 91 91 91 91 91 91 91 91 91 91 91 91 92 92 92 92 92 92 92 92 92 92 92 92 92 92 92 92 92 92 92 92 92 92 92 92 92 92 92 92 92 92 92 92 92 92 92 92 92 92 92 93 93 93 93 93 93 93 93 93 93 93 93 93 93 93 93 93 93 93 93 93 93 93 93 93 93 93 93 93 93 93 93 93 93 93 93 93 93 93 93 93 93 93 93 93 93 93 93 93 93 93 94 94 94 94 94 94 94 94 94 94 94 94 94 94 94 94 94 94 94 94 94 94 94 94 94 94 94 94 94 94 94 94 94 94 94 94 94 94 94 94 94 94 94 94 94 94 94 94 94 94 94 94 94 94 94 94 94 94 94 94 94 94 94 94 94 94 210 188 166 212 191 170 154 125 96 154 125 96 154 125 96 154 125 96 154 125 96 154 125 96 154 125 96 154 125 96 154 125 96 145 122 98 145 122 98 146 122 98 146 122 97 146 122 97 147 122 97 147 123 97 148 123 97 216 209 202 155 137 118 156 137 118 156 138 118 157 138 118 157 138 118 157 137 117 157 137 116 156 136 115 156 135 114 155 127 98 154 126 97 154 126 97 154 125 96 153 125 96 153 125 96 153 125 95 154 125 95 154 125 95 154 125 95 154 125 95 153 124 95 153 124 95 152 124 95 152 124 95 151 124 95 151 123 95 150 123 95 150 123 95 150 123 95 149 122 95 149 122 95 148 122 95 134 114 94 161 128 95 160 128 95 160 128 95 159 127 95 159 127 94 158 127 94 158 126 94 157 126 94 157 126 94 156 126 94 161 133 104 160 132 102 159 130 101 92 92 92 92 92 92 92 92 92 92 92 92 92 92 92 92 92 92 92 92 92 92 92 92 92 92 92 91 91 91 91 91 91 91 91 91 91 91 91 91 91 91 91 91 91 91 91 91 91 91 91 91 91 91 91 91 91 91 91 91 90 90 90 90 90 90 90 90 90 90 90 90 90 90 90 90 90 90 90 90 90 90 90 90 90 90 90 90 90 90 89 89 89 89 89 89 89 89 89 89 89 89 89 89 89 89 89 89 89 89 89 89 89 89 89 89 89 89 89 89 88 88 88 88 88 88 88 88 88 88 88 88 88 88 88 88 88 88 88 88 88 88 88 88 87 87 87 87 87 87 87 87 87 87 87 87 87 87 87 87 87 87 87 87 87 87 87 87 87 87 87 86 86 86 86 86 86 86 86 86 86 86 86 86 86 86 86 86 86 86 86 86 86 86 86 85 85 85 85 85 85 85 85 85 85 85 85 85 85 85 85 85 85 85 85 85 
91 91 91 91 91 91 91 91 91 91 91 91 91 91 91 91 91 91 91 91 91 92 92 92 92 92 92 92 92 92 92 92 92 92 92 92 92 92 92 92 92 92 92 92 92 92 92 92 92 92 92 92 92 92 92 92 92 93 93 93 93 93 93 93 93 93 93 93 93 93 93 93 93 93 93 93 93 93 93 93 93 93 93 93 93 93 93 93 93 93 93 93 93 93 93 93 93 93 93 93 93 93 94 94 94 94 94 94 94 94 94 94 94 94 94 94 94 94 94 94 94 94 94 94 94 94 94 94 94 94 94 94 94 94 94 94 94 94 94 94 94 94 94 94 94 94 94 94 94 94 94 94 94 94 94 94 94 94 94 94 94 94 94 94 94 94 94 94 94 94 94 94 94 94 94 94 94 94 94 94 95 95 95 209 187 165 211 190 169 213 193 172 153 125 96 153 125 96 153 125 96 154 125 96 154 125 96 154 125 96 154 125 96 154 125 96 145 122 98 145 122 98 145 122 98 146 122 98 146 122 98 147 123 98 147 123 98 148 123 98 149 124 98 218 211 203 157 139 120 158 139 120 159 140 121 160 141 121 161 141 121 161 141 121 161 141 120 160 139 118 159 138 116 157 129 100 157 128 99 156 127 98 155 126 97 155 126 97 155 126 96 155 126 96 155 126 96 155 126 96 155 126 96 154 125 96 154 125 96 153 125 95 153 125 95 153 124 95 152 124 95 152 124 95 151 124 95 151 123 95 150 123 95 150 123 95 149 122 95 135 115 95 134 115 95 134 114 94 160 128 95 160 128 95 159 127 95 159 127 95 158 127 95 158 127 95 157 126 95 157 126 94 156 126 94 156 125 94 161 133 104 160 131 102 158 130 101 92 92 92 92 92 92 92 92 92 92 92 92 92 92 92 92 92 92 92 92 92 92 92 92 92 92 92 92 92 92 92 92 92 91 91 91 91 91 91 91 91 91 91 91 91 91 91 91 91 91 91 91 91 91 91 91 91 91 91 91 91 91 91 91 91 91 90 90 90 90 90 90 90 90 90 90 90 90 90 90 90 90 90 90 90 90 90 90 90 90 90 90 90 90 90 90 89 89 89 89 89 89 89 89 89 89 89 89 89 89 89 89 89 89 89 89 89 89 89 89 89 89 89 88 88 88 88 88 88 88 88 88 88 88 88 88 88 88 88 88 88 88 88 88 88 88 88 87 87 87 87 87 87 87 87 87 87 87 87 87 87 87 87 87 87 87 87 87 87 87 87 86 86 86 86 86 86 86 86 86 86 86 86 86 86 86 86 86 86 86 86 86 86 86 86 85 85 85 85 85 85 85 85 85 85 85 85 85 85 85 85 85 85 
91 91 91 91 91 91 91 91 91 91 91 91 92 92 92 92 92 92 92 92 92 92 92 92 92 92 92 92 92 92 92 92 92 92 92 92 92 92 92 92 92 92 92 92 92 93 93 93 93 93 93 93 93 93 93 93 93 93 93 93 93 93 93 93 93 93 93 93 93 93 93 93 93 93 93 93 93 93 93 93 93 93 93 93 93 93 93 94 94 94 94 94 94 94 94 94 94 94 94 94 94 94 94 94 94 94 94 94 94 94 94 94 94 94 94 94 94 94 94 94 94 94 94 94 94 94 94 94 94 94 94 94 94 94 94 94 94 94 94 94 94 94 94 94 95 95 95 95 95 95 95 95 95 95 95 95 95 95 95 95 95 95 95 95 95 95 95 95 95 95 95 95 95 95 95 95 95 95 95 95 95 95 95 210 189 167 212 192 171 153 125 96 153 125 96 153 125 96 153 125 96 153 125 96 153 125 96 153 125 96 153 125 97 153 125 97 145 122 99 145 122 99 146 123 99 146 123 99 147 123 99 147 123 99 148 124 99 149 124 99 150 125 100 220 213 205 222 215 206 162 143 123 164 145 125 166 146 126 167 147 127 167 147 127 167 147 125 166 145 123 228 222 215 225 219 213 223 217 210 220 214 207 218 212 205 216 210 203 214 208 202 213 207 200 212 206 199 210 204 197 201 195 189 155 126 96 155 126 96 154 125 96 154 125 96 153 125 96 153 125 96 152 124 96 152 124 96 151 124 96 151 124 95 151 123 95 150 123 95 135 115 95 135 115 95 134 115 95 161 128 95 160 128 95 160 128 95 159 127 95 159 127 95 158 127 95 158 127 95 157 126 95 157 126 95 156 126 95 156 125 95 160 132 104 159 131 102 158 130 101 93 93 93 93 93 93 92 92 92 92 92 92 92 92 92 92 92 92 92 92 92 92 92 92 92 92 92 92 92 92 92 92 92 92 92 92 92 92 92 92 92 92 91 91 91 91 91 91 91 91 91 91 91 91 91 91 91 91 91 91 91 91 91 91 91 91 91 91 91 91 91 91 90 90 90 90 90 90 90 90 90 90 90 90 90 90 90 90 90 90 90 90 90 90 90 90 90 90 90 89 89 89 89 89 89 89 89 89 89 89 89 89 89 89 89 89 89 89 89 89 89 89 89 89 89 89 88 88 88 88 88 88 88 88 88 88 88 88 88 88 88 88 88 88 88 88 88 88 88 88 87 87 87 87 87 87 87 87 87 87 87 87 87 87 87 87 87 87 87 87 87 87 87 87 86 86 86 86 86 86 86 86 86 86 86 86 86 86 86 86 86 86 86 86 86 86 86 86 85 85 85 85 85 85 85 85 85 85 85 85 
91 91 91 92 92 92 92 92 92 92 92 92 92 92 92 92 92 92 92 92 92 92 92 92 92 92 92 92 92 92 92 92 92 93 93 93 93 93 93 93 93 93 93 93 93 93 93 93 93 93 93 93 93 93 93 93 93 93 93 93 93 93 93 93 93 93 93 93 93 93 93 93 94 94 94 94 94 94 94 94 94 94 94 94 94 94 94 94 94 94 94 94 94 94 94 94 94 94 94 94 94 94 94 94 94 94 94 94 94 94 94 94 94 94 94 94 94 94 94 94 95 95 95 95 95 95 95 95 95 95 95 95 95 95 95 95 95 95 95 95 95 95 95 95 95 95 95 95 95 95 95 95 95 95 95 95 95 95 95 95 95 95 95 95 95 95 95 95 95 95 95 95 95 95 95 95 95 95 95 95 209 188 166 211 191 170 213 194 173 153 125 97 153 125 97 153 125 97 153 125 97 153 125 97 153 125 97 153 125 97 153 125 97 145 123 100 145 123 99 146 123 99 146 123 99 146 123 99 147 123 99 148 124 99 148 124 100 150 125 100 221 214 207 223 216 208 226 219 211 167 148 128 170 151 131 174 154 134 176 156 136 177 157 136 255 255 254 239 233 226 235 229 222 231 225 218 227 221 214 223 217 210 220 214 207 217 211 204 215 209 202 213 207 200 212 205 198 202 196 189 201 195 188 201 194 188 200 194 187 155 126 96 155 126 96 154 126 96 154 125 96 153 125 96 153 125 96 152 124 96 152 124 96 151 124 96 136 116 95 136 116 95 135 116 95 135 115 95 134 115 95 160 128 96 160 128 96 159 128 95 159 127 95 158 127 95 158 127 95 157 127 95 157 126 95 156 126 95 156 126 95 155 125 95 160 132 104 159 131 102 157 129 101 93 93 93 93 93 93 93 93 93 93 93 93 93 93 93 92 92 92 92 92 92 92 92 92 92 92 92 92 92 92 92 92 92 92 92 92 92 92 92 92 92 92 92 92 92 92 92 92 91 91 91 91 91 91 91 91 91 91 91 91 91 91 91 91 91 91 91 91 91 91 91 91 91 91 91 91 91 91 90 90 90 90 90 90 90 90 90 90 90 90 90 90 90 90 90 90 90 90 90 90 90 90 89 89 89 89 89 89 89 89 89 89 89 89 89 89 89 89 89 89 89 89 89 89 89 89 89 89 89 88 88 88 88 88 88 88 88 88 88 88 88 88 88 88 88 88 88 88 88 88 88 88 88 87 87 87 87 87 87 87 87 87 87 87 87 87 87 87 87 87 87 87 87 87 87 87 87 86 86 86 86 86 86 86 86 86 86 86 86 86 86 86 86 86 86 86 86 86 85 85 85 85 85 85 85 85 85 
92 92 92 92 92 92 92 92 92 92 92 92 92 92 92 92 92 92 92 92 92 92 92 92 93 93 93 93 93 93 93 93 93 93 93 93 93 93 93 93 93 93 93 93 93 93 93 93 93 93 93 93 93 93 93 93 93 93 93 93 94 94 94 94 94 94 94 94 94 94 94 94 94 94 94 94 94 94 94 94 94 94 94 94 94 94 94 94 94 94 94 94 94 94 94 94 94 94 94 94 94 94 95 95 95 95 95 95 95 95 95 95 95 95 95 95 95 95 95 95 95 95 95 95 95 95 95 95 95 95 95 95 95 95 95 95 95 95 95 95 95 95 95 95 95 95 95 95 95 95 95 95 95 95 95 95 95 95 95 95 95 95 95 95 95 95 95 95 96 96 96 96 96 96 96 96 96 96 96 96 210 190 168 212 193 172 153 125 97 162 130 97 162 130 97 162 130 97 162 130 97 162 130 97 162 130 97 162 130 97 162 130 97 161 143 124 146 123 100 146 123 100 146 123 100 147 124 100 147 124 100 148 124 100 149 125 101 151 127 102 224 217 209 227 220 212 232 224 216 174 155 135 180 161 140 185 166 145 255 255 255 255 255 255 255 248 241 251 245 238 246 239 232 239 233 226 233 226 219 227 221 213 222 216 209 219 212 205 216 209 202 213 207 200 211 205 198 202 196 189 201 195 188 200 194 187 199 193 186 199 192 186 198 192 185 155 126 97 154 126 96 154 126 96 153 125 96 153 125 96 152 125 96 137 117 96 137 117 96 136 116 96 136 116 96 135 116 96 134 115 95 134 115 95 160 128 96 159 128 96 159 128 96 158 127 96 158 127 96 157 127 95 157 126 95 156 126 95 156 126 95 155 126 95 160 133 106 159 132 104 158 131 102 157 129 101 93 93 93 93 93 93 93 93 93 93 93 93 93 93 93 93 93 93 93 93 93 93 93 93 92 92 92 92 92 92 92 92 92 92 92 92 92 92 92 92 92 92 92 92 92 92 92 92 92 92 92 92 92 92 91 91 91 91 91 91 91 91 91 91 91 91 91 91 91 91 91 91 91 91 91 91 91 91 91 91 91 90 90 90 90 90 90 90 90 90 90 90 90 90 90 90 90 90 90 90 90 90 90 90 90 90 90 90 89 89 89 89 89 89 89 89 89 89 89 89 89 89 89 89 89 89 89 89 89 89 89 89 88 88 88 88 88 88 88 88 88 88 88 88 88 88 88 88 88 88 88 88 88 88 88 88 87 87 87 87 87 87 87 87 87 87 87 87 87 87 87 87 87 87 87 87 87 86 86 86 86 86 86 86 86 86 86 86 86 86 86 86 86 86 86 86 86 86 86 86 86 85 85 85 
92 92 92 92 92 92 92 92 92 92 92 92 92 92 92 93 93 93 93 93 93 93 93 93 93 93 93 93 93 93 93 93 93 93 93 93 93 93 93 93 93 93 93 93 93 93 93 93 94 94 94 94 94 94 94 94 94 94 94 94 94 94 94 94 94 94 94 94 94 94 94 94 94 94 94 94 94 94 94 94 94 94 94 94 94 94 94 95 95 95 95 95 95 95 95 95 95 95 95 95 95 95 95 95 95 95 95 95 95 95 95 95 95 95 95 95 95 95 95 95 95 95 95 95 95 95 95 95 95 95 95 95 95 95 95 95 95 95 96 96 96 96 96 96 96 96 96 96 96 96 96 96 96 96 96 96 96 96 96 96 96 96 96 96 96 96 96 96 96 96 96 96 96 96 96 96 96 96 96 96 211 191 171 161 131 100 160 131 101 162 130 98 162 130 98 162 130 98 162 130 98 162 130 98 162 130 98 162 130 98 162 130 98 161 144 125 161 144 125 146 124 100 147 124 100 147 124 100 148 124 100 149 125 101 150 126 102 152 128 104 227 220 212 232 225 217 239 231 223 184 165 145 255 255 255 255 255 255 148 148 148 151 151 151 150 150 150 145 145 145 137 137 137 128 128 128 119 119 119 111 111 111 105 105 105 101 101 101 99 99 99 97 97 97 96 96 96 202 196 188 201 195 187 200 194 187 199 193 186 198 192 185 197 191 184 196 190 183 195 189 182 155 126 97 154 126 97 154 126 97 153 125 97 138 117 96 137 117 96 137 117 96 136 116 96 135 116 96 135 116 96 134 115 96 134 115 96 159 128 96 159 128 96 158 128 96 158 127 96 157 127 96 157 127 96 156 126 96 156 126 96 155 126 95 155 126 95 159 128 96 159 132 104 157 130 102 156 129 101 93 93 93 93 93 93 93 93 93 93 93 93 93 93 93 93 93 93 93 93 93 93 93 93 93 93 93 93 93 93 92 92 92 92 92 92 92 92 92 92 92 92 92 92 92 92 92 92 92 92 92 92 92 92 92 92 92 92 92 92 91 91 91 91 91 91 91 91 91 91 91 91 91 91 91 91 91 91 91 91 91 91 91 91 90 90 90 90 90 90 90 90 90 90 90 90 90 90 90 90 90 90 90 90 90 90 90 90 90 90 90 89 89 89 89 89 89 89 89 89 89 89 89 89 89 89 89 89 89 89 89 89 89 89 89 88 88 88 88 88 88 88 88 88 88 88 88 88 88 88 88 88 88 88 88 88 87 87 87 87 87 87 87 87 87 87 87 87 87 87 87 87 87 87 87 87 87 87 87 87 86 86 86 86 86 86 86 86 86 86 86 86 86 86 86 86 86 86 86 86 86 
92 92 92 92 92 92 93 93 93 93 93 93 93 93 93 93 93 93 93 93 93 93 93 93 93 93 93 93 93 93 93 93 93 93 93 93 93 93 93 94 94 94 94 94 94 94 94 94 94 94 94 94 94 94 94 94 94 94 94 94 94 94 94 94 94 94 94 94 94 94 94 94 95 95 95 95 95 95 95 95 95 95 95 95 95 95 95 95 95 95 95 95 95 95 95 95 95 95 95 95 95 95 95 95 95 95 95 95 95 95 95 95 95 95 95 95 95 96 96 96 96 96 96 96 96 96 96 96 96 96 96 96 96 96 96 96 96 96 96 96 96 96 96 96 96 96 96 96 96 96 96 96 96 96 96 96 96 96 96 96 96 96 96 96 96 96 96 96 96 96 96 96 96 96 96 96 96 210 190 169 212 193 173 161 131 101 161 131 101 162 130 98 162 130 98 162 130 98 162 131 98 162 131 98 162 131 98 162 131 98 162 131 98 162 131 98 162 144 126 162 144 126 162 144 126 147 124 101 148 125 101 149 126 102 151 127 103 226 219 211 230 223 216 238 230 222 248 240 232 255 255 255 149 149 149 162 162 162 171 171 171 176 176 176 174 174 174 167 167 167 155 155 155 142 142 142 129 129 129 118 118 118 110 110 110 104 104 104 100 100 100 98 98 98 97 97 97 96 96 96 96 96 96 96 96 96 199 192 185 198 191 184 197 190 183 196 189 182 194 188 182 193 187 181 192 186 180 154 126 97 139 118 97 138 118 97 138 118 97 137 117 96 137 117 96 136 116 96 135 116 96 135 116 96 134 115 96 134 115 96 159 128 96 159 128 96 158 128 96 158 127 96 157 127 96 157 127 96 156 126 96 147 121 96 146 121 96 146 121 95 159 128 96 159 128 96 159 128 95 159 128 95 94 94 94 94 94 94 93 93 93 93 93 93 93 93 93 93 93 93 93 93 93 93 93 93 93 93 93 93 93 93 93 93 93 93 93 93 92 92 92 92 92 92 92 92 92 92 92 92 92 92 92 92 92 92 92 92 92 92 92 92 92 92 92 91 91 91 91 91 91 91 91 91 91 91 91 91 91 91 91 91 91 91 91 91 91 91 91 91 91 91 90 90 90 90 90 90 90 90 90 90 90 90 90 90 90 90 90 90 90 90 90 90 90 90 89 89 89 89 89 89 89 89 89 89 89 89 89 89 89 89 89 89 89 89 89 88 88 88 88 88 88 88 88 88 88 88 88 88 88 88 88 88 88 88 88 88 88 88 88 87 87 87 87 87 87 87 87 87 87 87 87 87 87 87 87 87 87 87 87 87 86 86 86 86 86 86 86 86 86 86 86 86 86 86 86 86 86 86 
93 93 93 93 93 93 93 93 93 93 93 93 93 93 93 93 93 93 93 93 93 93 93 93 93 93 93 94 94 94 94 94 94 94 94 94 94 94 94 94 94 94 94 94 94 94 94 94 94 94 94 94 94 94 94 94 94 94 94 94 95 95 95 95 95 95 95 95 95 95 95 95 95 95 95 95 95 95 95 95 95 95 95 95 95 95 95 95 95 95 95 95 95 95 95 95 95 95 95 96 96 96 96 96 96 96 96 96 96 96 96 96 96 96 96 96 96 96 96 96 96 96 96 96 96 96 96 96 96 96 96 96 96 96 96 96 96 96 96 96 96 96 96 96 96 96 96 96 96 96 96 96 96 96 96 96 97 97 97 97 97 97 97 97 97 97 97 97 97 97 97 97 97 97 97 97 97 211 192 171 161 131 101 161 132 101 161 132 102 162 131 98 162 131 98 162 131 99 162 131 99 162 131 99 162 131 99 162 131 99 162 131 99 162 131 99 162 145 127 163 145 127 163 145 127 163 145 127 164 146 127 150 127 103 152 129 104 228 221 214 234 227 219 244 237 229 255 250 241 150 150 150 168 168 168 185 185 185 199 199 199 205 205 205 203 203 203 193 193 193 177 177 177 159 159 159 141 141 141 126 126 126 115 115 115 107 107 107 102 102 102 99 99 99 98 98 98 97 97 97 97 97 97 96 96 96 96 96 96 96 96 96 196 189 182 195 188 181 194 187 180 192 186 179 191 185 179 190 184 178 216 216 214 139 118 97 138 118 97 138 118 97 137 117 97 136 117 97 136 117 97 135 116 97 135 116 96 134 116 96 133 115 96 159 128 97 158 128 97 158 127 97 157 127 96 148 122 96 147 122 96 147 122 96 146 121 96 146 121 96 159 128 97 159 128 96 159 128 96 159 128 96 94 94 94 94 94 94 94 94 94 94 94 94 94 94 94 94 94 94 93 93 93 93 93 93 93 93 93 93 93 93 93 93 93 93 93 93 93 93 93 93 93 93 93 93 93 92 92 92 92 92 92 92 92 92 92 92 92 92 92 92 92 92 92 92 92 92 92 92 92 92 92 92 91 91 91 91 91 91 91 91 91 91 91 91 91 91 91 91 91 91 91 91 91 91 91 91 90 90 90 90 90 90 90 90 90 90 90 90 90 90 90 90 90 90 90 90 90 90 90 90 89 89 89 89 89 89 89 89 89 89 89 89 89 89 89 89 89 89 89 89 89 88 88 88 88 88 88 88 88 88 88 88 88 88 88 88 88 88 88 88 88 88 87 87 87 87 87 87 87 87 87 87 87 87 87 87 87 87 87 87 87 87 87 86 86 86 86 86 86 86 86 86 86 86 86 86 86 86 
93 93 93 93 93 93 93 93 93 93 93 93 93 93 93 93 93 93 94 94 94 94 94 94 94 94 94 94 94 94 94 94 94 94 94 94 94 94 94 94 94 94 94 94 94 94 94 94 95 95 95 95 95 95 95 95 95 95 95 95 95 95 95 95 95 95 95 95 95 95 95 95 95 95 95 95 95 95 95 95 95 95 95 95 96 96 96 96 96 96 96 96 96 96 96 96 96 96 96 96 96 96 96 96 96 96 96 96 96 96 96 96 96 96 96 96 96 96 96 96 96 96 96 96 96 96 96 96 96 97 97 97 97 97 97 97 97 97 97 97 97 97 97 97 97 97 97 97 97 97 97 97 97 97 97 97 97 97 97 97 97 97 97 97 97 97 97 97 97 97 97 97 97 97 210 190 170 162 132 101 162 132 101 162 132 102 161 132 102 162 131 99 162 131 99 162 131 99 162 131 99 162 131 99 162 131 99 162 131 99 162 131 99 162 131 99 163 146 128 163 146 128 164 146 127 164 146 127 165 147 128 166 148 129 225 219 211 230 223 216 238 231 223 250 243 235 143 143 143 164 164 164 188 188 188 210 210 210 228 228 228 236 236 236 234 234 234 221 221 221 201 201 201 177 177 177 154 154 154 135 135 135 120 120 120 110 110 110 155 148 148 116 106 103 111 102 99 110 100 98 112 101 97 112 101 97 110 100 97 110 100 97 125 117 116 97 97 97 193 186 179 191 185 178 190 184 177 217 216 215 216 215 214 215 214 213 139 118 97 138 118 97 137 118 97 137 117 97 136 117 97 136 117 97 135 116 97 134 116 97 134 116 97 133 115 97 158 128 97 149 123 97 148 123 97 148 122 97 147 122 96 147 122 96 146 122 96 146 121 96 159 128 97 159 128 97 159 128 96 159 128 96 94 94 94 94 94 94 94 94 94 94 94 94 94 94 94 94 94 94 94 94 94 94 94 94 94 94 94 93 93 93 93 93 93 93 93 93 93 93 93 93 93 93 93 93 93 93 93 93 93 93 93 93 93 93 92 92 92 92 92 92 92 92 92 92 92 92 92 92 92 92 92 92 92 92 92 92 92 92 91 91 91 91 91 91 91 91 91 91 91 91 91 91 91 91 91 91 91 91 91 91 91 91 90 90 90 90 90 90 90 90 90 90 90 90 90 90 90 90 90 90 90 90 90 90 90 90 89 89 89 89 89 89 89 89 89 89 89 89 89 89 89 89 89 89 89 89 89 88 88 88 88 88 88 88 88 88 88 88 88 88 88 88 88 88 88 88 88 88 87 87 87 87 87 87 87 87 87 87 87 87 87 87 87 87 87 87 87 87 87 86 86 86 86 86 86 86 86 86 
93 93 93 93 93 93 93 93 93 93 93 93 94 94 94 94 94 94 94 94 94 94 94 94 94 94 94 94 94 94 94 94 94 94 94 94 94 94 94 95 95 95 95 95 95 95 95 95 95 95 95 95 95 95 95 95 95 95 95 95 95 95 95 95 95 95 95 95 95 95 95 95 96 96 96 96 96 96 96 96 96 96 96 96 96 96 96 96 96 96 96 96 96 96 96 96 96 96 96 96 96 96 96 96 96 96 96 96 96 96 96 97 97 97 97 97 97 97 97 97 97 97 97 97 97 97 97 97 97 97 97 97 97 97 97 97 97 97 97 97 97 97 97 97 97 97 97 97 97 97 97 97 97 97 97 97 97 97 97 97 97 97 97 97 97 97 97 97 97 97 97 97 97 97 163 132 101 162 132 101 162 132 102 162 132 102 162 132 103 162 131 99 162 131 99 162 131 99 162 131 99 162 131 99 162 131 99 162 131 99 162 131 99 162 131 99 164 146 129 164 146 128 164 147 128 165 147 128 165 147 129 167 149 130 170 151 132 232 225 218 241 234 226 255 248 240 152 152 152 177 177 177 206 206 206 234 234 234 255 255 255 255 255 255 255 255 255 248 248 248 223 223 223 195 195 195 167 167 167 143 143 143 125 125 125 129 119 116 118 108 106 116 105 101 106 99 99 105 98 98 105 97 97 104 97 97 104 97 97 104 97 97 104 97 97 110 100 97 97 97 97 97 97 97 189 183 176 216 215 214 215 215 213 215 214 212 139 119 98 139 118 98 138 118 98 137 118 97 137 117 97 136 117 97 135 117 97 135 116 97 134 116 97 134 116 97 149 124 97 149 123 97 148 123 97 148 123 97 147 122 97 147 122 97 146 122 97 146 122 97 145 121 96 159 128 97 159 128 97 159 128 97 159 128 96 95 95 95 95 95 95 94 94 94 94 94 94 94 94 94 94 94 94 94 94 94 94 94 94 94 94 94 94 94 94 94 94 94 93 93 93 93 93 93 93 93 93 93 93 93 93 93 93 93 93 93 93 93 93 93 93 93 93 93 93 92 92 92 92 92 92 92 92 92 92 92 92 92 92 92 92 92 92 92 92 92 92 92 92 91 91 91 91 91 91 91 91 91 91 91 91 91 91 91 91 91 91 91 91 91 90 90 90 90 90 90 90 90 90 90 90 90 90 90 90 90 90 90 90 90 90 89 89 89 89 89 89 89 89 89 89 89 89 89 89 89 89 89 89 89 89 89 88 88 88 88 88 88 88 88 88 88 88 88 88 88 88 88 88 88 88 88 88 87 87 87 87 87 87 87 87 87 87 87 87 87 87 87 87 87 87 87 87 87 86 86 86 86 86 86 
93 93 93 94 94 94 94 94 94 94 94 94 94 94 94 94 94 94 94 94 94 94 94 94 94 94 94 94 94 94 95 95 95 95 95 95 95 95 95 95 95 95 95 95 95 95 95 95 95 95 95 95 95 95 95 95 95 95 95 95 96 96 96 96 96 96 96 96 96 96 96 96 96 96 96 96 96 96 96 96 96 96 96 96 96 96 96 96 96 96 96 96 96 96 96 96 97 97 97 97 97 97 97 97 97 97 97 97 97 97 97 97 97 97 97 97 97 97 97 97 97 97 97 97 97 97 97 97 97 97 97 97 97 97 97 97 97 97 97 97 97 97 97 97 98 98 98 98 98 98 98 98 98 98 98 98 98 98 98 98 98 98 98 98 98 98 98 98 98 98 98 98 98 98 163 132 101 163 133 102 162 133 102 162 133 103 162 133 103 162 133 104 162 131 100 162 131 100 162 131 100 162 131 100 162 131 100 162 131 100 162 131 100 162 131 100 162 132 100 164 147 129 165 147 129 165 148 129 166 148 130 168 150 131 171 152 134 233 226 219 244 236 229 135 135 135 158 158 158 187 187 187 220 220 220 251 251 251 255 255 255 255 255 255 255 255 255 255 255 255 241 241 241 208 208 208 176 176 176 222 215 215 141 132 130 126 117 115 120 110 107 109 102 102 107 99 99 106 98 98 105 98 98 105 98 98 105 98 98 105 97 97 105 97 97 105 97 97 112 101 97 122 114 114 97 97 97 215 214 213 214 214 212 214 213 212 213 212 211 139 119 98 138 119 98 138 118 98 137 118 98 137 117 98 136 117 98 135 117 98 135 116 97 155 148 140 154 147 139 149 123 97 148 123 97 148 123 97 147 123 97 147 122 97 146 122 97 146 122 97 145 121 97 158 128 98 158 128 97 158 128 97 158 128 97 95 95 95 95 95 95 95 95 95 95 95 95 95 95 95 94 94 94 94 94 94 94 94 94 94 94 94 94 94 94 94 94 94 94 94 94 94 94 94 94 94 94 93 93 93 93 93 93 93 93 93 93 93 93 93 93 93 93 93 93 93 93 93 93 93 93 92 92 92 92 92 92 92 92 92 92 92 92 92 92 92 92 92 92 92 92 92 92 92 92 91 91 91 91 91 91 91 91 91 91 91 91 91 91 91 91 91 91 91 91 91 90 90 90 90 90 90 90 90 90 90 90 90 90 90 90 90 90 90 90 90 90 89 89 89 89 89 89 89 89 89 89 89 89 89 89 89 89 89 89 89 89 89 88 88 88 88 88 88 88 88 88 88 88 88 88 88 88 88 88 88 88 88 88 87 87 87 87 87 87 87 87 87 87 87 87 87 87 87 87 87 87 86 86 86 
94 94 94 94 94 94 94 94 94 94 94 94 94 94 94 94 94 94 94 94 94 95 95 95 95 95 95 95 95 95 95 95 95 95 95 95 95 95 95 95 95 95 95 95 95 95 95 95 96 96 96 96 96 96 96 96 96 96 96 96 96 96 96 96 96 96 96 96 96 96 96 96 96 96 96 96 96 96 96 96 96 97 97 97 97 97 97 97 97 97 97 97 97 97 97 97 97 97 97 97 97 97 97 97 97 97 97 97 97 97 97 97 97 97 97 97 97 97 97 97 97 97 97 98 98 98 98 98 98 98 98 98 98 98 98 98 98 98 98 98 98 98 98 98 98 98 98 98 98 98 98 98 98 98 98 98 98 98 98 98 98 98 98 98 98 98 98 98 98 98 98 98 98 98 163 133 102 163 133 102 163 133 103 162 133 103 162 133 104 162 133 104 162 132 100 162 132 100 162 132 100 162 132 100 162 132 100 162 132 100 162 132 100 163 132 100 163 132 100 165 148 130 165 148 130 166 148 130 166 149 130 168 150 132 171 153 134 234 227 219 244 237 229 137 137 137 160 160 160 191 191 191 226 226 226 255 255 255 255 255 255 255 255 255 255 255 255 255 255 255 250 250 250 215 215 215 181 181 181 169 162 162 142 133 131 130 120 116 115 107 107 110 102 102 107 100 100 106 99 99 105 98 98 105 98 98 105 98 98 105 98 98 105 98 98 105 98 98 105 98 98 112 101 98 98 98 98 98 98 98 213 213 211 213 212 211 212 211 210 212 211 209 139 119 98 138 119 98 138 118 98 137 118 98 136 118 98 136 117 98 156 149 141 156 148 140 155 148 140 149 124 98 148 123 98 148 123 98 147 123 98 147 123 97 146 122 97 146 122 97 145 122 97 158 129 98 158 128 98 158 128 97 158 128 97 95 95 95 95 95 95 95 95 95 95 95 95 95 95 95 95 95 95 95 95 95 95 95 95 94 94 94 94 94 94 94 94 94 94 94 94 94 94 94 94 94 94 94 94 94 94 94 94 94 94 94 93 93 93 93 93 93 93 93 93 93 93 93 93 93 93 93 93 93 93 93 93 92 92 92 92 92 92 92 92 92 92 92 92 92 92 92 92 92 92 92 92 92 92 92 92 91 91 91 91 91 91 91 91 91 91 91 91 91 91 91 91 91 91 91 91 91 90 90 90 90 90 90 90 90 90 90 90 90 90 90 90 90 90 90 90 90 90 89 89 89 89 89 89 89 89 89 89 89 89 89 89 89 89 89 89 89 89 89 88 88 88 88 88 88 88 88 88 88 88 88 88 88 88 88 88 88 87 87 87 87 87 87 87 87 87 87 87 87 87 87 87 87 87 87 
94 94 94 94 94 94 94 94 94 94 94 94 94 94 94 95 95 95 95 95 95 95 95 95 95 95 95 95 95 95 95 95 95 95 95 95 95 95 95 96 96 96 96 96 96 96 96 96 96 96 96 96 96 96 96 96 96 96 96 96 96 96 96 96 96 96 96 96 96 97 97 97 97 97 97 97 97 97 97 97 97 97 97 97 97 97 97 97 97 97 97 97 97 97 97 97 97 97 97 97 97 97 97 97 97 98 98 98 98 98 98 98 98 98 98 98 98 98 98 98 98 98 98 98 98 98 98 98 98 98 98 98 98 98 98 98 98 98 98 98 98 98 98 98 98 98 98 98 98 98 98 98 98 99 99 99 99 99 99 99 99 99 99 99 99 99 99 99 99 99 99 99 99 99 99 99 99 163 133 103 163 133 103 163 134 104 163 134 104 162 134 105 162 132 101 162 132 101 162 132 101 162 132 101 162 132 101 163 132 101 163 132 101 163 132 101 163 132 101 165 148 131 166 149 131 166 149 131 167 149 131 168 151 132 171 153 135 233 227 219 244 236 229 135 135 135 159 159 159 189 189 189 224 224 224 255 255 255 255 255 255 255 255 255 255 255 255 255 255 255 250 250 250 215 215 215 200 193 193 163 154 152 142 133 131 123 116 116 115 107 107 110 103 103 108 100 100 106 99 99 106 99 99 106 98 98 106 98 98 106 98 98 105 98 98 105 98 98 105 98 98 105 98 98 109 100 98 98 98 98 98 98 98 212 211 209 211 210 209 210 210 208 210 209 208 139 119 99 138 119 99 137 118 98 137 118 98 157 150 142 157 149 141 156 149 141 156 149 141 149 124 98 148 124 98 148 123 98 147 123 98 147 123 98 146 122 98 146 122 98 146 122 98 145 122 97 158 129 98 158 128 98 158 128 98 158 128 97 96 96 96 95 95 95 95 95 95 95 95 95 95 95 95 95 95 95 95 95 95 95 95 95 95 95 95 95 95 95 94 94 94 94 94 94 94 94 94 94 94 94 94 94 94 94 94 94 94 94 94 94 94 94 93 93 93 93 93 93 93 93 93 93 93 93 93 93 93 93 93 93 93 93 93 93 93 93 92 92 92 92 92 92 92 92 92 92 92 92 92 92 92 92 92 92 92 92 92 91 91 91 91 91 91 91 91 91 91 91 91 91 91 91 91 91 91 91 91 91 90 90 90 90 90 90 90 90 90 90 90 90 90 90 90 90 90 90 89 89 89 89 89 89 89 89 89 89 89 89 89 89 89 89 89 89 89 89 89 88 88 88 88 88 88 88 88 88 88 88 88 88 88 88 88 88 88 87 87 87 87 87 87 87 87 87 87 87 87 87 87 87 
94 94 94 94 94 94 95 95 95 95 95 95 95 95 95 95 95 95 95 95 95 95 95 95 95 95 95 95 95 95 96 96 96 96 96 96 96 96 96 96 96 96 96 96 96 96 96 96 96 96 96 96 96 96 96 96 96 97 97 97 97 97 97 97 97 97 97 97 97 97 97 97 97 97 97 97 97 97 97 97 97 97 97 97 97 97 97 97 97 97 98 98 98 98 98 98 98 98 98 98 98 98 98 98 98 98 98 98 98 98 98 98 98 98 98 98 98 98 98 98 98 98 98 98 98 98 98 98 98 99 99 99 99 99 99 99 99 99 99 99 99 99 99 99 99 99 99 99 99 99 99 99 99 99 99 99 99 99 99 99 99 99 99 99 99 99 99 99 99 99 99 99 99 99 99 99 99 163 134 103 163 134 104 163 134 104 163 134 105 163 134 105 162 132 101 162 132 101 162 132 101 163 132 101 163 132 101 163 132 101 163 132 101 163 132 101 163 132 101 166 149 132 166 149 132 166 149 132 167 150 132 168 151 133 171 153 135 176 158 140 117 117 117 132 132 132 153 153 153 181 181 181 213 213 213 245 245 245 255 255 255 255 255 255 255 255 255 255 255 255 238 238 238 238 231 231 188 180 180 157 149 148 141 131 128 122 115 115 114 107 107 110 103 103 108 101 101 107 100 100 106 99 99 106 99 99 106 99 99 106 99 99 106 99 99 106 99 99 106 99 99 106 99 99 106 98 98 110 101 99 98 98 98 98 98 98 210 209 208 209 208 207 209 208 207 208 207 206 138 119 99 138 119 99 158 151 142 158 150 142 157 150 142 157 150 142 156 149 141 156 149 141 148 124 99 148 124 98 147 123 98 147 123 98 147 123 98 146 122 98 146 122 98 145 122 98 158 129 99 158 129 99 158 128 98 158 128 98 96 96 96 96 96 96 96 96 96 96 96 96 96 96 96 95 95 95 95 95 95 95 95 95 95 95 95 95 95 95 95 95 95 95 95 95 95 95 95 94 94 94 94 94 94 94 94 94 94 94 94 94 94 94 94 94 94 94 94 94 94 94 94 93 93 93 93 93 93 93 93 93 93 93 93 93 93 93 93 93 93 93 93 93 92 92 92 92 92 92 92 92 92 92 92 92 92 92 92 92 92 92 92 92 92 91 91 91 91 91 91 91 91 91 91 91 91 91 91 91 91 91 91 90 90 90 90 90 90 90 90 90 90 90 90 90 90 90 90 90 90 90 90 90 89 89 89 89 89 89 89 89 89 89 89 89 89 89 89 89 89 89 88 88 88 88 88 88 88 88 88 88 88 88 88 88 88 88 88 88 88 88 88 87 87 87 87 87 87 87 87 87 
95 95 95 95 95 95 95 95 95 95 95 95 95 95 95 95 95 95 95 95 95 95 95 95 96 96 96 96 96 96 96 96 96 96 96 96 96 96 96 96 96 96 96 96 96 96 96 96 97 97 97 97 97 97 97 97 97 97 97 97 97 97 97 97 97 97 97 97 97 97 97 97 97 97 97 97 97 97 98 98 98 98 98 98 98 98 98 98 98 98 98 98 98 98 98 98 98 98 98 98 98 98 98 98 98 98 98 98 98 98 98 99 99 99 99 99 99 99 99 99 99 99 99 99 99 99 99 99 99 99 99 99 99 99 99 99 99 99 99 99 99 99 99 99 99 99 99 99 99 99 99 99 99 99 99 99 99 99 99 99 99 99 100 100 100 100 100 100 100 100 100 100 100 100 100 100 100 164 134 104 164 134 104 163 134 105 163 134 105 163 135 106 163 135 106 162 132 101 163 132 101 163 132 102 163 132 102 163 132 102 163 132 102 163 132 102 163 133 102 163 133 102 167 150 132 167 150 132 167 150 132 169 151 133 171 153 135 175 157 139 115 115 115 127 127 127 144 144 144 168 168 168 196 196 196 223 223 223 245 245 245 255 255 255 255 255 255 242 242 242 219 219 219 200 192 192 173 165 164 150 142 141 136 127 124 120 113 113 113 106 106 110 103 103 108 101 101 107 100 100 107 100 100 107 99 99 106 99 99 106 99 99 106 99 99 106 99 99 106 99 99 106 99 99 106 99 99 110 101 99 99 99 99 99 99 99 99 99 99 208 207 206 207 207 205 207 206 205 206 206 204 159 152 143 159 151 143 158 151 143 158 151 143 157 150 142 157 150 142 156 149 142 148 124 99 148 124 99 148 123 99 147 123 99 147 123 99 146 123 98 146 122 98 145 122 98 158 129 100 158 129 99 158 129 99 158 128 98 96 96 96 96 96 96 96 96 96 96 96 96 96 96 96 96 96 96 96 96 96 96 96 96 95 95 95 95 95 95 95 95 95 95 95 95 95 95 95 95 95 95 95 95 95 95 95 95 94 94 94 94 94 94 94 94 94 94 94 94 94 94 94 94 94 94 94 94 94 93 93 93 93 93 93 93 93 93 93 93 93 93 93 93 93 93 93 93 93 93 92 92 92 92 92 92 92 92 92 92 92 92 92 92 92 92 92 92 92 92 92 91 91 91 91 91 91 91 91 91 91 91 91 91 91 91 91 91 91 90 90 90 90 90 90 90 90 90 90 90 90 90 90 90 90 90 90 89 89 89 89 89 89 89 89 89 89 89 89 89 89 89 89 89 89 89 89 89 88 88 88 88 88 88 88 88 88 88 88 88 88 88 88 88 88 88 87 87 87 87 87 87 
95 95 95 95 95 95 95 95 95 95 95 95 95 95 95 96 96 96 96 96 96 96 96 96 96 96 96 96 96 96 96 96 96 96 96 96 96 96 96 97 97 97 97 97 97 97 97 97 97 97 97 97 97 97 97 97 97 97 97 97 97 97 97 97 97 97 98 98 98 98 98 98 98 98 98 98 98 98 98 98 98 98 98 98 98 98 98 98 98 98 98 98 98 98 98 98 99 99 99 99 99 99 99 99 99 99 99 99 99 99 99 99 99 99 99 99 99 99 99 99 99 99 99 99 99 99 99 99 99 99 99 99 99 99 99 99 99 99 100 100 100 100 100 100 100 100 100 100 100 100 100 100 100 100 100 100 100 100 100 100 100 100 100 100 100 100 100 100 100 100 100 100 100 100 100 100 100 164 134 104 164 135 105 164 135 105 163 135 106 163 135 106 163 135 107 163 133 102 163 133 102 163 133 102 163 133 102 163 133 102 163 133 102 163 133 102 163 133 102 163 133 102 167 150 133 167 150 133 168 151 133 169 151 134 170 153 135 173 156 137 111 111 111 121 121 121 135 135 135 153 153 153 175 175 175 197 197 197 215 215 215 225 225 225 224 224 224 213 213 213 255 255 255 192 185 185 160 152 151 141 134 133 131 122 119 118 110 110 112 105 105 109 102 102 109 102 102 109 101 101 108 101 101 108 101 101 108 100 100 107 100 100 107 100 100 107 100 100 107 99 99 107 99 99 107 99 99 108 100 99 119 111 111 99 99 99 99 99 99 99 99 99 206 205 204 205 205 203 205 204 203 160 152 144 159 152 144 159 152 143 158 151 143 158 151 143 157 150 143 157 150 142 149 124 99 148 124 99 148 124 99 147 123 99 147 123 99 146 123 99 146 123 99 145 122 99 145 122 98 158 129 100 158 129 99 158 129 99 158 128 98 97 97 97 97 97 97 96 96 96 96 96 96 96 96 96 96 96 96 96 96 96 96 96 96 96 96 96 96 96 96 95 95 95 95 95 95 95 95 95 95 95 95 95 95 95 95 95 95 95 95 95 94 94 94 94 94 94 94 94 94 94 94 94 94 94 94 94 94 94 94 94 94 93 93 93 93 93 93 93 93 93 93 93 93 93 93 93 93 93 93 93 93 93 92 92 92 92 92 92 92 92 92 92 92 92 92 92 92 92 92 92 91 91 91 91 91 91 91 91 91 91 91 91 91 91 91 91 91 91 91 91 91 90 90 90 90 90 90 90 90 90 90 90 90 90 90 90 90 90 90 89 89 89 89 89 89 89 89 89 89 89 89 89 89 89 89 89 89 88 88 88 88 88 88 88 88 88 88 88 88 88 88 88 88 88 88 87 87 87 
95 95 95 95 95 95 95 95 95 96 96 96 96 96 96 96 96 96 96 96 96 96 96 96 96 96 96 96 96 96 97 97 97 97 97 97 97 97 97 97 97 97 97 97 97 97 97 97 97 97 97 97 97 97 97 97 97 98 98 98 98 98 98 98 98 98 98 98 98 98 98 98 98 98 98 98 98 98 98 98 98 98 98 98 99 99 99 99 99 99 99 99 99 99 99 99 99 99 99 99 99 99 99 99 99 99 99 99 99 99 99 99 99 99 99 99 99 99 99 99 100 100 100 100 100 100 100 100 100 100 100 100 100 100 100 100 100 100 100 100 100 100 100 100 100 100 100 100 100 100 100 100 100 100 100 100 100 100 100 100 100 100 100 100 100 100 100 100 101 101 101 101 101 101 101 101 101 164 135 105 164 135 105 164 135 106 164 135 106 164 135 107 164 136 107 163 133 102 163 133 102 163 133 102 163 133 102 163 133 102 163 133 102 163 133 102 163 133 102 163 133 103 167 151 134 168 151 134 168 151 134 169 152 134 170 153 135 172 155 137 176 158 140 115 115 115 125 125 125 139 139 139 154 154 154 171 171 171 184 184 184 191 191 191 191 191 191 183 183 183 191 184 184 171 164 164 146 138 138 133 125 124 125 116 114 115 108 108 113 106 106 112 105 105 112 104 104 111 104 104 111 104 104 111 104 104 111 103 103 110 103 103 109 102 102 107 100 100 107 100 100 107 100 100 107 100 100 112 102 100 109 101 100 100 100 100 99 99 99 99 99 99 99 99 99 204 203 202 203 203 201 228 227 226 160 153 144 159 152 144 159 152 144 158 151 144 158 151 143 157 150 143 157 150 143 148 124 100 148 124 100 147 124 99 147 123 99 146 123 99 146 123 99 145 123 99 145 122 99 158 130 100 158 129 100 158 129 99 158 129 99 97 97 97 97 97 97 97 97 97 97 97 97 97 97 97 96 96 96 96 96 96 96 96 96 96 96 96 96 96 96 96 96 96 96 96 96 95 95 95 95 95 95 95 95 95 95 95 95 95 95 95 95 95 95 95 95 95 95 95 95 94 94 94 94 94 94 94 94 94 94 94 94 94 94 94 94 94 94 93 93 93 93 93 93 93 93 93 93 93 93 93 93 93 93 93 93 93 93 93 92 92 92 92 92 92 92 92 92 92 92 92 92 92 92 92 92 92 91 91 91 91 91 91 91 91 91 91 91 91 91 91 91 91 91 91 90 90 90 90 90 90 90 90 90 90 90 90 90 90 90 90 90 90 89 89 89 89 89 89 89 89 89 89 89 89 89 89 89 89 89 89 88 88 88 88 88 88 88 88 88 88 88 88 88 88 88 88 88 88 
96 96 96 96 96 96 96 96 96 96 96 96 96 96 96 96 96 96 96 96 96 96 96 96 97 97 97 97 97 97 97 97 97 97 97 97 97 97 97 97 97 97 97 97 97 97 97 97 98 98 98 98 98 98 98 98 98 98 98 98 98 98 98 98 98 98 98 98 98 98 98 98 99 99 99 99 99 99 99 99 99 99 99 99 99 99 99 99 99 99 99 99 99 99 99 99 99 99 99 99 99 99 100 100 100 100 100 100 100 100 100 100 100 100 100 100 100 100 100 100 100 100 100 100 100 100 100 100 100 100 100 100 100 100 100 100 100 100 100 100 100 100 100 100 101 101 101 101 101 101 101 101 101 101 101 101 101 101 101 101 101 101 101 101 101 101 101 101 101 101 101 101 101 101 101 101 101 101 101 101 164 135 106 164 136 106 164 136 107 164 136 107 164 136 108 163 133 103 163 133 103 163 133 103 163 133 103 163 133 103 163 133 103 163 133 103 163 133 103 163 133 103 168 151 134 168 152 134 168 152 134 169 152 134 170 153 135 171 154 136 174 156 138 111 111 111 117 117 117 126 126 126 137 137 137 148 148 148 157 157 157 162 162 162 162 162 162 157 157 157 158 151 151 153 146 145 147 139 139 124 117 117 118 110 110 116 109 109 115 107 107 114 107 107 113 106 106 113 106 106 113 106 106 113 106 106 113 105 105 112 105 105 112 104 104 110 103 103 109 101 101 108 100 100 107 100 100 112 103 100 109 101 100 100 100 100 100 100 100 100 100 100 100 100 100 100 100 100 202 201 200 227 226 225 161 153 145 160 153 145 159 152 144 159 152 144 158 151 144 158 151 143 157 151 143 148 125 100 148 124 100 147 124 100 147 124 100 146 123 100 146 123 100 146 123 99 145 123 99 158 130 101 158 129 100 158 129 100 157 129 99 97 97 97 97 97 97 97 97 97 97 97 97 97 97 97 97 97 97 97 97 97 97 97 97 96 96 96 96 96 96 96 96 96 96 96 96 96 96 96 96 96 96 96 96 96 95 95 95 95 95 95 95 95 95 95 95 95 95 95 95 95 95 95 95 95 95 94 94 94 94 94 94 94 94 94 94 94 94 94 94 94 94 94 94 93 93 93 93 93 93 93 93 93 93 93 93 93 93 93 93 93 93 93 93 93 92 92 92 92 92 92 92 92 92 92 92 92 92 92 92 92 92 92 91 91 91 91 91 91 91 91 91 91 91 91 91 91 91 91 91 91 90 90 90 90 90 90 90 90 90 90 90 90 90 90 90 90 90 90 89 89 89 89 89 89 89 89 89 89 89 89 89 89 89 88 88 88 88 88 88 88 88 88 88 88 88 88 88 88 
96 96 96 96 96 96 96 96 96 96 96 96 96 96 96 97 97 97 97 97 97 97 97 97 97 97 97 97 97 97 97 97 97 97 97 97 97 97 97 98 98 98 98 98 98 98 98 98 98 98 98 98 98 98 98 98 98 98 98 98 98 98 98 99 99 99 99 99 99 99 99 99 99 99 99 99 99 99 99 99 99 99 99 99 99 99 99 99 99 99 100 100 100 100 100 100 100 100 100 100 100 100 100 100 100 100 100 100 100 100 100 100 100 100 100 100 100 100 100 100 100 100 100 101 101 101 101 101 101 101 101 101 101 101 101 101 101 101 101 101 101 101 101 101 101 101 101 101 101 101 101 101 101 101 101 101 101 101 101 101 101 101 101 101 101 101 101 101 101 101 101 102 102 102 102 102 102 102 102 102 165 136 106 165 136 107 164 136 107 164 136 108 164 136 108 164 137 109 163 134 103 163 134 103 163 134 103 163 134 103 163 134 103 163 134 103 163 134 103 163 134 103 163 134 103 168 152 135 169 152 135 169 152 135 170 153 135 170 153 136 172 155 137 107 107 107 111 111 111 117 117 117 123 123 123 130 130 130 136 136 136 139 139 139 139 139 139 136 136 136 139 132 132 130 123 123 137 129 129 119 111 111 115 107 107 116 109 109 115 108 108 115 108 108 115 107 107 114 107 107 114 107 107 114 107 107 114 107 107 114 106 106 113 106 106 112 105 105 111 104 104 109 102 102 108 101 101 113 103 101 109 101 101 101 101 101 100 100 100 100 100 100 100 100 100 100 100 100 100 100 100 226 225 224 161 154 145 160 153 145 160 153 145 159 152 145 159 152 144 158 152 144 158 151 144 148 125 101 148 125 100 147 124 100 147 124 100 147 124 100 146 123 100 146 123 100 145 123 100 145 123 100 158 130 101 158 129 101 157 129 100 157 129 100 98 98 98 98 98 98 97 97 97 97 97 97 97 97 97 97 97 97 97 97 97 97 97 97 97 97 97 96 96 96 96 96 96 96 96 96 96 96 96 96 96 96 96 96 96 96 96 96 95 95 95 95 95 95 95 95 95 95 95 95 95 95 95 95 95 95 95 95 95 94 94 94 94 94 94 94 94 94 94 94 94 94 94 94 94 94 94 93 93 93 93 93 93 93 93 93 93 93 93 93 93 93 93 93 93 92 92 92 92 92 92 92 92 92 92 92 92 92 92 92 92 92 92 91 91 91 91 91 91 91 91 91 91 91 91 91 91 91 91 91 91 90 90 90 90 90 90 90 90 90 90 90 90 90 90 90 90 90 90 89 89 89 89 89 89 89 89 89 89 89 89 89 89 89 89 89 89 88 88 88 88 88 88 88 88 88 
96 96 96 96 96 96 96 96 96 97 97 97 97 97 97 97 97 97 97 97 97 97 97 97 97 97 97 97 97 97 98 98 98 98 98 98 98 98 98 98 98 98 98 98 98 98 98 98 98 98 98 98 98 98 99 99 99 99 99 99 99 99 99 99 99 99 99 99 99 99 99 99 99 99 99 99 99 99 100 100 100 100 100 100 100 100 100 100 100 100 100 100 100 100 100 100 100 100 100 100 100 100 100 100 100 100 100 100 101 101 101 101 101 101 101 101 101 101 101 101 101 101 101 101 101 101 101 101 101 101 101 101 101 101 101 101 101 101 101 101 101 101 101 101 101 101 101 102 102 102 102 102 102 102 102 102 102 102 102 102 102 102 102 102 102 102 102 102 102 102 102 102 102 102 102 102 102 102 102 102 165 136 107 165 136 107 165 137 108 165 137 108 165 137 109 164 137 109 163 134 104 163 134 104 163 134 104 163 134 104 163 134 104 163 134 104 163 134 104 163 134 104 163 134 104 169 153 136 169 153 136 169 153 136 170 153 136 170 153 136 171 154 136 105 105 105 107 107 107 110 110 110 114 114 114 118 118 118 121 121 121 123 123 123 123 123 123 121 121 121 127 120 120 121 114 114 129 122 122 115 108 108 113 105 105 111 104 104 116 109 109 116 109 109 115 108 108 115 108 108 115 108 108 115 108 108 115 108 108 115 107 107 114 107 107 114 107 107 113 106 106 111 104 104 108 101 101 110 102 101 110 102 101 101 101 101 101 101 101 101 101 101 101 101 101 101 101 101 101 101 101 224 224 222 227 226 225 161 154 146 160 153 145 160 153 145 159 152 145 159 152 144 158 152 144 158 151 144 148 125 101 139 121 102 139 121 102 138 120 101 138 120 101 138 120 101 137 119 101 137 119 101 158 130 102 158 130 101 157 129 101 157 129 100 98 98 98 98 98 98 98 98 98 98 98 98 98 98 98 97 97 97 97 97 97 97 97 97 97 97 97 97 97 97 97 97 97 97 97 97 96 96 96 96 96 96 96 96 96 96 96 96 96 96 96 96 96 96 96 96 96 95 95 95 95 95 95 95 95 95 95 95 95 95 95 95 95 95 95 94 94 94 94 94 94 94 94 94 94 94 94 94 94 94 94 94 94 93 93 93 93 93 93 93 93 93 93 93 93 93 93 93 93 93 93 92 92 92 92 92 92 92 92 92 92 92 92 92 92 92 92 92 92 91 91 91 91 91 91 91 91 91 91 91 91 91 91 91 91 91 91 90 90 90 90 90 90 90 90 90 90 90 90 90 90 90 89 89 89 89 89 89 89 89 89 89 89 89 89 89 89 89 89 89 88 88 88 88 88 88 
96 96 96 97 97 97 97 97 97 97 97 97 97 97 97 97 97 97 97 97 97 97 97 97 98 98 98 98 98 98 98 98 98 98 98 98 98 98 98 98 98 98 98 98 98 99 99 99 99 99 99 99 99 99 99 99 99 99 99 99 99 99 99 99 99 99 99 99 99 100 100 100 100 100 100 100 100 100 100 100 100 100 100 100 100 100 100 100 100 100 100 100 100 101 101 101 101 101 101 101 101 101 101 101 101 101 101 101 101 101 101 101 101 101 101 101 101 101 101 101 101 101 101 101 101 101 102 102 102 102 102 102 102 102 102 102 102 102 102 102 102 102 102 102 102 102 102 102 102 102 102 102 102 102 102 102 102 102 102 102 102 102 102 102 102 102 102 102 102 102 102 102 102 102 103 103 103 103 103 103 165 137 107 165 137 108 165 137 108 165 137 109 165 137 109 165 138 110 163 134 104 163 134 104 163 134 104 163 134 104 163 134 104 163 134 104 163 134 104 171 138 105 171 138 105 171 138 105 190 178 164 190 178 164 191 178 164 191 178 164 192 179 165 192 179 165 105 105 105 107 107 107 109 109 109 111 111 111 112 112 112 113 113 113 113 113 113 112 112 112 120 113 113 116 109 109 124 116 116 121 114 114 113 106 106 111 104 104 113 104 103 117 109 109 116 109 109 116 109 109 116 109 109 116 109 109 116 109 109 116 108 108 115 108 108 115 108 108 114 107 107 113 106 106 113 104 102 110 102 102 119 111 111 101 101 101 101 101 101 101 101 101 101 101 101 101 101 101 101 101 101 223 222 221 226 225 224 161 154 146 161 154 146 160 153 146 160 153 145 159 152 145 220 219 217 141 122 103 140 122 103 140 121 102 139 121 102 139 121 102 138 120 102 138 120 102 137 120 101 165 133 101 165 133 101 165 133 101 157 130 101 157 129 101 99 99 99 98 98 98 98 98 98 98 98 98 98 98 98 98 98 98 98 98 98 98 98 98 97 97 97 97 97 97 97 97 97 97 97 97 97 97 97 97 97 97 97 97 97 96 96 96 96 96 96 96 96 96 96 96 96 96 96 96 96 96 96 95 95 95 95 95 95 95 95 95 95 95 95 95 95 95 95 95 95 94 94 94 94 94 94 94 94 94 94 94 94 94 94 94 94 94 94 93 93 93 93 93 93 93 93 93 93 93 93 93 93 93 93 93 93 92 92 92 92 92 92 92 92 92 92 92 92 92 92 92 91 91 91 91 91 91 91 91 91 91 91 91 91 91 91 91 91 91 90 90 90 90 90 90 90 90 90 90 90 90 90 90 90 89 89 89 89 89 89 89 89 89 89 89 89 89 89 89 89 89 89 88 88 88 
97 97 97 97 97 97 97 97 97 97 97 97 97 97 97 98 98 98 98 98 98 98 98 98 98 98 98 98 98 98 98 98 98 98 98 98 99 99 99 99 99 99 99 99 99 99 99 99 99 99 99 99 99 99 99 99 99 100 100 100 100 100 100 100 100 100 100 100 100 100 100 100 100 100 100 100 100 100 100 100 100 100 100 100 101 101 101 101 101 101 101 101 101 101 101 101 101 101 101 101 101 101 101 101 101 101 101 101 101 101 101 102 102 102 102 102 102 102 102 102 102 102 102 102 102 102 102 102 102 102 102 102 102 102 102 102 102 102 102 102 102 102 102 102 102 102 102 103 103 103 103 103 103 103 103 103 103 103 103 103 103 103 103 103 103 103 103 103 103 103 103 103 103 103 103 103 103 103 103 103 103 103 103 166 137 108 165 137 109 165 138 109 165 138 110 165 138 110 163 134 105 163 135 105 163 135 105 163 135 105 164 135 105 171 138 105 171 138 105 171 138 105 171 138 105 171 138 105 171 138 105 191 178 165 191 178 165 191 179 165 192 179 165 192 179 165 193 179 165 105 105 105 106 106 106 107 107 107 108 108 108 108 108 108 108 108 108 108 108 108 122 114 114 113 106 106 114 107 107 118 111 111 114 106 106 111 104 104 111 103 103 113 104 103 117 110 110 117 110 110 117 110 110 117 110 110 117 109 109 116 109 109 116 109 109 116 109 109 115 108 108 114 107 107 110 102 102 111 104 103 120 112 112 102 102 102 102 102 102 102 102 102 102 102 102 102 102 102 102 102 102 101 101 101 225 224 222 162 155 147 161 154 146 161 154 146 160 153 146 222 221 219 221 220 219 141 123 104 140 122 103 140 122 103 139 122 103 139 121 103 139 121 102 138 120 102 138 120 102 165 134 101 165 134 101 165 134 101 166 134 101 157 130 101 157 129 101 99 99 99 99 99 99 99 99 99 98 98 98 98 98 98 98 98 98 98 98 98 98 98 98 98 98 98 97 97 97 97 97 97 97 97 97 97 97 97 97 97 97 97 97 97 97 97 97 96 96 96 96 96 96 96 96 96 96 96 96 96 96 96 96 96 96 95 95 95 95 95 95 95 95 95 95 95 95 95 95 95 95 95 95 94 94 94 94 94 94 94 94 94 94 94 94 94 94 94 94 94 94 93 93 93 93 93 93 93 93 93 93 93 93 93 93 93 92 92 92 92 92 92 92 92 92 92 92 92 92 92 92 92 92 92 91 91 91 91 91 91 91 91 91 91 91 91 91 91 91 90 90 90 90 90 90 90 90 90 90 90 90 90 90 90 89 89 89 89 89 89 89 89 89 89 89 89 89 89 89 89 89 89 
97 97 97 97 97 97 97 97 97 98 98 98 98 98 98 98 98 98 98 98 98 98 98 98 98 98 98 98 98 98 99 99 99 99 99 99 99 99 99 99 99 99 99 99 99 99 99 99 100 100 100 100 100 100 100 100 100 100 100 100 100 100 100 100 100 100 100 100 100 100 100 100 101 101 101 101 101 101 101 101 101 101 101 101 101 101 101 101 101 101 101 101 101 101 101 101 101 101 101 102 102 102 102 102 102 102 102 102 102 102 102 102 102 102 102 102 102 102 102 102 102 102 102 102 102 102 102 102 102 103 103 103 103 103 103 103 103 103 103 103 103 103 103 103 103 103 103 103 103 103 103 103 103 103 103 103 103 103 103 103 103 103 103 103 103 103 103 103 103 103 103 104 104 104 104 104 104 104 104 104 104 104 104 166 138 109 166 138 109 166 138 110 166 138 110 165 138 111 165 139 111 164 135 105 164 135 105 171 139 106 171 139 106 171 139 106 171 139 106 171 139 106 171 139 106 171 139 106 171 139 106 171 139 106 191 179 166 192 179 166 192 179 166 192 179 165 192 179 166 193 179 166 105 105 105 105 105 105 106 106 106 106 106 106 106 106 106 106 106 106 159 151 151 112 105 105 114 107 107 117 110 110 122 115 115 113 105 105 111 104 104 111 104 104 111 104 103 113 105 103 118 111 111 118 110 110 117 110 110 117 110 110 117 110 110 117 110 110 113 104 103 110 103 103 110 103 103 123 116 115 113 106 106 102 102 102 102 102 102 102 102 102 102 102 102 102 102 102 102 102 102 102 102 102 223 222 221 226 225 224 162 155 147 225 224 222 224 223 221 223 222 221 222 221 220 141 123 104 141 123 104 140 122 104 140 122 103 139 122 103 139 121 103 138 121 103 138 121 103 165 134 102 165 134 102 165 134 101 166 134 101 166 134 101 166 134 101 99 99 99 99 99 99 99 99 99 99 99 99 99 99 99 99 99 99 98 98 98 98 98 98 98 98 98 98 98 98 98 98 98 98 98 98 97 97 97 97 97 97 97 97 97 97 97 97 97 97 97 97 97 97 96 96 96 96 96 96 96 96 96 96 96 96 96 96 96 96 96 96 95 95 95 95 95 95 95 95 95 95 95 95 95 95 95 95 95 95 94 94 94 94 94 94 94 94 94 94 94 94 94 94 94 93 93 93 93 93 93 93 93 93 93 93 93 93 93 93 93 93 93 92 92 92 92 92 92 92 92 92 92 92 92 92 92 92 91 91 91 91 91 91 91 91 91 91 91 91 91 91 91 90 90 90 90 90 90 90 90 90 90 90 90 90 90 90 90 90 90 89 89 89 89 89 89 89 89 89 89 89 89 
97 97 97 98 98 98 98 98 98 98 98 98 98 98 98 98 98 98 98 98 98 99 99 99 99 99 99 99 99 99 99 99 99 99 99 99 99 99 99 99 99 99 100 100 100 100 100 100 100 100 100 100 100 100 100 100 100 100 100 100 100 100 100 101 101 101 101 101 101 101 101 101 101 101 101 101 101 101 101 101 101 101 101 101 101 101 101 102 102 102 102 102 102 102 102 102 102 102 102 102 102 102 102 102 102 102 102 102 102 102 102 102 102 102 103 103 103 103 103 103 103 103 103 103 103 103 103 103 103 103 103 103 103 103 103 103 103 103 103 103 103 103 103 103 103 103 103 104 104 104 104 104 104 104 104 104 104 104 104 104 104 104 104 104 104 104 104 104 104 104 104 104 104 104 104 104 104 104 104 104 104 104 104 166 138 109 166 138 110 166 138 110 166 139 111 166 139 111 166 139 112 164 135 106 171 139 106 171 139 106 171 139 106 171 139 106 171 139 106 171 139 106 171 139 106 171 139 106 171 139 106 172 139 106 172 139 106 192 179 166 192 180 166 192 180 166 192 180 166 193 180 166 193 180 166 105 105 105 105 105 105 105 105 105 105 105 105 105 105 105 105 105 105 112 105 105 113 106 106 118 111 111 120 112 112 121 113 113 112 105 105 113 106 105 112 105 105 111 104 104 111 104 104 111 104 104 113 105 104 113 105 104 113 105 104 111 104 104 111 104 104 112 105 105 111 104 104 122 115 115 103 103 103 103 103 103 103 103 103 103 103 103 103 103 103 103 103 103 103 103 103 102 102 102 221 221 219 225 224 222 226 226 224 226 225 223 225 224 222 224 223 222 223 222 221 141 124 105 141 123 105 141 123 104 140 122 104 140 122 104 139 122 104 139 121 103 138 121 103 165 134 102 165 134 102 166 134 102 166 134 102 166 134 102 166 134 101 100 100 100 100 100 100 99 99 99 99 99 99 99 99 99 99 99 99 99 99 99 99 99 99 98 98 98 98 98 98 98 98 98 98 98 98 98 98 98 98 98 98 97 97 97 97 97 97 97 97 97 97 97 97 97 97 97 97 97 97 96 96 96 96 96 96 96 96 96 96 96 96 96 96 96 96 96 96 95 95 95 95 95 95 95 95 95 95 95 95 95 95 95 94 94 94 94 94 94 94 94 94 94 94 94 94 94 94 94 94 94 93 93 93 93 93 93 93 93 93 93 93 93 93 93 93 92 92 92 92 92 92 92 92 92 92 92 92 92 92 92 91 91 91 91 91 91 91 91 91 91 91 91 91 91 91 90 90 90 90 90 90 90 90 90 90 90 90 90 90 90 90 90 90 89 89 89 89 89 89 89 89 89 
98 98 98 98 98 98 98 98 98 98 98 98 98 98 98 99 99 99 99 99 99 99 99 99 99 99 99 99 99 99 99 99 99 100 100 100 100 100 100 100 100 100 100 100 100 100 100 100 100 100 100 100 100 100 101 101 101 101 101 101 101 101 101 101 101 101 101 101 101 101 101 101 101 101 101 102 102 102 102 102 102 102 102 102 102 102 102 102 102 102 102 102 102 102 102 102 102 102 102 103 103 103 103 103 103 103 103 103 103 103 103 103 103 103 103 103 103 103 103 103 103 103 103 103 103 103 103 103 103 104 104 104 104 104 104 104 104 104 104 104 104 104 104 104 104 104 104 104 104 104 104 104 104 104 104 104 104 104 104 104 104 104 104 104 104 104 104 104 105 105 105 105 105 105 105 105 105 105 105 105 105 105 105 166 139 110 166 139 110 166 139 111 166 139 111 166 139 112 177 142 107 176 142 107 171 139 107 171 139 107 171 139 107 171 139 107 171 139 107 172 140 107 172 140 107 172 140 107 172 140 107 172 140 107 172 140 107 192 180 167 193 180 167 193 180 167 193 180 167 193 180 166 193 180 166 193 180 166 105 105 105 105 105 105 105 105 105 105 105 105 105 105 105 120 113 113 112 105 105 118 111 111 120 113 113 118 111 111 118 111 111 123 116 116 114 107 106 113 106 105 112 105 105 112 105 105 112 105 105 112 105 105 112 104 104 112 105 105 113 106 106 123 116 116 122 114 114 111 104 104 104 104 104 104 104 104 103 103 103 103 103 103 103 103 103 103 103 103 103 103 103 103 103 103 220 219 217 223 222 221 227 227 225 226 226 224 226 225 223 225 224 222 142 124 106 142 124 106 141 124 105 141 123 105 140 123 105 140 123 105 139 122 104 139 122 104 165 134 103 165 134 103 165 134 102 166 134 102 166 134 102 166 134 102 166 134 102 100 100 100 100 100 100 100 100 100 100 100 100 99 99 99 99 99 99 99 99 99 99 99 99 99 99 99 99 99 99 99 99 99 98 98 98 98 98 98 98 98 98 98 98 98 98 98 98 98 98 98 97 97 97 97 97 97 97 97 97 97 97 97 97 97 97 96 96 96 96 96 96 96 96 96 96 96 96 96 96 96 96 96 96 95 95 95 95 95 95 95 95 95 95 95 95 95 95 95 94 94 94 94 94 94 94 94 94 94 94 94 94 94 94 93 93 93 93 93 93 93 93 93 93 93 93 93 93 93 92 92 92 92 92 92 92 92 92 92 92 92 92 92 92 92 92 92 91 91 91 91 91 91 91 91 91 91 91 91 91 91 91 90 90 90 90 90 90 90 90 90 90 90 90 90 90 90 89 89 89 89 89 89 
98 98 98 98 98 98 98 98 98 99 99 99 99 99 99 99 99 99 99 99 99 99 99 99 99 99 99 100 100 100 100 100 100 100 100 100 100 100 100 100 100 100 100 100 100 101 101 101 101 101 101 101 101 101 101 101 101 101 101 101 101 101 101 101 101 101 102 102 102 102 102 102 102 102 102 102 102 102 102 102 102 102 102 102 102 102 102 103 103 103 103 103 103 103 103 103 103 103 103 103 103 103 103 103 103 103 103 103 103 103 103 103 103 103 104 104 104 104 104 104 104 104 104 104 104 104 104 104 104 104 104 104 104 104 104 104 104 104 104 104 104 104 104 104 104 104 104 105 105 105 105 105 105 105 105 105 105 105 105 105 105 105 105 105 105 105 105 105 105 105 105 105 105 105 105 105 105 105 105 105 105 105 105 105 105 105 167 139 111 167 139 111 167 140 112 166 140 112 177 143 107 177 143 107 171 140 107 172 140 107 172 140 107 172 140 107 172 140 107 172 140 107 172 140 107 172 140 107 172 140 107 172 140 107 172 140 107 172 140 107 193 181 168 193 181 167 193 180 167 193 180 167 193 180 167 193 180 167 106 106 106 106 106 106 106 106 106 106 106 106 106 106 106 105 105 105 113 106 106 116 109 109 120 113 113 121 114 114 121 113 113 121 113 113 122 115 114 122 115 114 114 107 107 114 107 107 114 107 107 114 107 107 113 106 106 114 107 107 123 116 116 120 113 112 112 104 104 104 104 104 104 104 104 104 104 104 104 104 104 104 104 104 104 104 104 104 104 104 104 104 104 103 103 103 103 103 103 229 228 227 228 228 226 227 227 225 226 226 224 225 225 223 143 125 107 142 125 106 142 124 106 141 124 106 141 123 105 140 123 105 140 123 105 139 122 105 165 135 103 165 135 103 166 135 103 166 135 103 166 134 103 166 134 102 101 101 101 101 101 101 100 100 100 100 100 100 100 100 100 100 100 100 100 100 100 100 100 100 99 99 99 99 99 99 99 99 99 99 99 99 99 99 99 99 99 99 98 98 98 98 98 98 98 98 98 98 98 98 98 98 98 98 98 98 97 97 97 97 97 97 97 97 97 97 97 97 97 97 97 96 96 96 96 96 96 96 96 96 96 96 96 96 96 96 95 95 95 95 95 95 95 95 95 95 95 95 95 95 95 95 95 95 94 94 94 94 94 94 94 94 94 94 94 94 94 94 94 93 93 93 93 93 93 93 93 93 93 93 93 93 93 93 92 92 92 92 92 92 92 92 92 92 92 92 92 92 92 91 91 91 91 91 91 91 91 91 91 91 91 91 91 91 90 90 90 90 90 90 90 90 90 90 90 90 90 90 90 89 89 89 
98 98 98 99 99 99 99 99 99 99 99 99 99 99 99 99 99 99 99 99 99 100 100 100 100 100 100 100 100 100 100 100 100 100 100 100 100 100 100 101 101 101 101 101 101 101 101 101 101 101 101 101 101 101 101 101 101 102 102 102 102 102 102 102 102 102 102 102 102 102 102 102 102 102 102 102 102 102 103 103 103 103 103 103 103 103 103 103 103 103 103 103 103 103 103 103 103 103 103 103 103 103 104 104 104 104 104 104 104 104 104 104 104 104 104 104 104 104 104 104 104 104 104 104 104 104 104 104 104 105 105 105 105 105 105 105 105 105 105 105 105 105 105 105 105 105 105 105 105 105 105 105 105 105 105 105 105 105 105 105 105 105 105 105 105 106 106 106 106 106 106 106 106 106 106 106 106 106 106 106 106 106 106 106 106 106 167 140 111 167 140 112 167 140 112 178 143 108 178 143 108 178 143 108 177 143 108 172 140 108 172 140 108 172 140 108 172 140 108 172 140 108 172 140 108 172 140 108 172 140 108 172 140 108 172 141 108 172 141 108 172 141 108 193 181 168 193 181 168 193 181 168 193 181 167 193 181 167 193 180 167 106 106 106 106 106 106 106 106 106 106 106 106 106 106 106 106 106 106 113 106 106 119 112 112 121 114 114 122 114 114 121 114 114 121 114 114 119 111 111 121 114 113 122 115 115 122 115 115 121 114 114 121 114 114 122 115 114 117 110 110 112 105 105 105 105 105 105 105 105 105 105 105 105 105 105 105 105 105 104 104 104 104 104 104 104 104 104 104 104 104 104 104 104 104 104 104 230 229 228 229 228 227 228 227 226 227 226 225 226 226 224 143 125 107 142 125 107 142 125 107 141 124 106 141 124 106 141 124 106 140 123 106 140 123 105 165 135 104 166 135 104 166 135 103 166 135 103 166 135 103 166 135 103 101 101 101 101 101 101 101 101 101 101 101 101 101 101 101 100 100 100 100 100 100 100 100 100 100 100 100 100 100 100 100 100 100 99 99 99 99 99 99 99 99 99 99 99 99 99 99 99 98 98 98 98 98 98 98 98 98 98 98 98 98 98 98 98 98 98 97 97 97 97 97 97 97 97 97 97 97 97 97 97 97 96 96 96 96 96 96 96 96 96 96 96 96 96 96 96 95 95 95 95 95 95 95 95 95 95 95 95 95 95 95 94 94 94 94 94 94 94 94 94 94 94 94 94 94 94 93 93 93 93 93 93 93 93 93 93 93 93 93 93 93 92 92 92 92 92 92 92 92 92 92 92 92 92 92 92 91 91 91 91 91 91 91 91 91 91 91 91 91 91 91 90 90 90 90 90 90 90 90 90 90 90 90 89 89 89 
99 99 99 99 99 99 99 99 99 99 99 99 99 99 99 100 100 100 100 100 100 100 100 100 100 100 100 100 100 100 101 101 101 101 101 101 101 101 101 101 101 101 101 101 101 101 101 101 102 102 102 102 102 102 102 102 102 102 102 102 102 102 102 102 102 102 102 102 102 103 103 103 103 103 103 103 103 103 103 103 103 103 103 103 103 103 103 103 103 103 104 104 104 104 104 104 104 104 104 104 104 104 104 104 104 104 104 104 104 104 104 104 104 104 105 105 105 105 105 105 105 105 105 105 105 105 105 105 105 105 105 105 105 105 105 105 105 105 105 105 105 105 105 105 106 106 106 106 106 106 106 106 106 106 106 106 106 106 106 106 106 106 106 106 106 106 106 106 106 106 106 106 106 106 106 106 106 106 106 106 106 106 106 106 106 106 167 140 112 167 140 113 179 144 108 179 144 108 179 144 108 178 144 108 178 144 109 178 143 109 172 141 108 172 141 108 172 141 108 172 141 108 172 141 109 173 141 109 173 141 109 173 141 109 173 141 109 173 141 109 173 141 109 173 141 109 194 181 169 194 181 168 194 181 168 194 181 168 194 181 168 194 181 167 107 107 107 107 107 107 107 107 107 107 107 107 107 107 107 107 107 107 114 106 106 120 113 113 122 115 115 122 115 115 122 115 115 122 115 115 122 115 115 122 114 114 121 114 114 121 114 114 121 113 113 118 111 111 113 106 106 106 106 106 105 105 105 105 105 105 105 105 105 105 105 105 105 105 105 105 105 105 105 105 105 105 105 105 105 105 105 105 105 105 104 104 104 231 230 228 230 229 228 229 228 227 228 227 226 227 226 225 143 126 108 143 126 108 142 125 107 142 125 107 141 124 107 141 124 106 140 124 106 140 123 106 166 135 104 166 135 104 166 135 104 166 135 104 166 135 104 166 135 103 102 102 102 101 101 101 101 101 101 101 101 101 101 101 101 101 101 101 101 101 101 100 100 100 100 100 100 100 100 100 100 100 100 100 100 100 100 100 100 99 99 99 99 99 99 99 99 99 99 99 99 99 99 99 98 98 98 98 98 98 98 98 98 98 98 98 98 98 98 98 98 98 97 97 97 97 97 97 97 97 97 97 97 97 97 97 97 96 96 96 96 96 96 96 96 96 96 96 96 96 96 96 95 95 95 95 95 95 95 95 95 95 95 95 95 95 95 94 94 94 94 94 94 94 94 94 94 94 94 93 93 93 93 93 93 93 93 93 93 93 93 93 93 93 92 92 92 92 92 92 92 92 92 92 92 92 92 92 92 91 91 91 91 91 91 91 91 91 91 91 91 91 91 91 90 90 90 90 90 90 90 90 90 90 90 90 
99 99 99 99 99 99 99 99 99 100 100 100 100 100 100 100 100 100 100 100 100 100 100 100 101 101 101 101 101 101 101 101 101 101 101 101 101 101 101 101 101 101 102 102 102 102 102 102 102 102 102 102 102 102 102 102 102 102 102 102 103 103 103 103 103 103 103 103 103 103 103 103 103 103 103 103 103 103 103 103 103 104 104 104 104 104 104 104 104 104 104 104 104 104 104 104 104 104 104 104 104 104 105 105 105 105 105 105 105 105 105 105 105 105 105 105 105 105 105 105 105 105 105 105 105 105 106 106 106 106 106 106 106 106 106 106 106 106 106 106 106 106 106 106 106 106 106 106 106 106 106 106 106 106 106 106 106 106 106 107 107 107 107 107 107 107 107 107 107 107 107 107 107 107 107 107 107 107 107 107 107 107 107 107 107 107 168 141 113 168 141 113 180 145 109 179 145 109 179 144 109 179 144 109 179 144 109 178 144 109 178 144 109 173 141 109 173 141 109 173 141 109 173 141 109 173 141 109 173 141 109 173 141 109 173 141 109 173 141 109 173 141 109 173 141 109 173 141 109 194 182 169 194 182 169 194 182 168 194 181 168 194 181 168 194 181 167 107 107 107 107 107 107 107 107 107 107 107 107 107 107 107 107 107 107 114 107 107 118 111 111 122 115 115 123 115 115 123 116 116 123 115 115 122 115 115 122 115 115 121 114 114 117 110 110 114 106 106 106 106 106 106 106 106 106 106 106 106 106 106 106 106 106 106 106 106 106 106 106 106 106 106 105 105 105 105 105 105 105 105 105 105 105 105 105 105 105 231 231 229 230 230 228 229 229 227 229 228 226 144 127 109 144 126 109 143 126 108 143 126 108 142 125 108 142 125 107 141 125 107 141 124 107 140 124 107 166 135 105 166 135 104 166 135 104 166 135 104 166 135 104 166 135 104 102 102 102 102 102 102 102 102 102 102 102 102 101 101 101 101 101 101 101 101 101 101 101 101 101 101 101 101 101 101 100 100 100 100 100 100 100 100 100 100 100 100 100 100 100 99 99 99 99 99 99 99 99 99 99 99 99 99 99 99 98 98 98 98 98 98 98 98 98 98 98 98 98 98 98 97 97 97 97 97 97 97 97 97 97 97 97 97 97 97 96 96 96 96 96 96 96 96 96 96 96 96 96 96 96 95 95 95 95 95 95 95 95 95 95 95 95 95 95 95 94 94 94 94 94 94 94 94 94 94 94 94 94 94 94 93 93 93 93 93 93 93 93 93 93 93 93 92 92 92 92 92 92 92 92 92 92 92 92 92 92 92 91 91 91 91 91 91 91 91 91 91 91 91 91 91 91 90 90 90 90 90 90 90 90 90 
99 99 99 100 100 100 100 100 100 100 100 100 100 100 100 100 100 100 101 101 101 101 101 101 101 101 101 101 101 101 101 101 101 101 101 101 102 102 102 102 102 102 102 102 102 102 102 102 102 102 102 103 103 103 103 103 103 103 103 103 103 103 103 103 103 103 103 103 103 103 103 103 104 104 104 104 104 104 104 104 104 104 104 104 104 104 104 104 104 104 105 105 105 105 105 105 105 105 105 105 105 105 105 105 105 105 105 105 105 105 105 105 105 105 106 106 106 106 106 106 106 106 106 106 106 106 106 106 106 106 106 106 106 106 106 106 106 106 106 106 106 107 107 107 107 107 107 107 107 107 107 107 107 107 107 107 107 107 107 107 107 107 107 107 107 107 107 107 107 107 107 107 107 107 107 107 107 108 108 108 108 108 108 108 108 108 108 108 108 181 145 110 180 145 110 180 145 110 180 145 110 180 145 110 179 145 110 179 145 110 179 145 110 178 144 110 173 142 110 173 142 110 173 142 110 173 142 110 173 142 110 173 142 110 173 142 110 173 142 110 173 142 110 173 142 110 173 142 110 173 142 110 194 182 169 194 182 169 194 182 169 194 182 169 194 181 168 194 181 168 108 108 108 108 108 108 108 108 108 108 108 108 108 108 108 108 108 108 108 108 108 115 108 108 116 108 108 118 111 111 119 112 112 118 111 111 115 108 108 114 107 107 107 107 107 107 107 107 107 107 107 107 107 107 107 107 107 107 107 107 106 106 106 106 106 106 106 106 106 106 106 106 106 106 106 106 106 106 106 106 106 106 106 106 233 232 231 232 231 230 231 230 229 230 229 228 220 219 218 156 143 129 144 127 109 144 127 109 143 126 109 143 126 108 142 125 108 142 125 108 141 125 107 166 136 105 166 136 105 166 136 105 166 136 105 166 136 105 166 136 105 212 183 153 103 103 103 102 102 102 102 102 102 102 102 102 102 102 102 102 102 102 102 102 102 101 101 101 101 101 101 101 101 101 101 101 101 101 101 101 100 100 100 100 100 100 100 100 100 100 100 100 100 100 100 99 99 99 99 99 99 99 99 99 99 99 99 99 99 99 98 98 98 98 98 98 98 98 98 98 98 98 98 98 98 97 97 97 97 97 97 97 97 97 97 97 97 97 97 97 96 96 96 96 96 96 96 96 96 96 96 96 96 96 96 95 95 95 95 95 95 95 95 95 95 95 95 94 94 94 94 94 94 94 94 94 94 94 94 94 94 94 93 93 93 93 93 93 93 93 93 93 93 93 92 92 92 92 92 92 92 92 92 92 92 92 92 92 92 91 91 91 91 91 91 91 91 91 91 91 91 90 90 90 90 90 90 90 90 90 
100 100 100 100 100 100 100 100 100 100 100 100 101 101 101 101 101 101 101 101 101 101 101 101 101 101 101 101 101 101 102 102 102 102 102 102 102 102 102 102 102 102 102 102 102 103 103 103 103 103 103 103 103 103 103 103 103 103 103 103 103 103 103 104 104 104 104 104 104 104 104 104 104 104 104 104 104 104 104 104 104 105 105 105 105 105 105 105 105 105 105 105 105 105 105 105 105 105 105 105 105 105 106 106 106 106 106 106 106 106 106 106 106 106 106 106 106 106 106 106 106 106 106 106 106 106 107 107 107 107 107 107 107 107 107 107 107 107 107 107 107 107 107 107 107 107 107 107 107 107 107 107 107 108 108 108 108 108 108 108 108 108 108 108 108 108 108 108 108 108 108 108 108 108 108 108 108 108 108 108 108 108 108 108 108 108 108 108 108 181 146 110 181 146 110 181 146 110 180 146 110 180 146 110 180 145 110 180 145 110 179 145 110 179 145 110 179 145 110 173 142 110 173 142 110 174 142 110 174 142 110 174 142 110 174 142 110 174 142 110 174 142 110 174 142 110 174 142 110 174 142 110 174 142 110 195 183 170 195 182 169 195 182 169 194 182 169 194 182 168 203 192 181 202 192 180 108 108 108 108 108 108 108 108 108 108 108 108 108 108 108 108 108 108 108 108 108 108 108 108 108 108 108 108 108 108 108 108 108 108 108 108 108 108 108 108 108 108 107 107 107 107 107 107 107 107 107 107 107 107 107 107 107 107 107 107 107 107 107 107 107 107 107 107 107 106 106 106 106 106 106 106 106 106 233 233 231 232 232 230 223 222 220 159 146 132 158 145 131 157 144 130 156 143 129 155 142 129 154 141 128 143 126 109 142 126 109 142 126 108 141 125 108 166 136 106 166 136 106 166 136 105 166 136 105 166 136 105 166 136 105 103 103 103 103 103 103 103 103 103 103 103 103 103 103 103 102 102 102 102 102 102 102 102 102 102 102 102 102 102 102 101 101 101 101 101 101 101 101 101 101 101 101 101 101 101 100 100 100 100 100 100 100 100 100 100 100 100 100 100 100 99 99 99 99 99 99 99 99 99 99 99 99 99 99 99 98 98 98 98 98 98 98 98 98 98 98 98 98 98 98 97 97 97 97 97 97 97 97 97 97 97 97 97 97 97 96 96 96 96 96 96 96 96 96 96 96 96 95 95 95 95 95 95 95 95 95 95 95 95 95 95 95 94 94 94 94 94 94 94 94 94 94 94 94 93 93 93 93 93 93 93 93 93 93 93 93 92 92 92 92 92 92 92 92 92 92 92 92 92 92 92 91 91 91 91 91 91 91 91 91 91 91 91 90 90 90 90 90 90 
100 100 100 100 100 100 100 100 100 101 101 101 101 101 101 101 101 101 101 101 101 101 101 101 102 102 102 102 102 102 102 102 102 102 102 102 102 102 102 103 103 103 103 103 103 103 103 103 103 103 103 103 103 103 104 104 104 104 104 104 104 104 104 104 104 104 104 104 104 104 104 104 105 105 105 105 105 105 105 105 105 105 105 105 105 105 105 105 105 105 106 106 106 106 106 106 106 106 106 106 106 106 106 106 106 106 106 106 106 106 106 107 107 107 107 107 107 107 107 107 107 107 107 107 107 107 107 107 107 107 107 107 107 107 107 108 108 108 108 108 108 108 108 108 108 108 108 108 108 108 108 108 108 108 108 108 108 108 108 108 108 108 108 108 108 108 108 108 109 109 109 109 109 109 109 109 109 109 109 109 109 109 109 109 109 109 109 109 109 230 209 187 182 147 111 181 146 111 181 146 111 181 146 111 181 146 111 180 146 111 180 146 111 180 146 111 179 146 111 179 145 111 174 143 111 174 143 111 174 143 111 174 143 111 174 143 111 174 143 111 174 143 111 174 143 111 174 143 111 174 143 111 174 143 111 174 143 111 195 183 170 195 183 170 195 182 169 203 193 182 203 192 181 203 192 181 202 192 180 202 191 180 109 109 109 109 109 109 109 109 109 109 109 109 109 109 109 109 109 109 109 109 109 108 108 108 108 108 108 108 108 108 108 108 108 108 108 108 108 108 108 108 108 108 108 108 108 108 108 108 108 108 108 108 108 108 107 107 107 107 107 107 107 107 107 107 107 107 107 107 107 107 107 107 225 224 223 226 226 224 160 147 133 159 146 133 159 146 132 158 145 131 157 144 130 156 143 130 155 142 129 154 141 128 153 141 127 153 140 126 142 126 109 166 136 106 166 136 106 166 136 106 166 136 106 166 136 106 166 136 105 104 104 104 104 104 104 103 103 103 103 103 103 103 103 103 103 103 103 103 103 103 102 102 102 102 102 102 102 102 102 102 102 102 102 102 102 101 101 101 101 101 101 101 101 101 101 101 101 101 101 101 100 100 100 100 100 100 100 100 100 100 100 100 100 100 100 99 99 99 99 99 99 99 99 99 99 99 99 99 99 99 98 98 98 98 98 98 98 98 98 98 98 98 97 97 97 97 97 97 97 97 97 97 97 97 97 97 97 96 96 96 96 96 96 96 96 96 96 96 96 95 95 95 95 95 95 95 95 95 95 95 95 95 95 95 94 94 94 94 94 94 94 94 94 94 94 94 93 93 93 93 93 93 93 93 93 93 93 93 92 92 92 92 92 92 92 92 92 92 92 92 92 92 92 91 91 91 91 91 91 91 91 91 91 91 91 90 90 90 
100 100 100 101 101 101 101 101 101 101 101 101 101 101 101 101 101 101 102 102 102 102 102 102 102 102 102 102 102 102 102 102 102 103 103 103 103 103 103 103 103 103 103 103 103 103 103 103 104 104 104 104 104 104 104 104 104 104 104 104 104 104 104 105 105 105 105 105 105 105 105 105 105 105 105 105 105 105 105 105 105 106 106 106 106 106 106 106 106 106 106 106 106 106 106 106 106 106 106 107 107 107 107 107 107 107 107 107 107 107 107 107 107 107 107 107 107 107 107 107 107 107 107 108 108 108 108 108 108 108 108 108 108 108 108 108 108 108 108 108 108 108 108 108 108 108 108 109 109 109 109 109 109 109 109 109 109 109 109 109 109 109 109 109 109 109 109 109 109 109 109 109 109 109 109 109 109 109 109 109 109 109 109 110 110 110 110 110 110 110 110 110 231 210 188 182 147 112 182 147 112 181 147 112 181 147 112 181 147 112 181 147 112 180 146 112 180 146 112 180 146 112 179 146 112 174 143 112 174 143 112 174 143 112 174 143 112 174 143 112 174 143 112 174 143 112 174 143 112 174 143 112 174 143 112 174 143 112 174 143 112 195 183 170 204 193 182 203 193 182 203 193 182 203 193 181 203 192 181 202 192 181 202 191 180 201 191 180 109 109 109 109 109 109 109 109 109 109 109 109 109 109 109 109 109 109 109 109 109 109 109 109 109 109 109 109 109 109 109 109 109 109 109 109 108 108 108 108 108 108 108 108 108 108 108 108 108 108 108 108 108 108 108 108 108 108 108 108 108 108 108 229 228 226 230 229 228 162 149 135 161 148 134 160 147 134 159 146 133 158 146 132 158 145 131 157 144 131 156 143 130 155 142 129 154 141 128 153 141 127 173 141 107 166 137 107 166 137 107 166 137 107 166 137 106 166 136 106 166 136 106 104 104 104 104 104 104 104 104 104 104 104 104 103 103 103 103 103 103 103 103 103 103 103 103 103 103 103 103 103 103 102 102 102 102 102 102 102 102 102 102 102 102 102 102 102 101 101 101 101 101 101 101 101 101 101 101 101 100 100 100 100 100 100 100 100 100 100 100 100 100 100 100 99 99 99 99 99 99 99 99 99 99 99 99 99 99 99 98 98 98 98 98 98 98 98 98 98 98 98 97 97 97 97 97 97 97 97 97 97 97 97 96 96 96 96 96 96 96 96 96 96 96 96 96 96 96 95 95 95 95 95 95 95 95 95 95 95 95 94 94 94 94 94 94 94 94 94 94 94 94 93 93 93 93 93 93 93 93 93 93 93 93 92 92 92 92 92 92 92 92 92 92 92 92 92 92 92 91 91 91 91 91 91 91 91 91 91 91 91 
101 101 101 101 101 101 101 101 101 101 101 101 102 102 102 102 102 102 102 102 102 102 102 102 102 102 102 103 103 103 103 103 103 103 103 103 103 103 103 103 103 103 104 104 104 104 104 104 104 104 104 104 104 104 104 104 104 105 105 105 105 105 105 105 105 105 105 105 105 105 105 105 106 106 106 106 106 106 106 106 106 106 106 106 106 106 106 106 106 106 107 107 107 107 107 107 107 107 107 107 107 107 107 107 107 107 107 107 107 107 107 108 108 108 108 108 108 108 108 108 108 108 108 108 108 108 108 108 108 108 108 108 109 109 109 109 109 109 109 109 109 109 109 109 109 109 109 109 109 109 109 109 109 109 109 109 109 109 109 110 110 110 110 110 110 110 110 110 110 110 110 110 110 110 110 110 110 110 110 110 110 110 110 110 110 110 110 110 110 110 110 110 230 208 186 232 211 190 182 148 112 182 148 112 182 147 112 182 147 112 181 147 112 181 147 112 181 147 112 180 147 112 180 147 112 180 146 112 175 144 112 175 144 112 175 144 112 175 144 112 175 144 112 175 144 112 175 144 112 175 144 112 175 144 112 175 144 112 175 144 112 179 146 112 204 194 183 204 194 183 203 193 182 203 193 182 203 193 182 203 192 181 202 192 181 202 191 180 201 191 180 201 190 179 110 110 110 110 110 110 110 110 110 110 110 110 110 110 110 110 110 110 110 110 110 109 109 109 109 109 109 109 109 109 109 109 109 109 109 109 109 109 109 109 109 109 109 109 109 109 109 109 108 108 108 231 230 228 232 231 230 164 151 137 163 150 137 162 149 136 162 149 135 161 148 134 160 147 134 159 146 133 158 146 132 157 145 131 156 144 131 156 143 130 174 141 108 174 141 108 173 141 108 173 141 108 166 137 107 166 137 107 166 137 107 166 137 107 217 189 160 105 105 105 105 105 105 104 104 104 104 104 104 104 104 104 104 104 104 104 104 104 103 103 103 103 103 103 103 103 103 103 103 103 103 103 103 102 102 102 102 102 102 102 102 102 102 102 102 102 102 102 101 101 101 101 101 101 101 101 101 101 101 101 100 100 100 100 100 100 100 100 100 100 100 100 100 100 100 99 99 99 99 99 99 99 99 99 99 99 99 98 98 98 98 98 98 98 98 98 98 98 98 97 97 97 97 97 97 97 97 97 97 97 97 97 97 97 96 96 96 96 96 96 96 96 96 96 96 96 95 95 95 95 95 95 95 95 95 95 95 95 94 94 94 94 94 94 94 94 94 94 94 94 93 93 93 93 93 93 93 93 93 93 93 93 92 92 92 92 92 92 92 92 92 92 92 92 91 91 91 91 91 91 91 91 91 91 91 91 
101 101 101 101 101 101 102 102 102 102 102 102 102 102 102 102 102 102 102 102 102 103 103 103 103 103 103 103 103 103 103 103 103 103 103 103 104 104 104 104 104 104 104 104 104 104 104 104 104 104 104 105 105 105 105 105 105 105 105 105 105 105 105 105 105 105 106 106 106 106 106 106 106 106 106 106 106 106 106 106 106 107 107 107 107 107 107 107 107 107 107 107 107 107 107 107 107 107 107 108 108 108 108 108 108 108 108 108 108 108 108 108 108 108 108 108 108 108 108 108 109 109 109 109 109 109 109 109 109 109 109 109 109 109 109 109 109 109 109 109 109 110 110 110 110 110 110 110 110 110 110 110 110 110 110 110 110 110 110 110 110 110 110 110 110 110 110 110 110 110 110 111 111 111 111 111 111 111 111 111 111 111 111 111 111 111 111 111 111 111 111 111 111 111 111 231 209 187 233 212 191 183 148 113 183 148 113 182 148 113 182 148 113 182 148 113 181 148 113 181 147 113 181 147 113 181 147 113 180 147 113 175 144 113 175 144 113 175 144 113 175 144 113 175 144 113 175 144 113 175 144 113 175 144 113 175 144 113 175 144 113 179 146 113 179 146 113 179 146 113 204 194 183 204 194 183 203 193 182 203 193 182 203 192 181 202 192 181 202 191 180 201 191 180 201 190 179 200 190 178 199 189 178 110 110 110 110 110 110 110 110 110 110 110 110 110 110 110 110 110 110 110 110 110 110 110 110 110 110 110 110 110 110 109 109 109 109 109 109 109 109 109 234 233 232 235 234 233 165 152 139 164 152 138 164 151 138 163 150 137 162 149 136 161 149 135 161 148 135 160 147 134 159 146 133 158 146 132 157 145 132 174 142 109 174 142 109 174 141 108 174 141 108 174 141 108 173 141 108 166 137 108 166 137 107 166 137 107 212 183 153 105 105 105 105 105 105 105 105 105 105 105 105 104 104 104 104 104 104 104 104 104 104 104 104 104 104 104 103 103 103 103 103 103 103 103 103 103 103 103 103 103 103 102 102 102 102 102 102 102 102 102 102 102 102 102 102 102 101 101 101 101 101 101 101 101 101 101 101 101 100 100 100 100 100 100 100 100 100 100 100 100 99 99 99 99 99 99 99 99 99 99 99 99 99 99 99 98 98 98 98 98 98 98 98 98 98 98 98 97 97 97 97 97 97 97 97 97 97 97 97 96 96 96 96 96 96 96 96 96 96 96 96 95 95 95 95 95 95 95 95 95 95 95 95 94 94 94 94 94 94 94 94 94 94 94 94 93 93 93 93 93 93 93 93 93 93 93 93 92 92 92 92 92 92 92 92 92 92 92 92 91 91 91 91 91 91 91 91 91 
101 101 101 102 102 102 102 102 102 102 102 102 102 102 102 103 103 103 103 103 103 103 103 103 103 103 103 103 103 103 104 104 104 104 104 104 104 104 104 104 104 104 105 105 105 105 105 105 105 105 105 105 105 105 105 105 105 106 106 106 106 106 106 106 106 106 106 106 106 106 106 106 107 107 107 107 107 107 107 107 107 107 107 107 107 107 107 107 107 107 108 108 108 108 108 108 108 108 108 108 108 108 108 108 108 108 108 108 109 109 109 109 109 109 109 109 109 109 109 109 109 109 109 109 109 109 109 109 109 110 110 110 110 110 110 110 110 110 110 110 110 110 110 110 110 110 110 110 110 110 110 110 110 111 111 111 111 111 111 111 111 111 111 111 111 111 111 111 111 111 111 111 111 111 111 111 111 111 111 111 111 111 111 111 111 111 112 112 112 112 112 112 112 112 112 112 112 112 232 211 188 233 213 192 183 149 114 183 149 114 183 149 114 182 148 114 182 148 114 182 148 114 182 148 114 181 148 114 181 148 114 181 148 114 175 145 114 176 145 114 176 145 114 176 145 114 176 145 114 176 145 114 176 145 114 176 145 114 179 147 114 179 147 114 179 147 114 180 147 114 180 147 114 180 147 114 204 194 183 203 193 183 203 193 182 202 192 182 202 192 181 202 191 180 201 191 180 200 190 179 200 189 178 199 189 177 198 188 177 111 111 111 111 111 111 111 111 111 190 179 168 189 179 167 188 178 167 188 177 166 187 176 165 186 175 164 185 174 163 184 173 162 183 172 161 167 154 141 166 153 140 165 152 139 164 152 138 164 151 138 163 150 137 162 149 136 161 149 136 160 148 135 159 147 134 159 146 133 174 142 109 174 142 109 174 142 109 174 142 109 174 142 109 174 142 109 174 141 108 166 138 108 166 138 108 166 137 108 106 106 106 106 106 106 106 106 106 105 105 105 105 105 105 105 105 105 105 105 105 105 105 105 104 104 104 104 104 104 104 104 104 104 104 104 104 104 104 103 103 103 103 103 103 103 103 103 103 103 103 102 102 102 102 102 102 102 102 102 102 102 102 101 101 101 101 101 101 101 101 101 101 101 101 101 101 101 100 100 100 100 100 100 100 100 100 100 100 100 99 99 99 99 99 99 99 99 99 99 99 99 98 98 98 98 98 98 98 98 98 98 98 98 97 97 97 97 97 97 97 97 97 97 97 97 96 96 96 96 96 96 96 96 96 96 96 96 95 95 95 95 95 95 95 95 95 95 95 95 94 94 94 94 94 94 94 94 94 94 94 94 93 93 93 93 93 93 93 93 93 93 93 93 92 92 92 92 92 92 92 92 92 92 92 92 91 91 91 91 91 91 
102 102 102 102 102 102 102 102 102 102 102 102 103 103 103 103 103 103 103 103 103 103 103 103 104 104 104 104 104 104 104 104 104 104 104 104 104 104 104 105 105 105 105 105 105 105 105 105 105 105 105 106 106 106 106 106 106 106 106 106 106 106 106 106 106 106 107 107 107 107 107 107 107 107 107 107 107 107 107 107 107 108 108 108 108 108 108 108 108 108 108 108 108 108 108 108 108 108 108 109 109 109 109 109 109 109 109 109 109 109 109 109 109 109 109 109 109 110 110 110 110 110 110 110 110 110 110 110 110 110 110 110 110 110 110 110 110 110 111 111 111 111 111 111 111 111 111 111 111 111 111 111 111 111 111 111 111 111 111 111 111 111 112 112 112 112 112 112 112 112 112 112 112 112 112 112 112 112 112 112 112 112 112 112 112 112 112 112 112 112 112 112 112 112 112 112 112 112 112 112 112 233 212 190 234 214 193 184 149 114 183 149 114 183 149 114 183 149 114 183 149 114 182 149 115 182 149 115 182 148 115 181 148 115 176 146 114 176 146 114 176 146 114 176 146 114 176 146 114 176 146 114 176 146 114 180 147 114 180 147 114 180 147 114 180 147 114 180 147 114 180 147 114 180 147 114 180 147 114 180 147 114 180 147 114 203 193 182 202 192 182 202 192 181 201 191 180 201 191 180 200 190 179 199 189 178 199 188 177 193 182 171 192 182 170 191 181 170 191 180 169 190 179 168 189 179 167 188 178 167 187 177 166 186 176 165 185 175 164 184 174 163 183 173 162 182 172 161 166 154 141 166 153 140 165 152 139 164 152 139 163 151 138 163 150 137 162 149 136 161 149 136 160 148 135 175 143 110 174 143 110 174 143 110 174 142 110 174 142 110 174 142 109 174 142 109 174 142 109 174 142 109 167 138 108 167 138 108 107 107 107 106 106 106 106 106 106 106 106 106 106 106 106 106 106 106 105 105 105 105 105 105 105 105 105 105 105 105 104 104 104 104 104 104 104 104 104 104 104 104 104 104 104 103 103 103 103 103 103 103 103 103 103 103 103 102 102 102 102 102 102 102 102 102 102 102 102 101 101 101 101 101 101 101 101 101 101 101 101 100 100 100 100 100 100 100 100 100 100 100 100 99 99 99 99 99 99 99 99 99 99 99 99 98 98 98 98 98 98 98 98 98 98 98 98 97 97 97 97 97 97 97 97 97 97 97 97 96 96 96 96 96 96 96 96 96 96 96 96 95 95 95 95 95 95 95 95 95 95 95 95 94 94 94 94 94 94 94 94 94 94 94 94 93 93 93 93 93 93 93 93 93 93 93 93 92 92 92 92 92 92 92 92 92 92 92 92 91 91 91 
102 102 102 102 102 102 103 103 103 103 103 103 103 103 103 103 103 103 104 104 104 104 104 104 104 104 104 104 104 104 104 104 104 105 105 105 105 105 105 105 105 105 105 105 105 106 106 106 106 106 106 106 106 106 106 106 106 106 106 106 107 107 107 107 107 107 107 107 107 107 107 107 107 107 107 108 108 108 108 108 108 108 108 108 108 108 108 108 108 108 109 109 109 109 109 109 109 109 109 109 109 109 109 109 109 110 110 110 110 110 110 110 110 110 110 110 110 110 110 110 110 110 110 111 111 111 111 111 111 111 111 111 111 111 111 111 111 111 111 111 111 111 111 111 112 112 112 112 112 112 112 112 112 112 112 112 112 112 112 112 112 112 112 112 112 112 112 112 112 112 112 113 113 113 113 113 113 113 113 113 113 113 113 113 113 113 113 113 113 113 113 113 113 113 113 113 113 113 113 113 113 113 113 113 233 212 191 235 215 194 184 150 115 184 150 115 184 150 115 183 150 115 183 149 115 183 149 115 182 149 115 182 149 115 182 149 115 176 146 115 176 146 115 176 146 115 176 146 115 176 146 115 180 148 115 180 148 115 180 148 115 180 148 115 180 148 115 180 148 115 180 148 115 180 148 115 180 148 115 180 148 115 180 148 115 180 148 115 180 148 115 202 192 182 202 192 181 201 191 180 201 190 180 200 190 179 199 189 178 193 183 172 192 182 171 192 182 171 191 181 170 190 180 169 189 179 168 189 178 167 188 177 166 187 177 166 186 176 165 185 175 164 184 174 163 183 173 162 182 172 161 181 171 160 165 153 140 165 152 140 164 152 139 163 151 138 162 150 137 175 143 111 175 143 111 175 143 111 175 143 111 175 143 111 175 143 110 175 143 110 174 143 110 174 142 110 174 142 110 174 142 109 174 142 109 221 195 167 107 107 107 107 107 107 107 107 107 106 106 106 106 106 106 106 106 106 106 106 106 106 106 106 105 105 105 105 105 105 105 105 105 105 105 105 104 104 104 104 104 104 104 104 104 104 104 104 104 104 104 103 103 103 103 103 103 103 103 103 103 103 103 102 102 102 102 102 102 102 102 102 102 102 102 101 101 101 101 101 101 101 101 101 101 101 101 100 100 100 100 100 100 100 100 100 100 100 100 99 99 99 99 99 99 99 99 99 99 99 99 98 98 98 98 98 98 98 98 98 97 97 97 97 97 97 97 97 97 97 97 97 96 96 96 96 96 96 96 96 96 96 96 96 95 95 95 95 95 95 95 95 95 95 95 95 94 94 94 94 94 94 94 94 94 94 94 94 93 93 93 93 93 93 93 93 93 92 92 92 92 92 92 92 92 92 92 92 92 91 91 91 
102 102 102 103 103 103 103 103 103 103 103 103 103 103 103 104 104 104 104 104 104 104 104 104 104 104 104 105 105 105 105 105 105 105 105 105 105 105 105 106 106 106 106 106 106 106 106 106 106 106 106 106 106 106 107 107 107 107 107 107 107 107 107 107 107 107 108 108 108 108 108 108 108 108 108 108 108 108 108 108 108 109 109 109 109 109 109 109 109 109 109 109 109 109 109 109 110 110 110 110 110 110 110 110 110 110 110 110 110 110 110 110 110 110 111 111 111 111 111 111 111 111 111 111 111 111 111 111 111 111 111 111 112 112 112 112 112 112 112 112 112 112 112 112 112 112 112 112 112 112 112 112 112 113 113 113 113 113 113 113 113 113 113 113 113 113 113 113 113 113 113 113 113 113 113 113 113 113 113 113 113 113 113 114 114 114 114 114 114 114 114 114 114 114 114 114 114 114 114 114 114 114 114 114 114 114 114 234 213 192 236 216 195 185 151 116 184 150 116 184 150 116 184 150 116 183 150 116 183 150 116 183 150 116 182 150 116 182 149 116 177 147 116 177 147 116 177 147 116 177 147 116 181 149 116 181 149 116 181 149 116 181 149 116 181 149 116 181 149 116 181 149 116 181 149 116 181 149 116 181 149 116 181 149 115 181 149 115 181 148 115 181 148 115 181 148 115 202 192 181 201 191 180 200 190 180 200 190 179 199 189 178 193 183 172 192 182 171 192 181 171 191 181 170 190 180 169 189 179 168 188 178 167 187 177 166 187 176 166 186 175 165 185 174 164 184 173 163 183 172 162 182 171 161 180 170 159 165 153 140 165 152 140 164 152 139 175 144 112 175 144 112 175 144 112 175 144 111 175 144 111 175 143 111 175 143 111 175 143 111 175 143 111 175 143 110 174 143 110 174 142 110 174 142 110 217 189 161 108 108 108 107 107 107 107 107 107 107 107 107 107 107 107 107 107 107 106 106 106 106 106 106 106 106 106 106 106 106 105 105 105 105 105 105 105 105 105 105 105 105 104 104 104 104 104 104 104 104 104 104 104 104 103 103 103 103 103 103 103 103 103 103 103 103 102 102 102 102 102 102 102 102 102 102 102 102 101 101 101 101 101 101 101 101 101 101 101 101 100 100 100 100 100 100 100 100 100 100 100 100 99 99 99 99 99 99 99 99 99 99 99 99 98 98 98 98 98 98 98 98 98 98 98 98 97 97 97 97 97 97 97 97 97 96 96 96 96 96 96 96 96 96 96 96 96 95 95 95 95 95 95 95 95 95 95 95 95 94 94 94 94 94 94 94 94 94 93 93 93 93 93 93 93 93 93 93 93 93 92 92 92 92 92 92 92 92 92 92 92 92 
103 103 103 103 103 103 103 103 103 103 103 103 104 104 104 104 104 104 104 104 104 104 104 104 105 105 105 105 105 105 105 105 105 105 105 105 106 106 106 106 106 106 106 106 106 106 106 106 107 107 107 107 107 107 107 107 107 107 107 107 108 108 108 108 108 108 108 108 108 108 108 108 108 108 108 109 109 109 109 109 109 109 109 109 109 109 109 110 110 110 110 110 110 110 110 110 110 110 110 110 110 110 111 111 111 111 111 111 111 111 111 111 111 111 111 111 111 111 111 111 112 112 112 112 112 112 112 112 112 112 112 112 112 112 112 112 112 112 113 113 113 113 113 113 113 113 113 113 113 113 113 113 113 113 113 113 113 113 113 113 113 113 114 114 114 114 114 114 114 114 114 114 114 114 114 114 114 114 114 114 114 114 114 114 114 114 114 114 114 114 114 114 115 115 115 115 115 115 115 115 115 115 115 115 115 115 115 115 115 115 235 214 193 185 151 117 185 151 117 185 151 117 184 151 117 184 151 117 184 151 117 183 150 117 183 150 117 183 150 117 183 150 117 177 147 117 177 147 117 181 149 117 181 149 117 181 149 117 181 149 117 181 149 117 181 149 117 181 149 117 181 149 116 181 149 116 181 149 116 181 149 116 181 149 116 181 149 116 181 149 116 181 149 116 181 149 116 181 149 116 181 149 116 201 191 180 200 190 180 199 189 179 193 183 173 193 183 172 192 182 171 191 181 171 190 180 170 190 180 169 189 179 168 188 178 167 187 177 166 186 176 165 185 175 164 184 174 163 183 173 162 182 172 161 181 171 160 180 170 159 165 153 141 176 145 113 176 145 113 176 144 112 176 144 112 175 144 112 175 144 112 175 144 112 175 144 112 175 144 111 175 143 111 175 143 111 175 143 111 175 143 111 180 146 111 108 108 108 108 108 108 108 108 108 108 108 108 108 108 108 107 107 107 107 107 107 107 107 107 107 107 107 106 106 106 106 106 106 106 106 106 106 106 106 105 105 105 105 105 105 105 105 105 105 105 105 104 104 104 104 104 104 104 104 104 104 104 104 103 103 103 103 103 103 103 103 103 103 103 103 102 102 102 102 102 102 102 102 102 102 102 102 101 101 101 101 101 101 101 101 101 101 101 101 100 100 100 100 100 100 100 100 100 99 99 99 99 99 99 99 99 99 99 99 99 98 98 98 98 98 98 98 98 98 98 98 98 97 97 97 97 97 97 97 97 97 96 96 96 96 96 96 96 96 96 96 96 96 95 95 95 95 95 95 95 95 95 94 94 94 94 94 94 94 94 94 94 94 94 93 93 93 93 93 93 93 93 93 93 93 93 92 92 92 92 92 92 92 92 92 
103 103 103 103 103 103 104 104 104 104 104 104 104 104 104 104 104 104 105 105 105 105 105 105 105 105 105 105 105 105 106 106 106 106 106 106 106 106 106 106 106 106 107 107 107 107 107 107 107 107 107 107 107 107 108 108 108 108 108 108 108 108 108 108 108 108 109 109 109 109 109 109 109 109 109 109 109 109 109 109 109 110 110 110 110 110 110 110 110 110 110 110 110 111 111 111 111 111 111 111 111 111 111 111 111 111 111 111 111 111 111 112 112 112 112 112 112 112 112 112 112 112 112 112 112 112 113 113 113 113 113 113 113 113 113 113 113 113 113 113 113 113 113 113 113 113 113 114 114 114 114 114 114 114 114 114 114 114 114 114 114 114 114 114 114 114 114 114 115 115 115 115 115 115 115 115 115 115 115 115 115 115 115 115 115 115 115 115 115 115 115 115 115 115 115 115 115 115 115 115 115 115 115 115 116 116 116 116 116 116 116 116 116 235 215 194 186 152 117 185 152 117 185 152 118 185 152 118 185 151 118 184 151 118 184 151 118 184 151 118 183 151 118 183 151 118 182 150 117 182 150 117 182 150 117 182 150 117 182 150 117 182 150 117 182 150 117 182 150 117 182 150 117 182 150 117 182 150 117 182 150 117 182 150 117 182 150 117 182 150 117 182 150 117 182 150 117 182 149 117 182 149 117 181 149 116 181 149 116 181 149 116 194 184 173 193 183 173 192 183 172 192 182 171 181 149 116 181 149 115 181 149 115 181 148 115 181 148 115 181 148 115 181 148 115 181 148 115 180 148 114 180 148 114 180 148 114 180 147 114 176 145 114 176 145 113 176 145 113 176 145 113 176 145 113 176 145 113 176 144 113 176 144 112 176 144 112 175 144 112 175 144 112 175 144 112 181 147 112 181 147 111 181 146 111 109 109 109 109 109 109 109 109 109 108 108 108 108 108 108 108 108 108 108 108 108 107 107 107 107 107 107 107 107 107 107 107 107 106 106 106 106 106 106 106 106 106 106 106 106 105 105 105 105 105 105 105 105 105 105 105 105 104 104 104 104 104 104 104 104 104 104 104 104 103 103 103 103 103 103 103 103 103 102 102 102 102 102 102 102 102 102 102 102 102 101 101 101 101 101 101 101 101 101 101 101 101 100 100 100 100 100 100 100 100 100 99 99 99 99 99 99 99 99 99 99 99 99 98 98 98 98 98 98 98 98 98 98 98 98 97 97 97 97 97 97 97 97 97 96 96 96 96 96 96 96 96 96 96 96 96 95 95 95 95 95 95 95 95 95 94 94 94 94 94 94 94 94 94 94 94 94 93 93 93 93 93 93 93 93 93 92 92 92 92 92 92 92 92 92 
103 103 103 104 104 104 104 104 104 104 104 104 104 104 104 105 105 105 105 105 105 105 105 105 106 106 106 106 106 106 106 106 106 106 106 106 107 107 107 107 107 107 107 107 107 107 107 107 108 108 108 108 108 108 108 108 108 108 108 108 109 109 109 109 109 109 109 109 109 109 109 109 110 110 110 110 110 110 110 110 110 110 110 110 110 110 110 111 111 111 111 111 111 111 111 111 111 111 111 111 111 111 112 112 112 112 112 112 112 112 112 112 112 112 112 112 112 113 113 113 113 113 113 113 113 113 113 113 113 113 113 113 114 114 114 114 114 114 114 114 114 114 114 114 114 114 114 114 114 114 114 114 114 115 115 115 115 115 115 115 115 115 115 115 115 115 115 115 115 115 115 115 115 115 115 115 115 116 116 116 116 116 116 116 116 116 116 116 116 116 116 116 116 116 116 116 116 116 116 116 116 116 116 116 116 116 116 116 116 116 116 116 116 116 116 116 236 216 195 186 153 118 186 152 118 186 152 118 185 152 118 185 152 118 185 152 118 184 152 118 184 152 118 184 151 118 192 156 118 192 156 118 182 151 118 182 151 118 182 151 118 182 151 118 182 151 118 182 151 118 182 151 118 182 151 118 182 151 118 182 151 118 182 150 118 182 150 118 182 150 118 182 150 118 182 150 117 182 150 117 182 150 117 182 150 117 182 150 117 182 150 117 182 150 117 182 150 117 182 149 117 182 149 116 182 149 116 182 149 116 181 149 116 181 149 116 181 149 116 181 149 116 181 149 115 181 149 115 181 148 115 181 148 115 181 148 115 180 148 115 180 148 114 176 146 114 176 146 114 176 145 114 176 145 114 176 145 113 176 145 113 176 145 113 176 145 113 176 144 113 176 144 112 181 147 113 182 147 112 182 147 112 182 147 112 110 110 110 109 109 109 109 109 109 109 109 109 109 109 109 108 108 108 108 108 108 108 108 108 108 108 108 107 107 107 107 107 107 107 107 107 107 107 107 106 106 106 106 106 106 106 106 106 106 106 106 105 105 105 105 105 105 105 105 105 105 105 105 104 104 104 104 104 104 104 104 104 103 103 103 103 103 103 103 103 103 103 103 103 102 102 102 102 102 102 102 102 102 101 101 101 101 101 101 101 101 101 101 101 101 100 100 100 100 100 100 100 100 100 100 100 100 99 99 99 99 99 99 99 99 99 98 98 98 98 98 98 98 98 98 97 97 97 97 97 97 97 97 97 97 97 97 96 96 96 96 96 96 96 96 96 95 95 95 95 95 95 95 95 95 95 95 95 94 94 94 94 94 94 94 94 94 93 93 93 93 93 93 93 93 93 93 93 93 92 92 92 92 92 92 
104 104 104 104 104 104 104 104 104 105 105 105 105 105 105 105 105 105 105 105 105 106 106 106 106 106 106 106 106 106 106 106 106 107 107 107 107 107 107 107 107 107 107 107 107 108 108 108 108 108 108 108 108 108 109 109 109 109 109 109 109 109 109 109 109 109 110 110 110 110 110 110 110 110 110 110 110 110 110 110 110 111 111 111 111 111 111 111 111 111 111 111 111 112 112 112 112 112 112 112 112 112 112 112 112 112 112 112 113 113 113 113 113 113 113 113 113 113 113 113 113 113 113 114 114 114 114 114 114 114 114 114 114 114 114 114 114 114 115 115 115 115 115 115 115 115 115 115 115 115 115 115 115 115 115 115 115 115 115 116 116 116 116 116 116 116 116 116 116 116 116 116 116 116 116 116 116 116 116 116 116 116 116 117 117 117 117 117 117 117 117 117 117 117 117 117 117 117 117 117 117 117 117 117 117 117 117 117 117 117 117 117 117 117 117 117 235 214 192 236 216 196 187 153 119 186 153 119 186 153 119 186 153 119 185 153 119 185 153 119 185 152 119 193 157 119 193 157 119 193 157 119 193 157 119 193 157 119 183 151 119 183 151 119 183 151 119 183 151 119 183 151 119 183 151 119 183 151 119 183 151 119 183 151 119 183 151 119 183 151 118 183 151 118 183 151 118 183 151 118 183 151 118 182 151 118 182 150 118 182 150 118 182 150 118 182 150 117 182 150 117 182 150 117 182 150 117 182 150 117 182 150 117 182 150 117 182 149 116 182 149 116 182 149 116 181 149 116 181 149 116 181 149 116 181 149 115 181 148 115 181 148 115 177 146 115 177 146 115 177 146 114 177 146 114 176 146 114 176 145 114 176 145 114 176 145 113 176 145 113 182 148 114 182 148 113 182 148 113 183 148 112 183 148 112 110 110 110 110 110 110 110 110 110 109 109 109 109 109 109 109 109 109 109 109 109 108 108 108 108 108 108 108 108 108 108 108 108 107 107 107 107 107 107 107 107 107 107 107 107 106 106 106 106 106 106 106 106 106 106 106 106 105 105 105 105 105 105 105 105 105 104 104 104 104 104 104 104 104 104 104 104 104 103 103 103 103 103 103 103 103 103 102 102 102 102 102 102 102 102 102 102 102 102 101 101 101 101 101 101 101 101 101 100 100 100 100 100 100 100 100 100 100 100 100 99 99 99 99 99 99 99 99 99 98 98 98 98 98 98 98 98 98 97 97 97 97 97 97 97 97 97 97 97 97 96 96 96 96 96 96 96 96 96 95 95 95 95 95 95 95 95 95 95 95 95 94 94 94 94 94 94 94 94 94 93 93 93 93 93 93 93 93 93 92 92 92 92 92 92 
104 104 104 104 104 104 105 105 105 105 105 105 105 105 105 105 105 105 106 106 106 106 106 106 106 106 106 107 107 107 107 107 107 107 107 107 107 107 107 108 108 108 108 108 108 108 108 108 108 108 108 109 109 109 109 109 109 109 109 109 110 110 110 110 110 110 110 110 110 110 110 110 111 111 111 111 111 111 111 111 111 111 111 111 112 112 112 112 112 112 112 112 112 112 112 112 112 112 112 113 113 113 113 113 113 113 113 113 113 113 113 114 114 114 114 114 114 114 114 114 114 114 114 114 114 114 115 115 115 115 115 115 115 115 115 115 115 115 115 115 115 115 115 115 116 116 116 116 116 116 116 116 116 116 116 116 116 116 116 116 116 116 116 116 116 117 117 117 117 117 117 117 117 117 117 117 117 117 117 117 117 117 117 117 117 117 117 117 117 117 117 117 118 118 118 118 118 118 118 118 118 118 118 118 118 118 118 118 118 118 118 118 118 118 118 118 118 118 118 235 215 193 237 217 196 187 154 120 187 154 120 187 154 120 186 153 120 186 153 120 186 153 120 194 158 120 194 158 120 194 158 120 194 157 120 194 157 120 194 157 120 194 157 120 194 157 120 184 152 120 184 152 120 184 152 120 184 152 120 183 152 119 183 152 119 183 152 119 183 152 119 183 152 119 183 152 119 183 151 119 183 151 119 183 151 119 183 151 119 183 151 119 183 151 118 183 151 118 183 151 118 183 151 118 183 151 118 182 150 118 182 150 118 182 150 117 182 150 117 182 150 117 182 150 117 182 150 117 182 150 117 182 149 116 181 149 116 181 149 116 181 149 116 177 147 116 177 147 115 177 146 115 177 146 115 177 146 115 177 146 114 177 146 114 176 146 114 183 149 115 183 149 114 183 149 114 183 149 113 184 149 113 111 111 111 111 111 111 111 111 111 110 110 110 110 110 110 110 110 110 110 110 110 109 109 109 109 109 109 109 109 109 108 108 108 108 108 108 108 108 108 108 108 108 107 107 107 107 107 107 107 107 107 107 107 107 106 106 106 106 106 106 106 106 106 105 105 105 105 105 105 105 105 105 105 105 105 104 104 104 104 104 104 104 104 104 103 103 103 103 103 103 103 103 103 103 103 103 102 102 102 102 102 102 102 102 102 101 101 101 101 101 101 101 101 101 100 100 100 100 100 100 100 100 100 100 100 100 99 99 99 99 99 99 99 99 99 98 98 98 98 98 98 98 98 98 97 97 97 97 97 97 97 97 97 97 97 97 96 96 96 96 96 96 96 96 96 95 95 95 95 95 95 95 95 95 94 94 94 94 94 94 94 94 94 94 94 94 93 93 93 93 93 93 93 93 93 92 92 92 
104 104 104 105 105 105 105 105 105 105 105 105 105 105 105 106 106 106 106 106 106 106 106 106 107 107 107 107 107 107 107 107 107 108 108 108 108 108 108 108 108 108 108 108 108 109 109 109 109 109 109 109 109 109 109 109 109 110 110 110 110 110 110 110 110 110 111 111 111 111 111 111 111 111 111 111 111 111 112 112 112 112 112 112 112 112 112 112 112 112 113 113 113 113 113 113 113 113 113 113 113 113 113 113 113 114 114 114 114 114 114 114 114 114 114 114 114 115 115 115 115 115 115 115 115 115 115 115 115 115 115 115 116 116 116 116 116 116 116 116 116 116 116 116 116 116 116 116 116 116 117 117 117 117 117 117 117 117 117 117 117 117 117 117 117 117 117 117 117 117 117 118 118 118 118 118 118 118 118 118 118 118 118 118 118 118 118 118 118 118 118 118 118 118 118 118 118 118 119 119 119 119 119 119 119 119 119 119 119 119 119 119 119 119 119 119 119 119 119 119 119 119 236 215 194 237 218 197 188 155 121 187 154 121 187 154 121 187 154 121 195 159 121 195 159 121 195 158 121 195 158 121 195 158 121 195 158 121 195 158 121 195 158 121 195 158 121 194 158 121 194 158 121 184 153 120 184 153 120 184 153 120 184 152 120 184 152 120 184 152 120 184 152 120 184 152 120 184 152 120 184 152 120 184 152 120 183 152 119 183 152 119 183 152 119 183 151 119 183 151 119 183 151 119 183 151 119 183 151 118 183 151 118 183 151 118 183 151 118 183 151 118 182 150 118 182 150 117 182 150 117 182 150 117 182 150 117 182 150 117 182 149 117 178 147 116 177 147 116 177 147 116 177 147 116 177 147 115 177 146 115 183 150 116 183 150 116 184 150 115 184 150 115 184 149 114 184 149 114 185 150 114 112 112 112 111 111 111 111 111 111 111 111 111 111 111 111 110 110 110 110 110 110 110 110 110 110 110 110 109 109 109 109 109 109 109 109 109 108 108 108 108 108 108 108 108 108 108 108 108 107 107 107 107 107 107 107 107 107 106 106 106 106 106 106 106 106 106 106 106 106 105 105 105 105 105 105 105 105 105 104 104 104 104 104 104 104 104 104 103 103 103 103 103 103 103 103 103 103 103 103 102 102 102 102 102 102 102 102 102 101 101 101 101 101 101 101 101 101 100 100 100 100 100 100 100 100 100 99 99 99 99 99 99 99 99 99 99 99 99 98 98 98 98 98 98 98 98 98 97 97 97 97 97 97 97 97 97 96 96 96 96 96 96 96 96 96 95 95 95 95 95 95 95 95 95 95 95 95 94 94 94 94 94 94 94 94 94 93 93 93 93 93 93 93 93 93 92 92 92 
105 105 105 105 105 105 105 105 105 105 105 105 106 106 106 106 106 106 106 106 106 107 107 107 107 107 107 107 107 107 108 108 108 108 108 108 108 108 108 108 108 108 109 109 109 109 109 109 109 109 109 110 110 110 110 110 110 110 110 110 110 110 110 111 111 111 111 111 111 111 111 111 112 112 112 112 112 112 112 112 112 112 112 112 113 113 113 113 113 113 113 113 113 113 113 113 114 114 114 114 114 114 114 114 114 114 114 114 115 115 115 115 115 115 115 115 115 115 115 115 115 115 115 116 116 116 116 116 116 116 116 116 116 116 116 116 116 116 117 117 117 117 117 117 117 117 117 117 117 117 117 117 117 117 117 117 118 118 118 118 118 118 118 118 118 118 118 118 118 118 118 118 118 118 119 119 119 119 119 119 119 119 119 119 119 119 119 119 119 119 119 119 119 119 119 119 119 119 119 119 119 119 119 119 120 120 120 120 120 120 120 120 120 120 120 120 120 120 120 120 120 120 120 120 120 236 216 195 238 218 198 188 155 122 188 155 122 188 155 122 196 159 122 196 159 122 196 159 122 196 159 122 196 159 122 196 159 122 196 159 122 196 159 122 196 159 122 195 159 122 195 159 122 195 159 121 195 158 121 185 153 121 185 153 121 185 153 121 184 153 121 184 153 121 184 153 121 184 153 121 184 153 120 184 153 120 184 152 120 184 152 120 184 152 120 184 152 120 184 152 120 184 152 120 184 152 119 184 152 119 183 152 119 183 151 119 183 151 119 183 151 119 183 151 118 183 151 118 183 151 118 183 151 118 182 150 118 182 150 117 182 150 117 182 150 117 178 148 117 178 148 117 178 147 116 178 147 116 184 151 117 184 151 117 184 151 116 184 150 116 185 150 115 185 150 115 185 150 115 113 113 113 112 112 112 112 112 112 112 112 112 111 111 111 111 111 111 111 111 111 111 111 111 110 110 110 110 110 110 110 110 110 110 110 110 109 109 109 109 109 109 109 109 109 108 108 108 108 108 108 108 108 108 108 108 108 107 107 107 107 107 107 107 107 107 106 106 106 106 106 106 106 106 106 105 105 105 105 105 105 105 105 105 104 104 104 104 104 104 104 104 104 104 104 104 103 103 103 103 103 103 103 103 103 102 102 102 102 102 102 102 102 102 101 101 101 101 101 101 101 101 101 100 100 100 100 100 100 100 100 100 99 99 99 99 99 99 99 99 99 99 99 99 98 98 98 98 98 98 98 98 98 97 97 97 97 97 97 97 97 97 96 96 96 96 96 96 96 96 96 95 95 95 95 95 95 95 95 95 94 94 94 94 94 94 94 94 94 93 93 93 93 93 93 93 93 93 93 93 93 
105 105 105 105 105 105 105 105 105 106 106 106 106 106 106 106 106 106 107 107 107 107 107 107 107 107 107 108 108 108 108 108 108 108 108 108 109 109 109 109 109 109 109 109 109 109 109 109 110 110 110 110 110 110 110 110 110 111 111 111 111 111 111 111 111 111 112 112 112 112 112 112 112 112 112 112 112 112 113 113 113 113 113 113 113 113 113 113 113 113 114 114 114 114 114 114 114 114 114 114 114 114 115 115 115 115 115 115 115 115 115 115 115 115 116 116 116 116 116 116 116 116 116 116 116 116 117 117 117 117 117 117 117 117 117 117 117 117 117 117 117 118 118 118 118 118 118 118 118 118 118 118 118 118 118 118 118 118 118 119 119 119 119 119 119 119 119 119 119 119 119 119 119 119 119 119 119 119 119 119 120 120 120 120 120 120 120 120 120 120 120 120 120 120 120 120 120 120 120 120 120 120 120 120 120 120 120 120 120 120 121 121 121 121 121 121 121 121 121 121 121 121 121 121 121 121 121 121 237 216 196 238 219 199 189 156 123 197 160 123 197 160 123 197 160 123 197 160 123 197 160 123 197 160 123 197 160 123 197 160 123 197 160 123 196 160 123 196 160 122 196 160 122 196 160 122 196 159 122 196 159 122 195 159 122 195 159 122 185 154 122 185 154 122 185 154 122 185 153 121 185 153 121 185 153 121 185 153 121 184 153 121 184 153 121 184 153 121 184 153 121 184 153 120 184 153 120 184 152 120 184 152 120 184 152 120 184 152 120 184 152 119 183 152 119 183 152 119 183 151 119 183 151 119 183 151 118 183 151 118 182 151 118 182 150 118 178 148 117 178 148 117 178 148 117 185 152 118 185 152 118 185 151 117 185 151 117 185 151 116 185 151 116 114 114 114 113 113 113 113 113 113 113 113 113 113 113 113 112 112 112 112 112 112 112 112 112 112 112 112 111 111 111 111 111 111 111 111 111 110 110 110 110 110 110 110 110 110 110 110 110 109 109 109 109 109 109 109 109 109 108 108 108 108 108 108 108 108 108 107 107 107 107 107 107 107 107 107 106 106 106 106 106 106 106 106 106 106 106 106 105 105 105 105 105 105 105 105 105 104 104 104 104 104 104 104 104 104 103 103 103 103 103 103 103 103 103 102 102 102 102 102 102 102 102 102 101 101 101 101 101 101 101 101 101 100 100 100 100 100 100 100 100 100 99 99 99 99 99 99 99 99 99 98 98 98 98 98 98 98 98 98 97 97 97 97 97 97 97 97 97 96 96 96 96 96 96 96 96 96 96 96 96 95 95 95 95 95 95 95 95 95 94 94 94 94 94 94 94 94 94 93 93 93 93 93 93 93 93 93 
105 105 105 105 105 105 106 106 106 106 106 106 106 106 106 107 107 107 107 107 107 107 107 107 108 108 108 108 108 108 108 108 108 109 109 109 109 109 109 109 109 109 110 110 110 110 110 110 110 110 110 111 111 111 111 111 111 111 111 111 111 111 111 112 112 112 112 112 112 112 112 112 113 113 113 113 113 113 113 113 113 113 113 113 114 114 114 114 114 114 114 114 114 115 115 115 115 115 115 115 115 115 115 115 115 116 116 116 116 116 116 116 116 116 116 116 116 116 116 116 117 117 117 117 117 117 117 117 117 117 117 117 118 118 118 118 118 118 118 118 118 118 118 118 118 118 118 119 119 119 119 119 119 119 119 119 119 119 119 119 119 119 119 119 119 120 120 120 120 120 120 120 120 120 120 120 120 120 120 120 120 120 120 120 120 120 121 121 121 121 121 121 121 121 121 121 121 121 121 121 121 121 121 121 121 121 121 121 121 121 121 121 121 121 121 121 121 121 121 122 122 122 122 122 122 122 122 122 122 122 122 237 217 196 238 219 199 198 161 124 198 161 124 198 161 124 198 161 124 198 161 124 198 161 124 198 161 124 198 161 124 198 161 123 197 161 123 197 161 123 197 161 123 197 160 123 197 160 123 197 160 123 196 160 123 196 160 123 196 160 123 196 160 123 185 154 122 185 154 122 185 154 122 185 154 122 185 154 122 185 154 122 185 154 122 185 154 122 185 153 121 185 153 121 185 153 121 185 153 121 184 153 121 184 153 121 184 153 120 184 152 120 184 152 120 184 152 120 184 152 120 183 152 119 183 152 119 183 151 119 183 151 119 183 151 118 179 149 118 179 149 118 185 153 119 186 152 119 186 152 118 186 152 118 186 152 117 186 152 117 115 115 115 114 114 114 114 114 114 114 114 114 114 114 114 113 113 113 113 113 113 113 113 113 112 112 112 112 112 112 112 112 112 112 112 112 111 111 111 111 111 111 111 111 111 110 110 110 110 110 110 110 110 110 109 109 109 109 109 109 109 109 109 108 108 108 108 108 108 108 108 108 108 108 108 107 107 107 107 107 107 107 107 107 106 106 106 106 106 106 106 106 106 105 105 105 105 105 105 105 105 105 104 104 104 104 104 104 104 104 104 103 103 103 103 103 103 103 103 103 102 102 102 102 102 102 102 102 102 101 101 101 101 101 101 101 101 101 100 100 100 100 100 100 100 100 100 99 99 99 99 99 99 99 99 99 98 98 98 98 98 98 98 98 98 97 97 97 97 97 97 97 97 97 96 96 96 96 96 96 96 96 96 95 95 95 95 95 95 95 95 95 94 94 94 94 94 94 94 94 94 93 93 93 93 93 93 93 93 93 
105 105 105 106 106 106 106 106 106 106 106 106 107 107 107 107 107 107 107 107 107 108 108 108 108 108 108 108 108 108 109 109 109 109 109 109 109 109 109 110 110 110 110 110 110 110 110 110 111 111 111 111 111 111 111 111 111 112 112 112 112 112 112 112 112 112 112 112 112 113 113 113 113 113 113 113 113 113 114 114 114 114 114 114 114 114 114 115 115 115 115 115 115 115 115 115 115 115 115 116 116 116 116 116 116 116 116 116 116 116 116 117 117 117 117 117 117 117 117 117 117 117 117 118 118 118 118 118 118 118 118 118 118 118 118 119 119 119 119 119 119 119 119 119 119 119 119 119 119 119 120 120 120 120 120 120 120 120 120 120 120 120 120 120 120 120 120 120 121 121 121 121 121 121 121 121 121 121 121 121 121 121 121 121 121 121 121 121 121 122 122 122 122 122 122 122 122 122 122 122 122 122 122 122 122 122 122 122 122 122 122 122 122 122 122 122 122 122 122 122 122 122 122 122 122 123 123 123 123 123 123 123 123 123 237 217 197 227 203 178 227 204 179 199 162 125 199 162 124 199 162 124 199 162 124 199 162 124 199 162 124 199 162 124 198 162 124 198 162 124 198 162 124 198 161 124 198 161 124 198 161 124 197 161 124 197 161 124 197 161 124 197 160 124 196 160 123 196 160 123 186 155 123 186 155 123 186 155 123 186 154 123 185 154 122 185 154 122 185 154 122 185 154 122 185 154 122 185 154 122 185 154 122 185 153 121 185 153 121 185 153 121 184 153 121 184 153 121 184 153 120 184 152 120 184 152 120 184 152 120 193 157 120 193 157 119 193 156 119 186 154 120 186 153 120 186 153 119 186 153 119 187 153 118 187 153 118 116 116 116 115 115 115 115 115 115 115 115 115 114 114 114 114 114 114 114 114 114 114 114 114 113 113 113 113 113 113 113 113 113 112 112 112 112 112 112 112 112 112 111 111 111 111 111 111 111 111 111 111 111 111 110 110 110 110 110 110 110 110 110 109 109 109 109 109 109 109 109 109 108 108 108 108 108 108 108 108 108 107 107 107 107 107 107 107 107 107 106 106 106 106 106 106 106 106 106 105 105 105 105 105 105 105 105 105 104 104 104 104 104 104 104 104 104 103 103 103 103 103 103 103 103 103 102 102 102 102 102 102 102 102 102 101 101 101 101 101 101 101 101 101 100 100 100 100 100 100 100 100 100 99 99 99 99 99 99 99 99 99 98 98 98 98 98 98 98 98 98 97 97 97 97 97 97 97 97 97 96 96 96 96 96 96 96 96 96 95 95 95 95 95 95 95 95 95 94 94 94 94 94 94 94 94 94 93 93 93 93 93 93 
106 106 106 106 106 106 106 106 106 107 107 107 107 107 107 107 107 107 108 108 108 108 108 108 108 108 108 109 109 109 109 109 109 109 109 109 110 110 110 110 110 110 110 110 110 111 111 111 111 111 111 111 111 111 112 112 112 112 112 112 112 112 112 113 113 113 113 113 113 113 113 113 114 114 114 114 114 114 114 114 114 114 114 114 115 115 115 115 115 115 115 115 115 116 116 116 116 116 116 116 116 116 116 116 116 117 117 117 117 117 117 117 117 117 118 118 118 118 118 118 118 118 118 118 118 118 119 119 119 119 119 119 119 119 119 119 119 119 119 119 119 120 120 120 120 120 120 120 120 120 120 120 120 121 121 121 121 121 121 121 121 121 121 121 121 121 121 121 121 121 121 122 122 122 122 122 122 122 122 122 122 122 122 122 122 122 122 122 122 122 122 122 123 123 123 123 123 123 123 123 123 123 123 123 123 123 123 123 123 123 123 123 123 123 123 123 123 123 123 123 123 123 123 123 123 123 123 123 123 123 123 123 123 123 124 124 124 226 202 176 227 202 177 227 203 178 228 204 179 228 204 180 200 163 125 200 163 125 200 163 125 200 163 125 199 163 125 199 163 125 199 162 125 199 162 125 199 162 125 199 162 125 198 162 125 198 162 125 198 162 125 198 161 124 197 161 124 197 161 124 197 161 124 196 161 124 196 160 124 186 155 124 186 155 123 196 160 123 196 160 123 196 160 123 196 160 123 196 160 123 196 159 123 196 159 122 196 159 122 195 159 122 195 159 122 195 159 122 195 159 121 195 158 121 195 158 121 195 158 121 194 158 120 194 158 120 187 155 121 187 154 121 187 154 120 187 154 120 187 154 119 187 153 119 117 117 117 116 116 116 116 116 116 116 116 116 115 115 115 115 115 115 115 115 115 115 115 115 114 114 114 114 114 114 114 114 114 113 113 113 113 113 113 113 113 113 112 112 112 112 112 112 112 112 112 111 111 111 111 111 111 111 111 111 110 110 110 110 110 110 110 110 110 109 109 109 109 109 109 109 109 109 108 108 108 108 108 108 108 108 108 107 107 107 107 107 107 107 107 107 106 106 106 106 106 106 106 106 106 105 105 105 105 105 105 105 105 105 104 104 104 104 104 104 104 104 104 103 103 103 103 103 103 103 103 103 102 102 102 102 102 102 102 102 102 101 101 101 101 101 101 100 100 100 100 100 100 100 100 100 99 99 99 99 99 99 99 99 99 98 98 98 98 98 98 98 98 98 97 97 97 97 97 97 97 97 97 96 96 96 96 96 96 96 96 96 95 95 95 95 95 95 95 95 95 94 94 94 94 94 94 94 94 94 93 93 93 93 93 93 
106 106 106 106 106 106 107 107 107 107 107 107 107 107 107 108 108 108 108 108 108 108 108 108 109 109 109 109 109 109 109 109 109 110 110 110 110 110 110 110 110 110 111 111 111 111 111 111 111 111 111 112 112 112 112 112 112 112 112 112 113 113 113 113 113 113 113 113 113 114 114 114 114 114 114 114 114 114 115 115 115 115 115 115 115 115 115 116 116 116 116 116 116 116 116 116 117 117 117 117 117 117 117 117 117 117 117 117 118 118 118 118 118 118 118 118 118 118 118 118 119 119 119 119 119 119 119 119 119 119 119 119 120 120 120 120 120 120 120 120 120 120 120 120 121 121 121 121 121 121 121 121 121 121 121 121 121 121 121 122 122 122 122 122 122 122 122 122 122 122 122 122 122 122 123 123 123 123 123 123 123 123 123 123 123 123 123 123 123 123 123 123 123 123 123 124 124 124 124 124 124 124 124 124 124 124 124 124 124 124 124 124 124 124 124 124 124 124 124 124 124 124 124 124 124 124 124 124 124 124 124 124 124 124 124 124 124 124 124 124 124 124 124 227 202 176 227 203 177 227 203 178 228 204 179 228 204 180 201 164 126 201 164 126 200 164 126 200 164 126 200 163 126 200 163 126 200 163 126 200 163 126 199 163 126 199 163 126 199 163 126 199 162 125 198 162 125 198 162 125 198 162 125 197 162 125 197 161 125 197 161 125 197 161 124 197 161 124 197 161 124 197 161 124 197 161 124 197 161 124 197 160 123 197 160 123 197 160 123 196 160 123 196 160 123 196 160 122 196 159 122 196 159 122 196 159 122 196 159 121 195 159 121 195 158 121 188 155 122 188 155 121 188 155 121 188 155 120 118 118 118 117 117 117 117 117 117 117 117 117 117 117 117 116 116 116 116 116 116 116 116 116 115 115 115 115 115 115 115 115 115 115 115 115 114 114 114 114 114 114 114 114 114 113 113 113 113 113 113 113 113 113 112 112 112 112 112 112 112 112 112 111 111 111 111 111 111 111 111 111 110 110 110 110 110 110 110 110 110 109 109 109 109 109 109 109 109 109 108 108 108 108 108 108 107 107 107 107 107 107 107 107 107 106 106 106 106 106 106 106 106 106 105 105 105 105 105 105 105 105 105 104 104 104 104 104 104 104 104 104 103 103 103 103 103 103 102 102 102 102 102 102 102 102 102 101 101 101 101 101 101 101 101 101 100 100 100 100 100 100 100 100 100 99 99 99 99 99 99 99 99 99 98 98 98 98 98 98 98 98 98 97 97 97 97 97 97 96 96 96 96 96 96 96 96 96 95 95 95 95 95 95 95 95 95 94 94 94 94 94 94 94 94 94 93 93 93 93 93 93 
106 106 106 107 107 107 107 107 107 107 107 107 108 108 108 108 108 108 108 108 108 109 109 109 109 109 109 109 109 109 110 110 110 110 110 110 110 110 110 111 111 111 111 111 111 112 112 112 112 112 112 112 112 112 113 113 113 113 113 113 113 113 113 114 114 114 114 114 114 114 114 114 115 115 115 115 115 115 115 115 115 116 116 116 116 116 116 116 116 116 116 116 116 117 117 117 117 117 117 117 117 117 118 118 118 118 118 118 118 118 118 119 119 119 119 119 119 119 119 119 119 119 119 120 120 120 120 120 120 120 120 120 120 120 120 121 121 121 121 121 121 121 121 121 121 121 121 122 122 122 122 122 122 122 122 122 122 122 122 122 122 122 123 123 123 123 123 123 123 123 123 123 123 123 123 123 123 124 124 124 124 124 124 124 124 124 124 124 124 124 124 124 124 124 124 124 124 124 125 125 125 125 125 125 125 125 125 125 125 125 125 125 125 125 125 125 125 125 125 125 125 125 125 125 125 125 125 125 125 125 125 125 125 125 125 125 125 125 125 125 125 125 125 125 125 125 125 125 125 125 125 125 227 202 177 227 203 178 228 204 179 228 204 180 201 165 127 201 165 127 201 164 127 201 164 127 201 164 127 201 164 127 200 164 127 200 164 127 200 163 126 200 163 126 199 163 126 199 163 126 199 163 126 198 162 126 198 162 126 198 162 125 198 162 125 198 162 125 198 162 125 198 162 125 198 162 125 198 162 124 198 161 124 198 161 124 198 161 124 197 161 124 197 161 123 197 161 123 197 160 123 197 160 123 197 160 122 196 160 122 196 159 122 196 159 122 189 156 122 189 156 122 189 155 121 119 119 119 118 118 118 118 118 118 118 118 118 118 118 118 117 117 117 117 117 117 117 117 117 116 116 116 116 116 116 116 116 116 115 115 115 115 115 115 115 115 115 114 114 114 114 114 114 114 114 114 113 113 113 113 113 113 113 113 113 112 112 112 112 112 112 112 112 112 111 111 111 111 111 111 111 111 111 110 110 110 110 110 110 110 110 110 109 109 109 109 109 109 109 109 109 108 108 108 108 108 108 108 108 108 107 107 107 107 107 107 106 106 106 106 106 106 106 106 106 105 105 105 105 105 105 105 105 105 104 104 104 104 104 104 103 103 103 103 103 103 103 103 103 102 102 102 102 102 102 102 102 102 101 101 101 101 101 101 101 101 101 100 100 100 100 100 100 99 99 99 99 99 99 99 99 99 98 98 98 98 98 98 98 98 98 97 97 97 97 97 97 97 97 97 96 96 96 96 96 96 96 96 96 95 95 95 95 95 95 94 94 94 94 94 94 94 94 94 93 93 93 93 93 93 
106 106 106 107 107 107 107 107 107 107 107 107 108 108 108 108 108 108 109 109 109 109 109 109 109 109 109 110 110 110 110 110 110 110 110 110 111 111 111 111 111 111 112 112 112 112 112 112 112 112 112 113 113 113 113 113 113 113 113 113 114 114 114 114 114 114 114 114 114 115 115 115 115 115 115 115 115 115 116 116 116 116 116 116 116 116 116 117 117 117 117 117 117 117 117 117 118 118 118 118 118 118 118 118 118 119 119 119 119 119 119 119 119 119 119 119 119 120 120 120 120 120 120 120 120 120 121 121 121 121 121 121 121 121 121 121 121 121 122 122 122 122 122 122 122 122 122 122 122 122 123 123 123 123 123 123 123 123 123 123 123 123 123 123 123 124 124 124 124 124 124 124 124 124 124 124 124 124 124 124 125 125 125 125 125 125 125 125 125 125 125 125 125 125 125 125 125 125 125 125 125 126 126 126 126 126 126 126 126 126 126 126 126 126 126 126 126 126 126 126 126 126 126 126 126 126 126 126 126 126 126 126 126 126 126 126 126 126 126 126 126 126 126 126 126 126 126 126 126 126 126 126 126 126 126 126 126 126 227 202 177 227 203 178 227 203 179 228 204 180 228 204 180 202 165 128 202 165 128 202 165 128 201 165 128 201 165 128 201 164 127 201 164 127 200 164 127 200 164 127 200 164 127 199 163 127 199 163 127 199 163 126 199 163 126 199 163 126 199 163 126 199 163 126 199 163 126 199 162 125 199 162 125 199 162 125 199 162 125 198 162 124 198 162 124 198 161 124 198 161 124 198 161 124 198 161 123 197 161 123 197 160 123 197 160 122 189 157 123 189 156 122 120 120 120 120 120 120 119 119 119 119 119 119 119 119 119 118 118 118 118 118 118 118 118 118 117 117 117 117 117 117 117 117 117 116 116 116 116 116 116 116 116 116 115 115 115 115 115 115 115 115 115 114 114 114 114 114 114 114 114 114 113 113 113 113 113 113 113 113 113 112 112 112 112 112 112 112 112 112 111 111 111 111 111 111 110 110 110 110 110 110 110 110 110 109 109 109 109 109 109 109 109 109 108 108 108 108 108 108 108 108 108 107 107 107 107 107 107 106 106 106 106 106 106 106 106 106 105 105 105 105 105 105 105 105 105 104 104 104 104 104 104 103 103 103 103 103 103 103 103 103 102 102 102 102 102 102 102 102 102 101 101 101 101 101 101 100 100 100 100 100 100 100 100 100 99 99 99 99 99 99 99 99 99 98 98 98 98 98 98 97 97 97 97 97 97 97 97 97 96 96 96 96 96 96 96 96 96 95 95 95 95 95 95 95 95 95 94 94 94 94 94 94 93 93 93 93 93 93 
107 107 107 107 107 107 107 107 107 108 108 108 108 108 108 109 109 109 109 109 109 109 109 109 110 110 110 110 110 110 110 110 110 111 111 111 111 111 111 112 112 112 112 112 112 112 112 112 113 113 113 113 113 113 113 113 113 114 114 114 114 114 114 114 114 114 115 115 115 115 115 115 116 116 116 116 116 116 116 116 116 117 117 117 117 117 117 117 117 117 118 118 118 118 118 118 118 118 118 119 119 119 119 119 119 119 119 119 120 120 120 120 120 120 120 120 120 120 120 120 121 121 121 121 121 121 121 121 121 122 122 122 122 122 122 122 122 122 122 122 122 123 123 123 123 123 123 123 123 123 123 123 123 124 124 124 124 124 124 124 124 124 124 124 124 124 124 124 125 125 125 125 125 125 125 125 125 125 125 125 125 125 125 126 126 126 126 126 126 126 126 126 126 126 126 126 126 126 126 126 126 126 126 126 127 127 127 127 127 127 127 127 127 127 127 127 127 127 127 127 127 127 127 127 127 127 127 127 127 127 127 127 127 127 127 127 127 127 127 127 127 127 127 127 127 127 127 127 127 127 127 127 127 127 127 127 127 127 127 127 127 127 127 127 127 127 127 227 202 177 227 203 178 227 203 179 227 204 180 203 166 129 202 166 129 202 166 128 202 165 128 202 165 128 201 165 128 201 165 128 201 165 128 200 164 128 200 164 127 200 164 127 200 164 127 200 164 127 200 164 127 200 164 127 200 164 126 200 163 126 200 163 126 200 163 126 200 163 126 199 163 125 199 163 125 199 162 125 199 162 125 199 162 124 199 162 124 198 161 124 198 161 124 190 158 124 190 157 124 121 121 121 121 121 121 120 120 120 120 120 120 120 120 120 119 119 119 119 119 119 119 119 119 118 118 118 118 118 118 118 118 118 117 117 117 117 117 117 117 117 117 116 116 116 116 116 116 116 116 116 115 115 115 115 115 115 115 115 115 114 114 114 114 114 114 114 114 114 113 113 113 113 113 113 112 112 112 112 112 112 112 112 112 111 111 111 111 111 111 111 111 111 110 110 110 110 110 110 109 109 109 109 109 109 109 109 109 108 108 108 108 108 108 108 108 108 107 107 107 107 107 107 106 106 106 106 106 106 106 106 106 105 105 105 105 105 105 104 104 104 104 104 104 104 104 104 103 103 103 103 103 103 103 103 103 102 102 102 102 102 102 101 101 101 101 101 101 101 101 101 100 100 100 100 100 100 99 99 99 99 99 99 99 99 99 98 98 98 98 98 98 98 98 98 97 97 97 97 97 97 96 96 96 96 96 96 96 96 96 95 95 95 95 95 95 95 95 95 94 94 94 94 94 94 94 94 94 93 93 93 
107 107 107 107 107 107 108 108 108 108 108 108 108 108 108 109 109 109 109 109 109 110 110 110 110 110 110 110 110 110 111 111 111 111 111 111 111 111 111 112 112 112 112 112 112 113 113 113 113 113 113 113 113 113 114 114 114 114 114 114 115 115 115 115 115 115 115 115 115 116 116 116 116 116 116 116 116 116 117 117 117 117 117 117 117 117 117 118 118 118 118 118 118 118 118 118 119 119 119 119 119 119 119 119 119 120 120 120 120 120 120 120 120 120 121 121 121 121 121 121 121 121 121 122 122 122 122 122 122 122 122 122 123 123 123 123 123 123 123 123 123 123 123 123 124 124 124 124 124 124 124 124 124 124 124 124 125 125 125 125 125 125 125 125 125 125 125 125 126 126 126 126 126 126 126 126 126 126 126 126 126 126 126 126 126 126 127 127 127 127 127 127 127 127 127 127 127 127 127 127 127 127 127 127 127 127 127 128 128 128 128 128 128 128 128 128 128 128 128 128 128 128 128 128 128 128 128 128 128 128 128 128 128 128 128 128 128 128 128 128 128 128 128 128 128 128 128 128 128 128 128 128 128 128 128 128 128 128 128 128 128 128 128 128 128 128 128 128 128 128 128 128 128 226 202 177 226 202 178 226 203 178 226 203 179 203 167 129 203 166 129 203 166 129 202 166 129 202 166 129 202 166 129 201 165 129 201 165 128 201 165 128 201 165 128 201 165 128 201 165 128 201 165 128 201 165 127 201 164 127 201 164 127 201 164 127 201 164 126 201 164 126 200 164 126 200 163 126 200 163 125 200 163 125 200 163 125 199 162 125 199 162 124 122 122 122 122 122 122 122 122 122 121 121 121 121 121 121 121 121 121 120 120 120 120 120 120 120 120 120 119 119 119 119 119 119 119 119 119 118 118 118 118 118 118 118 118 118 117 117 117 117 117 117 117 117 117 116 116 116 116 116 116 116 116 116 115 115 115 115 115 115 114 114 114 114 114 114 114 114 114 113 113 113 113 113 113 113 113 113 112 112 112 112 112 112 111 111 111 111 111 111 111 111 111 110 110 110 110 110 110 109 109 109 109 109 109 109 109 109 108 108 108 108 108 108 107 107 107 107 107 107 107 107 107 106 106 106 106 106 106 105 105 105 105 105 105 105 105 105 104 104 104 104 104 104 104 104 104 103 103 103 103 103 103 102 102 102 102 102 102 102 102 102 101 101 101 101 101 101 100 100 100 100 100 100 100 100 100 99 99 99 99 99 99 98 98 98 98 98 98 98 98 98 97 97 97 97 97 97 97 97 97 96 96 96 96 96 96 95 95 95 95 95 95 95 95 95 94 94 94 94 94 94 94 94 94 93 93 93 
107 107 107 107 107 107 108 108 108 108 108 108 109 109 109 109 109 109 109 109 109 110 110 110 110 110 110 111 111 111 111 111 111 111 111 111 112 112 112 112 112 112 113 113 113 113 113 113 113 113 113 114 114 114 114 114 114 115 115 115 115 115 115 115 115 115 116 116 116 116 116 116 116 116 116 117 117 117 117 117 117 118 118 118 118 118 118 118 118 118 119 119 119 119 119 119 119 119 119 120 120 120 120 120 120 120 120 120 121 121 121 121 121 121 121 121 121 122 122 122 122 122 122 122 122 122 123 123 123 123 123 123 123 123 123 124 124 124 124 124 124 124 124 124 124 124 124 125 125 125 125 125 125 125 125 125 125 125 125 126 126 126 126 126 126 126 126 126 126 126 126 127 127 127 127 127 127 127 127 127 127 127 127 127 127 127 128 128 128 128 128 128 128 128 128 128 128 128 128 128 128 128 128 128 128 128 128 129 129 129 129 129 129 129 129 129 129 129 129 129 129 129 129 129 129 129 129 129 129 129 129 129 129 129 129 129 129 129 129 129 129 129 129 129 129 129 129 129 129 129 129 129 129 129 129 129 129 129 129 129 129 129 129 129 129 129 129 129 129 129 129 129 129 129 129 129 129 129 129 225 201 176 226 201 177 226 202 177 226 202 178 226 202 179 203 167 130 203 167 130 203 167 130 203 166 130 203 166 129 202 166 129 202 166 129 202 166 129 202 166 129 202 166 128 202 166 128 202 165 128 202 165 128 202 165 128 202 165 127 202 165 127 240 216 192 238 214 190 236 212 187 234 210 185 124 124 124 124 124 124 123 123 123 123 123 123 123 123 123 122 122 122 122 122 122 122 122 122 121 121 121 121 121 121 121 121 121 120 120 120 120 120 120 120 120 120 119 119 119 119 119 119 119 119 119 118 118 118 118 118 118 118 118 118 117 117 117 117 117 117 116 116 116 116 116 116 116 116 116 115 115 115 115 115 115 115 115 115 114 114 114 114 114 114 113 113 113 113 113 113 113 113 113 112 112 112 112 112 112 111 111 111 111 111 111 111 111 111 110 110 110 110 110 110 109 109 109 109 109 109 109 109 109 108 108 108 108 108 108 107 107 107 107 107 107 107 107 107 106 106 106 106 106 106 105 105 105 105 105 105 105 105 105 104 104 104 104 104 104 103 103 103 103 103 103 103 103 103 102 102 102 102 102 102 101 101 101 101 101 101 101 101 101 100 100 100 100 100 100 99 99 99 99 99 99 99 99 99 98 98 98 98 98 98 97 97 97 97 97 97 97 97 97 96 96 96 96 96 96 95 95 95 95 95 95 95 95 95 94 94 94 94 94 94 94 94 94 93 93 93 
107 107 107 108 108 108 108 108 108 108 108 108 109 109 109 109 109 109 110 110 110 110 110 110 110 110 110 111 111 111 111 111 111 112 112 112 112 112 112 112 112 112 113 113 113 113 113 113 114 114 114 114 114 114 115 115 115 115 115 115 115 115 115 116 116 116 116 116 116 116 116 116 117 117 117 117 117 117 118 118 118 118 118 118 118 118 118 119 119 119 119 119 119 120 120 120 120 120 120 120 120 120 121 121 121 121 121 121 121 121 121 122 122 122 122 122 122 122 122 122 123 123 123 123 123 123 123 123 123 124 124 124 124 124 124 124 124 124 125 125 125 125 125 125 125 125 125 125 125 125 126 126 126 126 126 126 126 126 126 126 126 126 127 127 127 127 127 127 127 127 127 127 127 127 128 128 128 128 128 128 128 128 128 128 128 128 128 128 128 129 129 129 129 129 129 129 129 129 129 129 129 129 129 129 129 129 129 129 129 129 130 130 130 130 130 130 130 130 130 130 130 130 130 130 130 130 130 130 130 130 130 130 130 130 130 130 130 130 130 130 130 130 130 130 130 130 130 130 130 130 130 130 130 130 130 130 130 130 130 130 130 130 130 130 130 130 130 130 130 130 130 130 130 130 130 130 130 130 130 108 56 2 108 56 2 108 56 2 108 56 2 108 56 2 108 56 2 107 55 2 107 55 2 107 55 2 107 55 2 107 55 2 107 55 2 248 224 200 247 223 198 245 221 196 244 219 194 242 217 192 127 127 127 127 127 127 126 126 126 126 126 126 126 126 126 126 126 126 125 125 125 125 125 125 125 125 125 124 124 124 124 124 124 124 124 124 123 123 123 123 123 123 123 123 123 122 122 122 122 122 122 122 122 122 121 121 121 121 121 121 121 121 121 120 120 120 120 120 120 120 120 120 119 119 119 119 119 119 119 119 119 118 118 118 118 118 118 117 117 117 117 117 117 117 117 117 116 116 116 116 116 116 115 115 115 115 115 115 115 115 115 114 114 114 114 114 114 113 113 113 113 113 113 113 113 113 112 112 112 112 112 112 111 111 111 111 111 111 111 111 111 110 110 110 110 110 110 109 109 109 109 109 109 109 109 109 108 108 108 108 108 108 107 107 107 107 107 107 106 106 106 106 106 106 106 106 106 105 105 105 105 105 105 104 104 104 104 104 104 104 104 104 103 103 103 103 103 103 102 102 102 102 102 102 101 101 101 101 101 101 101 101 101 100 100 100 100 100 100 99 99 99 99 99 99 99 99 99 98 98 98 98 98 98 97 97 97 97 97 97 97 97 97 96 96 96 96 96 96 96 96 96 95 95 95 95 95 95 94 94 94 94 94 94 94 94 94 93 93 93 
107 107 107 108 108 108 108 108 108 109 109 109 109 109 109 109 109 109 110 110 110 110 110 110 111 111 111 111 111 111 111 111 111 112 112 112 112 112 112 113 113 113 113 113 113 114 114 114 114 114 114 114 114 114 115 115 115 115 115 115 116 116 116 116 116 116 116 116 116 117 117 117 117 117 117 118 118 118 118 118 118 118 118 118 119 119 119 119 119 119 120 120 120 120 120 120 120 120 120 121 121 121 121 121 121 122 122 122 122 122 122 122 122 122 123 123 123 123 123 123 123 123 123 124 124 124 124 124 124 124 124 124 125 125 125 125 125 125 125 125 125 126 126 126 126 126 126 126 126 126 126 126 126 127 127 127 127 127 127 127 127 127 128 128 128 128 128 128 128 128 128 128 128 128 128 128 128 129 129 129 129 129 129 129 129 129 129 129 129 129 129 129 130 130 130 130 130 130 130 130 130 130 130 130 130 130 130 130 130 130 131 131 131 131 131 131 131 131 131 131 131 131 131 131 131 131 131 131 131 131 131 131 131 131 131 131 131 131 131 131 131 131 131 111 57 2 109 56 2 109 56 2 109 56 2 109 56 2 109 56 2 109 56 2 109 56 2 109 56 2 109 56 2 109 56 2 109 56 2 109 56 2 109 56 2 109 56 2 109 56 2 108 56 2 108 56 2 108 56 2 108 56 2 108 56 2 108 56 2 108 56 2 108 56 2 108 55 2 107 55 2 128 128 128 128 128 128 128 128 128 128 128 128 127 127 127 127 127 127 127 127 127 127 127 127 126 126 126 126 126 126 126 126 126 125 125 125 125 125 125 125 125 125 125 125 125 124 124 124 124 124 124 124 124 124 123 123 123 123 123 123 123 123 123 122 122 122 122 122 122 121 121 121 121 121 121 121 121 121 120 120 120 120 120 120 120 120 120 119 119 119 119 119 119 118 118 118 118 118 118 118 118 118 117 117 117 117 117 117 116 116 116 116 116 116 116 116 116 115 115 115 115 115 115 114 114 114 114 114 114 113 113 113 113 113 113 113 113 113 112 112 112 112 112 112 111 111 111 111 111 111 111 111 111 110 110 110 110 110 110 109 109 109 109 109 109 108 108 108 108 108 108 108 108 108 107 107 107 107 107 107 106 106 106 106 106 106 105 105 105 105 105 105 105 105 105 104 104 104 104 104 104 103 103 103 103 103 103 102 102 102 102 102 102 102 102 102 101 101 101 101 101 101 100 100 100 100 100 100 100 100 100 99 99 99 99 99 99 98 98 98 98 98 98 98 98 98 97 97 97 97 97 97 96 96 96 96 96 96 96 96 96 95 95 95 95 95 95 94 94 94 94 94 94 94 94 94 93 93 93 
107 107 107 108 108 108 108 108 108 109 109 109 109 109 109 110 110 110 110 110 110 110 110 110 111 111 111 111 111 111 112 112 112 112 112 112 113 113 113 113 113 113 113 113 113 114 114 114 114 114 114 115 115 115 115 115 115 116 116 116 116 116 116 116 116 116 117 117 117 117 117 117 118 118 118 118 118 118 119 119 119 119 119 119 119 119 119 120 120 120 120 120 120 121 121 121 121 121 121 121 121 121 122 122 122 122 122 122 122 122 122 123 123 123 123 123 123 124 124 124 124 124 124 124 124 124 125 125 125 125 125 125 125 125 125 126 126 126 126 126 126 126 126 126 127 127 127 127 127 127 127 127 127 127 127 127 128 128 128 128 128 128 128 128 128 129 129 129 129 129 129 129 129 129 129 129 129 130 130 130 130 130 130 130 130 130 130 130 130 130 130 130 131 131 131 131 131 131 131 131 131 131 131 131 131 131 131 131 131 131 131 131 131 132 132 132 132 132 132 132 132 132 132 132 132 132 132 132 132 132 132 132 132 132 112 58 2 112 58 2 103 53 2 103 53 2 103 53 2 110 57 2 110 57 2 110 57 2 110 57 2 110 57 2 110 57 2 110 57 2 110 57 2 110 57 2 110 56 2 109 56 2 109 56 2 109 56 2 109 56 2 109 56 2 109 56 2 109 56 2 109 56 2 109 56 2 109 56 2 109 56 2 108 56 2 108 56 2 108 56 2 108 56 2 108 56 2 108 56 2 129 129 129 128 128 128 128 128 128 128 128 128 128 128 128 127 127 127 127 127 127 127 127 127 126 126 126 126 126 126 126 126 126 125 125 125 125 125 125 125 125 125 124 124 124 124 124 124 124 124 124 123 123 123 123 123 123 122 122 122 122 122 122 122 122 122 121 121 121 121 121 121 121 121 121 120 120 120 120 120 120 119 119 119 119 119 119 119 119 119 118 118 118 118 118 118 117 117 117 117 117 117 116 116 116 116 116 116 116 116 116 115 115 115 115 115 115 114 114 114 114 114 114 113 113 113 113 113 113 113 113 113 112 112 112 112 112 112 111 111 111 111 111 111 110 110 110 110 110 110 110 110 110 109 109 109 109 109 109 108 108 108 108 108 108 107 107 107 107 107 107 107 107 107 106 106 106 106 106 106 105 105 105 105 105 105 104 104 104 104 104 104 103 103 103 103 103 103 103 103 103 102 102 102 102 102 102 101 101 101 101 101 101 100 100 100 100 100 100 100 100 100 99 99 99 99 99 99 98 98 98 98 98 98 98 98 98 97 97 97 97 97 97 96 96 96 96 96 96 96 96 96 95 95 95 95 95 95 94 94 94 94 94 94 94 94 94 93 93 93 
107 107 107 108 108 108 108 108 108 109 109 109 109 109 109 110 110 110 110 110 110 111 111 111 111 111 111 111 111 111 112 112 112 112 112 112 113 113 113 113 113 113 114 114 114 114 114 114 115 115 115 115 115 115 115 115 115 116 116 116 116 116 116 117 117 117 117 117 117 118 118 118 118 118 118 119 119 119 119 119 119 119 119 119 120 120 120 120 120 120 121 121 121 121 121 121 121 121 121 122 122 122 122 122 122 123 123 123 123 123 123 123 123 123 124 124 124 124 124 124 125 125 125 125 125 125 125 125 125 126 126 126 126 126 126 126 126 126 127 127 127 127 127 127 127 127 127 128 128 128 128 128 128 128 128 128 129 129 129 129 129 129 129 129 129 129 129 129 130 130 130 130 130 130 130 130 130 130 130 130 131 131 131 131 131 131 131 131 131 131 131 131 131 131 131 132 132 132 132 132 132 132 132 132 132 132 132 132 132 132 132 132 132 133 133 133 133 133 133 133 133 133 133 133 133 133 133 133 133 133 133 113 58 2 113 58 2 104 54 2 104 54 2 104 54 2 104 54 2 104 54 2 110 57 2 110 57 2 110 57 2 110 57 2 110 57 2 110 57 2 110 57 2 110 57 2 110 57 2 110 57 2 110 57 2 110 57 2 110 57 2 110 57 2 110 57 2 110 57 2 110 57 2 110 56 2 109 56 2 109 56 2 109 56 2 109 56 2 109 56 2 109 56 2 109 56 2 108 56 2 108 56 2 108 56 2 129 129 129 129 129 129 128 128 128 128 128 128 128 128 128 127 127 127 127 127 127 127 127 127 126 126 126 126 126 126 126 126 126 125 125 125 125 125 125 125 125 125 124 124 124 124 124 124 124 124 124 123 123 123 123 123 123 122 122 122 122 122 122 122 122 122 121 121 121 121 121 121 120 120 120 120 120 120 120 120 120 119 119 119 119 119 119 118 118 118 118 118 118 117 117 117 117 117 117 117 117 117 116 116 116 116 116 116 115 115 115 115 115 115 114 114 114 114 114 114 113 113 113 113 113 113 113 113 113 112 112 112 112 112 112 111 111 111 111 111 111 110 110 110 110 110 110 109 109 109 109 109 109 109 109 109 108 108 108 108 108 108 107 107 107 107 107 107 106 106 106 106 106 106 105 105 105 105 105 105 105 105 105 104 104 104 104 104 104 103 103 103 103 103 103 102 102 102 102 102 102 101 101 101 101 101 101 101 101 101 100 100 100 100 100 100 99 99 99 99 99 99 98 98 98 98 98 98 98 98 98 97 97 97 97 97 97 96 96 96 96 96 96 96 96 96 95 95 95 95 95 95 94 94 94 94 94 94 94 94 94 93 93 93 
107 107 107 108 108 108 108 108 108 109 109 109 109 109 109 110 110 110 110 110 110 111 111 111 111 111 111 112 112 112 112 112 112 113 113 113 113 113 113 113 113 113 114 114 114 114 114 114 115 115 115 115 115 115 116 116 116 116 116 116 117 117 117 117 117 117 118 118 118 118 118 118 118 118 118 119 119 119 119 119 119 120 120 120 120 120 120 121 121 121 121 121 121 121 121 121 122 122 122 122 122 122 123 123 123 123 123 123 124 124 124 124 124 124 124 124 124 125 125 125 125 125 125 125 125 125 126 126 126 126 126 126 127 127 127 127 127 127 127 127 127 128 128 128 128 128 128 128 128 128 129 129 129 129 129 129 129 129 129 130 130 130 130 130 130 130 130 130 130 130 130 131 131 131 131 131 131 131 131 131 131 131 131 132 132 132 132 132 132 132 132 132 132 132 132 133 133 133 133 133 133 133 133 133 133 133 133 133 133 133 133 133 133 134 134 134 134 134 134 134 134 134 134 134 134 114 59 2 114 59 2 113 58 2 105 54 2 105 54 2 105 54 2 105 54 2 105 54 2 105 54 2 111 57 2 111 57 2 111 57 2 111 57 2 111 57 2 111 57 2 111 57 2 111 57 2 111 57 2 111 57 2 111 57 2 111 57 2 111 57 2 111 57 2 111 57 2 110 57 2 110 57 2 110 57 2 110 57 2 110 57 2 110 57 2 110 57 2 110 57 2 110 56 2 109 56 2 109 56 2 109 56 2 109 56 2 109 56 2 108 56 2 108 56 2 129 129 129 129 129 129 128 128 128 128 128 128 128 128 128 127 127 127 127 127 127 127 127 127 126 126 126 126 126 126 125 125 125 125 125 125 125 125 125 124 124 124 124 124 124 123 123 123 123 123 123 123 123 123 122 122 122 122 122 122 121 121 121 121 121 121 121 121 121 120 120 120 120 120 120 119 119 119 119 119 119 118 118 118 118 118 118 117 117 117 117 117 117 117 117 117 116 116 116 116 116 116 115 115 115 115 115 115 114 114 114 114 114 114 113 113 113 113 113 113 112 112 112 112 112 112 112 112 112 111 111 111 111 111 111 110 110 110 110 110 110 109 109 109 109 109 109 108 108 108 108 108 108 107 107 107 107 107 107 106 106 106 106 106 106 106 106 106 105 105 105 105 105 105 104 104 104 104 104 104 103 103 103 103 103 103 102 102 102 102 102 102 102 102 102 101 101 101 101 101 101 100 100 100 100 100 100 99 99 99 99 99 99 98 98 98 98 98 98 98 98 98 97 97 97 97 97 97 96 96 96 96 96 96 96 96 96 95 95 95 95 95 95 94 94 94 94 94 94 93 93 93 93 93 93 
108 108 108 108 108 108 108 108 108 109 109 109 109 109 109 110 110 110 110 110 110 111 111 111 111 111 111 112 112 112 112 112 112 113 113 113 113 113 113 114 114 114 114 114 114 115 115 115 115 115 115 116 116 116 116 116 116 116 116 116 117 117 117 117 117 117 118 118 118 118 118 118 119 119 119 119 119 119 120 120 120 120 120 120 121 121 121 121 121 121 121 121 121 122 122 122 122 122 122 123 123 123 123 123 123 124 124 124 124 124 124 124 124 124 125 125 125 125 125 125 126 126 126 126 126 126 126 126 126 127 127 127 127 127 127 128 128 128 128 128 128 128 128 128 129 129 129 129 129 129 129 129 129 130 130 130 130 130 130 130 130 130 131 131 131 131 131 131 131 131 131 132 132 132 132 132 132 132 132 132 132 132 132 133 133 133 133 133 133 133 133 133 133 133 133 133 133 133 134 134 134 134 134 134 134 134 134 134 134 134 134 134 134 134 134 134 135 135 135 135 135 135 115 59 2 114 59 2 105 54 2 105 54 2 105 54 2 105 54 2 105 54 2 105 54 2 105 54 2 105 54 2 105 54 2 112 58 2 112 58 2 112 58 2 112 58 2 112 58 2 112 58 2 112 58 2 112 58 2 112 58 2 112 58 2 111 57 2 111 57 2 111 57 2 111 57 2 111 57 2 111 57 2 111 57 2 111 57 2 111 57 2 111 57 2 110 57 2 110 57 2 110 57 2 110 57 2 110 57 2 110 57 2 110 57 2 109 56 2 109 56 2 109 56 2 109 56 2 109 56 2 129 129 129 129 129 129 128 128 128 128 128 128 128 128 128 127 127 127 127 127 127 126 126 126 126 126 126 126 126 126 125 125 125 125 125 125 124 124 124 124 124 124 124 124 124 123 123 123 123 123 123 122 122 122 122 122 122 122 122 122 121 121 121 121 121 121 120 120 120 120 120 120 119 119 119 119 119 119 118 118 118 118 118 118 117 117 117 117 117 117 117 117 117 116 116 116 116 116 116 115 115 115 115 115 115 114 114 114 114 114 114 113 113 113 113 113 113 112 112 112 112 112 112 111 111 111 111 111 111 110 110 110 110 110 110 109 109 109 109 109 109 109 109 109 108 108 108 108 108 108 107 107 107 107 107 107 106 106 106 106 106 106 105 105 105 105 105 105 104 104 104 104 104 104 103 103 103 103 103 103 102 102 102 102 102 102 102 102 102 101 101 101 101 101 101 100 100 100 100 100 100 99 99 99 99 99 99 98 98 98 98 98 98 98 98 98 97 97 97 97 97 97 96 96 96 96 96 96 95 95 95 95 95 95 95 95 95 94 94 94 94 94 94 93 93 93 93 93 93 
108 108 108 108 108 108 108 108 108 109 109 109 109 109 109 110 110 110 110 110 110 111 111 111 111 111 111 112 112 112 112 112 112 113 113 113 113 113 113 114 114 114 114 114 114 115 115 115 115 115 115 116 116 116 116 116 116 117 117 117 117 117 117 118 118 118 118 118 118 119 119 119 119 119 119 120 120 120 120 120 120 120 120 120 121 121 121 121 121 121 122 122 122 122 122 122 123 123 123 123 123 123 124 124 124 124 124 124 125 125 125 125 125 125 125 125 125 126 126 126 126 126 126 127 127 127 127 127 127 127 127 127 128 128 128 128 128 128 129 129 129 129 129 129 129 129 129 130 130 130 130 130 130 130 130 130 131 131 131 131 131 131 131 131 131 132 132 132 132 132 132 132 132 132 133 133 133 133 133 133 133 133 133 133 133 133 134 134 134 134 134 134 134 134 134 134 134 134 135 135 135 135 135 135 135 135 135 135 135 135 135 135 135 135 135 135 136 136 136 115 59 2 115 59 2 106 55 2 106 55 2 106 55 2 106 55 2 106 55 2 106 55 2 106 55 2 106 55 2 106 55 2 106 55 2 106 55 2 112 58 2 112 58 2 112 58 2 112 58 2 112 58 2 112 58 2 112 58 2 112 58 2 35 18 1 35 18 1 35 18 1 35 18 1 35 18 1 35 18 1 35 18 1 35 18 1 35 18 1 35 18 1 35 18 1 35 18 1 35 18 1 111 57 2 111 57 2 111 57 2 111 57 2 110 57 2 110 57 2 110 57 2 110 57 2 110 57 2 109 56 2 109 56 2 109 56 2 129 129 129 129 129 129 128 128 128 128 128 128 128 128 128 127 127 127 127 127 127 126 126 126 126 126 126 126 126 126 125 125 125 125 125 125 124 124 124 124 124 124 123 123 123 123 123 123 123 123 123 122 122 122 122 122 122 121 121 121 121 121 121 120 120 120 120 120 120 119 119 119 119 119 119 118 118 118 118 118 118 117 117 117 117 117 117 116 116 116 116 116 116 115 115 115 115 115 115 114 114 114 114 114 114 114 114 114 113 113 113 113 113 113 112 112 112 112 112 112 111 111 111 111 111 111 110 110 110 110 110 110 109 109 109 109 109 109 108 108 108 108 108 108 107 107 107 107 107 107 106 106 106 106 106 106 105 105 105 105 105 105 104 104 104 104 104 104 103 103 103 103 103 103 103 103 103 102 102 102 102 102 102 101 101 101 101 101 101 100 100 100 100 100 100 99 99 99 99 99 99 98 98 98 98 98 98 98 98 98 97 97 97 97 97 97 96 96 96 96 96 96 95 95 95 95 95 95 95 95 95 94 94 94 94 94 94 93 93 93 93 93 93 
108 108 108 108 108 108 108 108 108 109 109 109 109 109 109 110 110 110 110 110 110 111 111 111 111 111 111 112 112 112 112 112 112 113 113 113 113 113 113 114 114 114 114 114 114 115 115 115 115 115 115 116 116 116 116 116 116 117 117 117 117 117 117 118 118 118 118 118 118 119 119 119 119 119 119 120 120 120 120 120 120 121 121 121 121 121 121 122 122 122 122 122 122 123 123 123 123 123 123 124 124 124 124 124 124 125 125 125 125 125 125 125 125 125 126 126 126 126 126 126 127 127 127 127 127 127 128 128 128 128 128 128 128 128 128 129 129 129 129 129 129 130 130 130 130 130 130 130 130 130 131 131 131 131 131 131 131 131 131 132 132 132 132 132 132 132 132 132 133 133 133 133 133 133 133 133 133 134 134 134 134 134 134 134 134 134 134 134 134 135 135 135 135 135 135 135 135 135 135 135 135 136 136 136 136 136 136 136 136 136 136 136 136 116 60 2 116 60 2 106 55 2 106 55 2 107 55 2 107 55 2 107 55 2 107 55 2 107 55 2 107 55 2 107 55 2 107 55 2 107 55 2 107 55 2 107 55 2 42 22 1 35 19 1 35 19 1 35 19 1 35 19 1 35 19 1 35 19 1 35 19 1 35 19 1 35 19 1 35 19 1 35 19 1 35 19 1 35 19 1 35 19 1 35 19 1 35 19 1 35 18 1 35 18 1 35 18 1 35 18 1 35 18 1 35 18 1 111 57 2 111 57 2 111 57 2 111 57 2 111 57 2 111 57 2 110 57 2 110 57 2 110 57 2 110 57 2 109 56 2 109 56 2 109 56 2 129 129 129 128 128 128 128 128 128 127 127 127 127 127 127 127 127 127 126 126 126 126 126 126 125 125 125 125 125 125 124 124 124 124 124 124 124 124 124 123 123 123 123 123 123 122 122 122 122 122 122 121 121 121 121 121 121 120 120 120 120 120 120 119 119 119 119 119 119 118 118 118 118 118 118 117 117 117 117 117 117 116 116 116 116 116 116 115 115 115 115 115 115 114 114 114 114 114 114 113 113 113 113 113 113 112 112 112 112 112 112 111 111 111 111 111 111 110 110 110 110 110 110 109 109 109 109 109 109 108 108 108 108 108 108 107 107 107 107 107 107 106 106 106 106 106 106 105 105 105 105 105 105 104 104 104 104 104 104 104 104 104 103 103 103 103 103 103 102 102 102 102 102 102 101 101 101 101 101 101 100 100 100 100 100 100 99 99 99 99 99 99 98 98 98 98 98 98 98 98 98 97 97 97 97 97 97 96 96 96 96 96 96 95 95 95 95 95 95 94 94 94 94 94 94 94 94 94 93 93 93 93 93 93 
107 107 107 108 108 108 108 108 108 109 109 109 109 109 109 110 110 110 110 110 110 111 111 111 111 111 111 112 112 112 112 112 112 113 113 113 114 114 114 114 114 114 115 115 115 115 115 115 116 116 116 116 116 116 117 117 117 117 117 117 118 118 118 118 118 118 119 119 119 119 119 119 120 120 120 120 120 120 121 121 121 121 121 121 122 122 122 122 122 122 123 123 123 123 123 123 124 124 124 124 124 124 124 124 124 125 125 125 125 125 125 126 126 126 126 126 126 127 127 127 127 127 127 128 128 128 128 128 128 129 129 129 129 129 129 129 129 129 130 130 130 130 130 130 131 131 131 131 131 131 131 131 131 132 132 132 132 132 132 132 132 132 133 133 133 133 133 133 133 133 133 134 134 134 134 134 134 134 134 134 135 135 135 135 135 135 135 135 135 136 136 136 136 136 136 136 136 136 136 136 136 136 136 136 137 137 137 137 137 137 117 60 2 116 60 2 107 55 2 107 55 2 107 55 2 107 55 2 107 55 2 107 55 2 107 55 2 107 55 2 107 55 2 107 55 2 107 55 2 107 55 2 107 55 2 42 22 1 42 22 1 36 19 1 36 19 1 36 19 1 36 19 1 36 19 1 36 19 1 36 19 1 36 19 1 35 19 1 35 19 1 35 19 1 35 19 1 35 19 1 35 19 1 35 19 1 35 19 1 35 19 1 35 19 1 35 19 1 35 19 1 35 19 1 35 19 1 35 18 1 35 18 1 112 58 2 112 58 2 112 58 2 111 57 2 111 57 2 111 57 2 111 57 2 110 57 2 110 57 2 110 57 2 110 57 2 109 56 2 129 129 129 129 129 129 128 128 128 128 128 128 127 127 127 127 127 127 126 126 126 126 126 126 125 125 125 125 125 125 125 125 125 124 124 124 124 124 124 123 123 123 123 123 123 122 122 122 122 122 122 121 121 121 121 121 121 120 120 120 120 120 120 119 119 119 119 119 119 118 118 118 118 118 118 117 117 117 117 117 117 116 116 116 116 116 116 115 115 115 115 115 115 114 114 114 114 114 114 113 113 113 113 113 113 112 112 112 112 112 112 111 111 111 111 111 111 110 110 110 109 109 109 109 109 109 108 108 108 108 108 108 107 107 107 107 107 107 106 106 106 106 106 106 106 106 106 105 105 105 105 105 105 104 104 104 104 104 104 103 103 103 103 103 103 102 102 102 102 102 102 101 101 101 101 101 101 100 100 100 100 100 100 99 99 99 99 99 99 98 98 98 98 98 98 97 97 97 97 97 97 97 97 97 96 96 96 96 96 96 95 95 95 95 95 95 94 94 94 94 94 94 93 93 93 93 93 93 93 93 93 
107 107 107 108 108 108 108 108 108 109 109 109 109 109 109 110 110 110 110 110 110 111 111 111 111 111 111 112 112 112 113 113 113 113 113 113 114 114 114 114 114 114 115 115 115 115 115 115 116 116 116 116 116 116 117 117 117 117 117 117 118 118 118 118 118 118 119 119 119 119 119 119 120 120 120 120 120 120 121 121 121 121 121 121 122 122 122 122 122 122 123 123 123 123 123 123 124 124 124 124 124 124 125 125 125 125 125 125 126 126 126 126 126 126 127 127 127 127 127 127 128 128 128 128 128 128 129 129 129 129 129 129 129 129 129 130 130 130 130 130 130 131 131 131 131 131 131 132 132 132 132 132 132 132 132 132 133 133 133 133 133 133 133 133 133 134 134 134 134 134 134 135 135 135 135 135 135 135 135 135 135 135 135 136 136 136 136 136 136 136 136 136 137 137 137 137 137 137 137 137 137 137 137 137 118 61 2 117 60 2 116 60 2 108 56 2 108 56 2 108 56 2 108 56 2 108 56 2 108 56 2 108 56 2 108 56 2 108 56 2 108 56 2 108 56 2 108 56 2 108 56 2 42 22 1 42 22 1 42 22 1 36 19 1 36 19 1 36 19 1 36 19 1 36 19 1 36 19 1 36 19 1 36 19 1 36 19 1 36 19 1 36 19 1 36 19 1 36 19 1 36 19 1 36 19 1 36 19 1 36 19 1 36 19 1 35 19 1 35 19 1 35 19 1 35 19 1 35 19 1 35 19 1 35 19 1 35 19 1 35 18 1 112 58 2 112 58 2 112 58 2 111 57 2 111 57 2 111 57 2 111 57 2 110 57 2 110 57 2 104 53 2 129 129 129 129 129 129 128 128 128 128 128 128 127 127 127 127 127 127 126 126 126 126 126 126 126 126 126 125 125 125 125 125 125 124 124 124 124 124 124 123 123 123 123 123 123 122 122 122 122 122 122 121 121 121 121 121 121 120 120 120 119 119 119 119 119 119 118 118 118 118 118 118 117 117 117 117 117 117 116 116 116 116 116 116 115 115 115 115 115 115 114 114 114 114 114 114 113 113 113 113 113 113 112 112 112 112 112 112 111 111 111 111 111 111 110 110 110 110 110 110 109 109 109 109 109 109 108 108 108 108 108 108 107 107 107 107 107 107 106 106 106 106 106 106 105 105 105 105 105 105 104 104 104 104 104 104 103 103 103 103 103 103 102 102 102 102 102 102 101 101 101 101 101 101 100 100 100 100 100 100 99 99 99 99 99 99 98 98 98 98 98 98 97 97 97 97 97 97 96 96 96 96 96 96 95 95 95 95 95 95 95 95 95 94 94 94 94 94 94 93 93 93 93 93 93 92 92 92 
107 107 107 108 108 108 108 108 108 109 109 109 109 109 109 110 110 110 110 110 110 111 111 111 111 111 111 112 112 112 112 112 112 113 113 113 114 114 114 114 114 114 115 115 115 115 115 115 116 116 116 116 116 116 117 117 117 117 117 117 118 118 118 118 118 118 119 119 119 119 119 119 120 120 120 120 120 120 121 121 121 122 122 122 122 122 122 123 123 123 123 123 123 124 124 124 124 124 124 125 125 125 125 125 125 126 126 126 126 126 126 127 127 127 127 127 127 128 128 128 128 128 128 129 129 129 129 129 129 129 129 129 130 130 130 130 130 130 131 131 131 131 131 131 132 132 132 132 132 132 133 133 133 133 133 133 133 133 133 134 134 134 134 134 134 134 134 134 135 135 135 135 135 135 136 136 136 136 136 136 136 136 136 136 136 136 137 137 137 137 137 137 137 137 137 138 138 138 138 138 138 118 61 2 117 61 2 108 56 2 108 56 2 108 56 2 108 56 2 108 56 2 108 56 2 108 56 2 108 56 2 109 56 2 109 56 2 109 56 2 109 56 2 109 56 2 43 22 1 43 22 1 43 22 1 43 22 1 43 22 1 43 22 1 36 19 1 36 19 1 36 19 1 36 19 1 36 19 1 36 19 1 36 19 1 36 19 1 36 19 1 36 19 1 36 19 1 36 19 1 36 19 1 36 19 1 36 19 1 36 19 1 36 19 1 36 19 1 36 19 1 36 19 1 36 19 1 36 19 1 35 19 1 35 19 1 35 19 1 35 19 1 35 19 1 35 19 1 112 58 2 112 58 2 112 58 2 112 58 2 111 57 2 111 57 2 105 54 2 104 54 2 104 54 2 129 129 129 129 129 129 128 128 128 128 128 128 127 127 127 127 127 127 126 126 126 126 126 126 126 126 126 125 125 125 124 124 124 124 124 124 123 123 123 123 123 123 122 122 122 122 122 122 121 121 121 121 121 121 120 120 120 120 120 120 119 119 119 119 119 119 118 118 118 118 118 118 117 117 117 117 117 117 116 116 116 116 116 116 115 115 115 114 114 114 114 114 114 113 113 113 113 113 113 112 112 112 112 112 112 111 111 111 111 111 111 110 110 110 110 110 110 109 109 109 109 109 109 108 108 108 108 108 108 107 107 107 107 107 107 106 106 106 106 106 106 105 105 105 105 105 105 104 104 104 104 104 104 103 103 103 103 103 103 102 102 102 102 102 102 101 101 101 101 101 101 100 100 100 100 100 100 99 99 99 99 99 99 98 98 98 98 98 98 97 97 97 97 97 97 96 96 96 96 96 96 95 95 95 95 95 95 94 94 94 94 94 94 94 94 94 93 93 93 93 93 93 92 92 92 
107 107 107 108 108 108 108 108 108 109 109 109 109 109 109 110 110 110 110 110 110 111 111 111 111 111 111 112 112 112 112 112 112 113 113 113 114 114 114 114 114 114 115 115 115 115 115 115 116 116 116 116 116 116 117 117 117 117 117 117 118 118 118 118 118 118 119 119 119 120 120 120 120 120 120 121 121 121 121 121 121 122 122 122 122 122 122 123 123 123 123 123 123 124 124 124 124 124 124 125 125 125 125 125 125 126 126 126 126 126 126 127 127 127 127 127 127 128 128 128 128 128 128 129 129 129 129 129 129 130 130 130 130 130 130 131 131 131 131 131 131 132 132 132 132 132 132 133 133 133 133 133 133 133 133 133 134 134 134 134 134 134 135 135 135 135 135 135 135 135 135 136 136 136 136 136 136 137 137 137 137 137 137 137 137 137 137 137 137 138 138 138 138 138 138 138 138 138 118 61 2 118 61 2 109 56 2 109 56 2 109 56 2 109 56 2 109 56 2 109 56 2 109 56 2 109 56 2 109 56 2 109 56 2 109 56 2 109 56 2 109 56 2 43 22 1 43 22 1 43 22 1 43 23 1 43 23 1 43 23 1 43 23 1 36 19 1 36 19 1 36 19 1 36 19 1 36 19 1 36 19 1 36 19 1 36 19 1 36 19 1 36 19 1 36 19 1 36 19 1 36 19 1 36 19 1 36 19 1 36 19 1 36 19 1 36 19 1 36 19 1 36 19 1 36 19 1 36 19 1 36 19 1 36 19 1 36 19 1 36 19 1 35 19 1 35 19 1 35 19 1 35 19 1 35 19 1 112 58 2 112 58 2 112 58 2 105 54 2 105 54 2 105 54 2 104 54 2 129 129 129 129 129 129 128 128 128 128 128 128 127 127 127 127 127 127 126 126 126 126 126 126 125 125 125 125 125 125 124 124 124 124 124 124 123 123 123 123 123 123 122 122 122 122 122 122 121 121 121 121 121 121 120 120 120 120 120 120 119 119 119 118 118 118 118 118 118 117 117 117 117 117 117 116 116 116 116 116 116 115 115 115 115 115 115 114 114 114 114 114 114 113 113 113 112 112 112 112 112 112 111 111 111 111 111 111 110 110 110 110 110 110 109 109 109 109 109 109 108 108 108 108 108 108 107 107 107 107 107 107 106 106 106 106 106 106 105 105 105 104 104 104 104 104 104 103 103 103 103 103 103 102 102 102 102 102 102 101 101 101 101 101 101 100 100 100 100 100 100 99 99 99 99 99 99 98 98 98 98 98 98 98 98 98 97 97 97 97 97 97 96 96 96 96 96 96 95 95 95 95 95 95 94 94 94 94 94 94 93 93 93 93 93 93 92 92 92 92 92 92 
107 107 107 107 107 107 108 108 108 108 108 108 109 109 109 110 110 110 110 110 110 111 111 111 111 111 111 112 112 112 112 112 112 113 113 113 113 113 113 114 114 114 115 115 115 115 115 115 116 116 116 116 116 116 117 117 117 117 117 117 118 118 118 118 118 118 119 119 119 120 120 120 120 120 120 121 121 121 121 121 121 122 122 122 122 122 122 123 123 123 123 123 123 124 124 124 125 125 125 125 125 125 126 126 126 126 126 126 127 127 127 127 127 127 128 128 128 128 128 128 129 129 129 129 129 129 130 130 130 130 130 130 131 131 131 131 131 131 132 132 132 132 132 132 133 133 133 133 133 133 134 134 134 134 134 134 134 134 134 135 135 135 135 135 135 136 136 136 136 136 136 136 136 136 137 137 137 137 137 137 137 137 137 138 138 138 138 138 138 138 138 138 119 62 2 119 61 2 118 61 3 109 56 2 109 56 2 109 56 2 109 56 2 109 56 2 110 57 2 110 57 2 110 57 2 110 57 2 110 57 2 110 57 2 110 57 2 110 57 2 43 23 1 43 23 1 43 23 1 43 23 1 43 23 1 43 23 1 43 23 1 43 23 1 43 23 1 37 19 1 37 19 1 37 19 1 37 19 1 37 19 1 37 19 1 37 19 1 37 19 1 37 19 1 37 19 1 36 19 1 36 19 1 36 19 1 36 19 1 36 19 1 36 19 1 36 19 1 36 19 1 36 19 1 36 19 1 36 19 1 36 19 1 36 19 1 36 19 1 36 19 1 36 19 1 36 19 1 36 19 1 35 19 1 35 19 1 35 19 1 35 19 1 106 55 2 106 55 2 106 55 2 106 54 2 105 54 2 105 54 2 129 129 129 129 129 129 128 128 128 128 128 128 127 127 127 127 127 127 126 126 126 126 126 126 125 125 125 125 125 125 124 124 124 124 124 124 123 123 123 123 123 123 122 122 122 121 121 121 121 121 121 120 120 120 120 120 120 119 119 119 119 119 119 118 118 118 118 118 118 117 117 117 116 116 116 116 116 116 115 115 115 115 115 115 114 114 114 114 114 114 113 113 113 113 113 113 112 112 112 111 111 111 111 111 111 110 110 110 110 110 110 109 109 109 109 109 109 108 108 108 108 108 108 107 107 107 107 107 107 106 106 106 105 105 105 105 105 105 104 104 104 104 104 104 103 103 103 103 103 103 102 102 102 102 102 102 101 101 101 101 101 101 100 100 100 100 100 100 99 99 99 99 99 99 98 98 98 98 98 98 97 97 97 97 97 97 96 96 96 96 96 96 95 95 95 95 95 95 94 94 94 94 94 94 94 94 94 93 93 93 93 93 93 92 92 92 92 92 92 
107 107 107 107 107 107 108 108 108 108 108 108 109 109 109 109 109 109 110 110 110 110 110 110 111 111 111 112 112 112 112 112 112 113 113 113 113 113 113 114 114 114 114 114 114 115 115 115 116 116 116 116 116 116 117 117 117 117 117 117 118 118 118 118 118 118 119 119 119 120 120 120 120 120 120 121 121 121 121 121 121 122 122 122 122 122 122 123 123 123 124 124 124 124 124 124 125 125 125 125 125 125 126 126 126 126 126 126 127 127 127 127 127 127 128 128 128 128 128 128 129 129 129 130 130 130 130 130 130 131 131 131 131 131 131 132 132 132 132 132 132 133 133 133 133 133 133 134 134 134 134 134 134 134 134 134 135 135 135 135 135 135 136 136 136 136 136 136 137 137 137 137 137 137 137 137 137 138 138 138 138 138 138 138 138 138 139 139 139 120 62 2 119 61 2 110 57 2 110 57 2 110 57 2 110 57 2 110 57 2 110 57 2 110 57 2 110 57 2 110 57 2 110 57 2 110 57 2 110 57 2 110 57 2 43 23 1 43 23 1 43 23 1 43 23 1 43 23 1 43 23 1 44 23 1 44 23 1 44 23 1 44 23 1 44 23 1 37 19 1 37 19 1 37 19 1 37 19 1 37 19 1 37 19 1 37 19 1 37 19 1 37 19 1 37 19 1 37 19 1 37 19 1 37 19 1 37 19 1 37 19 1 37 19 1 37 19 1 36 19 1 36 19 1 36 19 1 36 19 1 36 19 1 36 19 1 36 19 1 36 19 1 36 19 1 36 19 1 36 19 1 36 19 1 36 19 1 36 19 1 42 22 1 42 22 1 107 55 2 107 55 2 106 55 2 106 55 2 106 55 2 105 54 2 129 129 129 129 129 129 128 128 128 128 128 128 127 127 127 127 127 127 126 126 126 126 126 126 125 125 125 125 125 125 124 124 124 123 123 123 123 123 123 122 122 122 122 122 122 121 121 121 121 121 121 120 120 120 119 119 119 119 119 119 118 118 118 118 118 118 117 117 117 117 117 117 116 116 116 115 115 115 115 115 115 114 114 114 114 114 114 113 113 113 113 113 113 112 112 112 111 111 111 111 111 111 110 110 110 110 110 110 109 109 109 109 109 109 108 108 108 108 108 108 107 107 107 106 106 106 106 106 106 105 105 105 105 105 105 104 104 104 104 104 104 103 103 103 103 103 103 102 102 102 102 102 102 101 101 101 101 101 101 100 100 100 100 100 100 99 99 99 99 99 99 98 98 98 98 98 98 97 97 97 97 97 97 96 96 96 96 96 96 95 95 95 95 95 95 94 94 94 94 94 94 93 93 93 93 93 93 92 92 92 92 92 92 91 91 91 
106 106 106 107 107 107 107 107 107 108 108 108 109 109 109 109 109 109 110 110 110 110 110 110 111 111 111 111 111 111 112 112 112 113 113 113 113 113 113 114 114 114 114 114 114 115 115 115 115 115 115 116 116 116 117 117 117 117 117 117 118 118 118 118 118 118 119 119 119 120 120 120 120 120 120 121 121 121 121 121 121 122 122 122 122 122 122 123 123 123 124 124 124 124 124 124 125 125 125 125 125 125 126 126 126 126 126 126 127 127 127 128 128 128 128 128 128 129 129 129 129 129 129 130 130 130 130 130 130 131 131 131 131 131 131 132 132 132 132 132 132 133 133 133 133 133 133 134 134 134 134 134 134 135 135 135 135 135 135 136 136 136 136 136 136 137 137 137 137 137 137 137 137 137 138 138 138 138 138 138 139 139 139 139 139 139 120 62 2 92 47 2 98 51 2 110 57 2 110 57 2 110 57 2 110 57 2 111 57 2 111 57 2 111 57 2 111 57 2 111 57 2 111 57 2 111 57 2 111 57 2 43 23 1 44 23 1 44 23 1 44 23 1 44 23 1 44 23 1 44 23 1 44 23 1 44 23 1 44 23 1 44 23 1 44 23 1 37 20 1 37 20 1 37 20 1 37 20 1 37 20 1 37 20 1 37 20 1 37 20 1 37 20 1 37 20 1 37 20 1 37 19 1 37 19 1 37 19 1 37 19 1 37 19 1 37 19 1 37 19 1 37 19 1 37 19 1 37 19 1 37 19 1 36 19 1 36 19 1 36 19 1 36 19 1 36 19 1 36 19 1 36 19 1 36 19 1 36 19 1 42 22 1 42 22 1 42 22 1 107 55 2 107 55 2 107 55 2 106 55 2 106 55 2 106 55 2 129 129 129 129 129 129 128 128 128 128 128 128 127 127 127 127 127 127 126 126 126 125 125 125 125 125 125 124 124 124 124 124 124 123 123 123 122 122 122 122 122 122 121 121 121 121 121 121 120 120 120 120 120 120 119 119 119 118 118 118 118 118 118 117 117 117 117 117 117 116 116 116 115 115 115 115 115 115 114 114 114 114 114 114 113 113 113 113 113 113 112 112 112 111 111 111 111 111 111 110 110 110 110 110 110 109 109 109 109 109 109 108 108 108 107 107 107 107 107 107 106 106 106 106 106 106 105 105 105 105 105 105 104 104 104 104 104 104 103 103 103 103 103 103 102 102 102 101 101 101 101 101 101 100 100 100 100 100 100 99 99 99 99 99 99 98 98 98 98 98 98 97 97 97 97 97 97 96 96 96 96 96 96 95 95 95 95 95 95 94 94 94 94 94 94 93 93 93 93 93 93 93 93 93 92 92 92 92 92 92 91 91 91 
106 106 106 107 107 107 107 107 107 108 108 108 108 108 108 109 109 109 109 109 109 110 110 110 111 111 111 111 111 111 112 112 112 112 112 112 113 113 113 113 113 113 114 114 114 115 115 115 115 115 115 116 116 116 116 116 116 117 117 117 118 118 118 118 118 118 119 119 119 119 119 119 120 120 120 121 121 121 121 121 121 122 122 122 122 122 122 123 123 123 124 124 124 124 124 124 125 125 125 125 125 125 126 126 126 127 127 127 127 127 127 128 128 128 128 128 128 129 129 129 129 129 129 130 130 130 130 130 130 131 131 131 132 132 132 132 132 132 133 133 133 133 133 133 134 134 134 134 134 134 135 135 135 135 135 135 136 136 136 136 136 136 137 137 137 137 137 137 137 137 137 138 138 138 138 138 138 139 139 139 121 62 2 93 48 2 92 48 2 92 48 2 99 51 2 99 51 2 99 51 2 111 57 2 111 57 2 111 57 2 111 57 2 111 57 2 111 57 2 111 57 2 111 57 2 112 58 2 44 23 1 44 23 1 44 23 1 44 23 1 44 23 1 44 23 1 44 23 1 44 23 1 44 23 1 44 23 1 44 23 1 44 23 1 44 23 1 44 23 1 37 20 1 37 20 1 37 20 1 37 20 1 37 20 1 37 20 1 37 20 1 163 161 159 160 159 156 157 156 153 154 153 150 151 150 147 148 147 144 201 199 197 200 199 196 37 20 1 37 20 1 37 19 1 37 19 1 37 19 1 37 19 1 37 19 1 37 19 1 37 19 1 37 19 1 36 19 1 36 19 1 36 19 1 36 19 1 43 22 1 43 22 1 43 22 1 42 22 1 42 22 1 108 56 2 107 55 2 107 55 2 107 55 2 107 55 2 106 55 2 129 129 129 128 128 128 128 128 128 127 127 127 127 127 127 126 126 126 126 126 126 125 125 125 124 124 124 124 124 124 123 123 123 123 123 123 122 122 122 121 121 121 121 121 121 120 120 120 120 120 120 119 119 119 118 118 118 118 118 118 117 117 117 117 117 117 116 116 116 115 115 115 115 115 115 114 114 114 114 114 114 113 113 113 113 113 113 112 112 112 111 111 111 111 111 111 110 110 110 110 110 110 109 109 109 108 108 108 108 108 108 107 107 107 107 107 107 106 106 106 106 106 106 105 105 105 105 105 105 104 104 104 103 103 103 103 103 103 102 102 102 102 102 102 101 101 101 101 101 101 100 100 100 100 100 100 99 99 99 99 99 99 98 98 98 98 98 98 97 97 97 97 97 97 96 96 96 96 96 96 95 95 95 95 95 95 94 94 94 94 94 94 93 93 93 93 93 93 92 92 92 92 92 92 91 91 91 91 91 91 
106 106 106 106 106 106 107 107 107 107 107 107 108 108 108 108 108 108 109 109 109 110 110 110 110 110 110 111 111 111 111 111 111 112 112 112 113 113 113 113 113 113 114 114 114 114 114 114 115 115 115 116 116 116 116 116 116 117 117 117 117 117 117 118 118 118 119 119 119 119 119 119 120 120 120 120 120 120 121 121 121 122 122 122 122 122 122 123 123 123 124 124 124 124 124 124 125 125 125 125 125 125 126 126 126 127 127 127 127 127 127 128 128 128 128 128 128 129 129 129 129 129 129 130 130 130 131 131 131 131 131 131 132 132 132 132 132 132 133 133 133 133 133 133 134 134 134 134 134 134 135 135 135 135 135 135 136 136 136 136 136 136 137 137 137 137 137 137 138 138 138 138 138 138 139 139 139 139 139 139 93 48 2 93 48 2 93 48 2 99 51 2 100 51 2 100 51 2 100 51 2 100 52 2 100 52 2 112 58 2 112 58 2 112 58 2 112 58 2 112 58 2 44 23 1 44 23 1 44 23 1 44 23 1 44 23 1 44 23 1 44 23 1 44 23 1 44 23 1 44 23 1 44 23 1 45 23 1 45 23 1 45 23 1 45 23 1 45 23 1 181 180 177 179 177 175 176 175 173 174 172 170 171 170 167 168 167 165 166 164 162 163 162 159 160 159 156 157 156 153 154 153 150 151 150 147 203 201 199 202 201 198 201 200 198 201 200 197 200 199 196 37 20 1 37 20 1 37 20 1 37 20 1 37 19 1 37 19 1 37 19 1 37 19 1 37 19 1 37 19 1 37 19 1 43 23 1 43 23 1 43 23 1 43 22 1 43 22 1 43 22 1 42 22 1 108 56 2 108 56 2 108 56 2 107 55 2 107 55 2 107 55 2 129 129 129 128 128 128 128 128 128 127 127 127 126 126 126 126 126 126 125 125 125 125 125 125 124 124 124 123 123 123 123 123 123 122 122 122 122 122 122 121 121 121 120 120 120 120 120 120 119 119 119 118 118 118 118 118 118 117 117 117 117 117 117 116 116 116 115 115 115 115 115 115 114 114 114 114 114 114 113 113 113 112 112 112 112 112 112 111 111 111 111 111 111 110 110 110 109 109 109 109 109 109 108 108 108 108 108 108 107 107 107 107 107 107 106 106 106 105 105 105 105 105 105 104 104 104 104 104 104 103 103 103 103 103 103 102 102 102 102 102 102 101 101 101 100 100 100 100 100 100 99 99 99 99 99 99 98 98 98 98 98 98 97 97 97 97 97 97 96 96 96 96 96 96 95 95 95 95 95 95 94 94 94 94 94 94 93 93 93 93 93 93 92 92 92 92 92 92 91 91 91 91 91 91 90 90 90 
105 105 105 106 106 106 106 106 106 107 107 107 107 107 107 108 108 108 109 109 109 109 109 109 110 110 110 110 110 110 111 111 111 112 112 112 112 112 112 113 113 113 113 113 113 114 114 114 115 115 115 115 115 115 116 116 116 117 117 117 117 117 117 118 118 118 118 118 118 119 119 119 120 120 120 120 120 120 121 121 121 121 121 121 122 122 122 123 123 123 123 123 123 124 124 124 125 125 125 125 125 125 126 126 126 126 126 126 127 127 127 128 128 128 128 128 128 129 129 129 129 129 129 130 130 130 131 131 131 131 131 131 132 132 132 132 132 132 133 133 133 133 133 133 134 134 134 134 134 134 135 135 135 136 136 136 136 136 136 137 137 137 137 137 137 138 138 138 138 138 138 138 138 138 139 139 139 94 49 2 94 49 2 94 48 2 93 48 2 100 52 2 100 52 2 100 52 2 100 52 2 100 52 2 100 52 2 100 52 2 101 52 2 101 52 2 113 58 2 44 23 1 44 23 1 44 23 1 44 23 1 44 23 1 44 23 1 45 23 1 45 23 1 45 23 1 45 23 1 45 23 1 45 23 1 45 24 1 45 24 1 45 24 1 83 82 79 79 78 75 182 180 178 179 178 176 177 175 173 174 173 170 171 170 168 169 167 165 166 165 162 163 162 159 160 159 156 157 156 153 154 153 150 151 150 147 204 203 201 204 202 200 203 202 199 202 201 199 202 200 198 201 200 197 200 199 196 199 198 195 37 20 1 37 20 1 37 20 1 37 20 1 37 20 1 37 19 1 37 19 1 37 19 1 44 23 1 43 23 1 43 23 1 43 23 1 43 23 1 43 23 1 43 22 1 43 22 1 109 56 2 108 56 2 108 56 2 108 56 2 107 55 2 107 55 2 128 128 128 128 128 128 127 127 127 126 126 126 126 126 126 125 125 125 125 125 125 124 124 124 123 123 123 123 123 123 122 122 122 122 122 122 121 121 121 120 120 120 120 120 120 119 119 119 118 118 118 118 118 118 117 117 117 117 117 117 116 116 116 115 115 115 115 115 115 114 114 114 114 114 114 113 113 113 112 112 112 112 112 112 111 111 111 110 110 110 110 110 110 109 109 109 109 109 109 108 108 108 108 108 108 107 107 107 106 106 106 106 106 106 105 105 105 105 105 105 104 104 104 103 103 103 103 103 103 102 102 102 102 102 102 101 101 101 101 101 101 100 100 100 100 100 100 99 99 99 99 99 99 98 98 98 97 97 97 97 97 97 96 96 96 96 96 96 95 95 95 95 95 95 94 94 94 94 94 94 93 93 93 93 93 93 92 92 92 92 92 92 91 91 91 91 91 91 91 91 91 90 90 90 
105 105 105 105 105 105 106 106 106 106 106 106 107 107 107 108 108 108 108 108 108 109 109 109 109 109 109 110 110 110 111 111 111 111 111 111 112 112 112 112 112 112 113 113 113 114 114 114 114 114 114 115 115 115 116 116 116 116 116 116 117 117 117 117 117 117 118 118 118 119 119 119 119 119 119 120 120 120 121 121 121 121 121 121 122 122 122 123 123 123 123 123 123 124 124 124 124 124 124 125 125 125 126 126 126 126 126 126 127 127 127 128 128 128 128 128 128 129 129 129 129 129 129 130 130 130 131 131 131 131 131 131 132 132 132 132 132 132 133 133 133 133 133 133 134 134 134 135 135 135 135 135 135 136 136 136 136 136 136 137 137 137 137 137 137 138 138 138 138 138 138 139 139 139 139 139 139 95 49 2 94 49 2 94 49 2 94 48 2 101 52 2 101 52 2 101 52 2 101 52 2 101 52 2 101 52 2 101 52 2 101 52 2 101 52 2 56 29 1 44 23 1 44 23 1 45 23 1 45 23 1 45 23 1 45 23 1 45 23 1 45 24 1 45 24 1 45 24 1 45 24 1 45 24 1 45 24 1 45 24 1 87 86 83 83 81 79 78 77 75 182 181 179 180 178 176 177 176 173 174 173 171 172 170 168 169 168 165 166 165 162 163 162 160 160 159 157 157 156 153 154 153 150 151 150 147 206 205 202 205 204 202 205 203 201 204 203 200 203 202 199 202 201 199 201 200 198 200 199 197 199 198 196 198 197 194 37 20 1 37 20 1 37 20 1 37 20 1 37 20 1 44 23 1 44 23 1 44 23 1 44 23 1 43 23 1 43 23 1 43 23 1 43 23 1 43 23 1 109 56 2 109 56 2 109 56 2 109 56 2 108 56 2 108 56 2 107 55 2 128 128 128 127 127 127 127 127 127 126 126 126 125 125 125 125 125 125 124 124 124 123 123 123 123 123 123 122 122 122 122 122 122 121 121 121 120 120 120 120 120 120 119 119 119 118 118 118 118 118 118 117 117 117 116 116 116 116 116 116 115 115 115 115 115 115 114 114 114 113 113 113 113 113 113 112 112 112 111 111 111 111 111 111 110 110 110 110 110 110 109 109 109 108 108 108 108 108 108 107 107 107 107 107 107 106 106 106 105 105 105 105 105 105 104 104 104 104 104 104 103 103 103 103 103 103 102 102 102 101 101 101 101 101 101 100 100 100 100 100 100 99 99 99 99 99 99 98 98 98 98 98 98 97 97 97 97 97 97 96 96 96 96 96 96 95 95 95 95 95 95 94 94 94 94 94 94 93 93 93 93 93 93 92 92 92 92 92 92 91 91 91 91 91 91 90 90 90 90 90 90 
104 104 104 105 105 105 105 105 105 106 106 106 106 106 106 107 107 107 108 108 108 108 108 108 109 109 109 110 110 110 110 110 110 111 111 111 111 111 111 112 112 112 113 113 113 113 113 113 114 114 114 115 115 115 115 115 115 116 116 116 116 116 116 117 117 117 118 118 118 118 118 118 119 119 119 120 120 120 120 120 120 121 121 121 122 122 122 122 122 122 123 123 123 123 123 123 124 124 124 125 125 125 125 125 125 126 126 126 127 127 127 127 127 127 128 128 128 129 129 129 129 129 129 130 130 130 130 130 130 131 131 131 132 132 132 132 132 132 133 133 133 133 133 133 134 134 134 134 134 134 135 135 135 136 136 136 136 136 136 137 137 137 137 137 137 138 138 138 138 138 138 139 139 139 95 49 2 95 49 2 95 49 2 94 49 2 101 52 2 101 52 2 101 52 2 101 52 2 101 52 2 102 52 2 102 52 2 102 52 2 102 52 2 102 53 2 57 30 1 57 30 1 45 23 1 45 23 1 45 24 1 45 24 1 45 24 1 45 24 1 45 24 1 45 24 1 45 24 1 45 24 1 45 24 1 46 24 1 91 89 87 87 85 83 82 81 79 78 77 74 183 181 179 180 179 176 177 176 174 175 174 171 172 171 168 169 168 165 166 165 163 163 162 160 160 159 157 157 156 153 154 153 150 208 207 204 207 206 204 207 206 203 206 205 203 205 204 202 205 203 201 204 202 200 203 201 199 202 200 198 201 199 197 199 198 196 198 197 194 197 196 193 195 194 192 38 20 1 44 23 1 44 23 1 44 23 1 44 23 1 44 23 1 44 23 1 44 23 1 44 23 1 43 23 1 43 23 1 43 23 1 110 57 2 110 57 2 109 56 2 109 56 2 109 56 2 108 56 2 128 128 128 127 127 127 127 127 127 126 126 126 125 125 125 125 125 125 124 124 124 123 123 123 123 123 123 122 122 122 121 121 121 121 121 121 120 120 120 119 119 119 119 119 119 118 118 118 118 118 118 117 117 117 116 116 116 116 116 116 115 115 115 114 114 114 114 114 114 113 113 113 112 112 112 112 112 112 111 111 111 111 111 111 110 110 110 109 109 109 109 109 109 108 108 108 108 108 108 107 107 107 106 106 106 106 106 106 105 105 105 105 105 105 104 104 104 103 103 103 103 103 103 102 102 102 102 102 102 101 101 101 101 101 101 100 100 100 99 99 99 99 99 99 98 98 98 98 98 98 97 97 97 97 97 97 96 96 96 96 96 96 95 95 95 95 95 95 94 94 94 94 94 94 93 93 93 93 93 93 92 92 92 92 92 92 91 91 91 91 91 91 90 90 90 90 90 90 89 89 89 
104 104 104 104 104 104 105 105 105 105 105 105 106 106 106 107 107 107 107 107 107 108 108 108 108 108 108 109 109 109 110 110 110 110 110 110 111 111 111 111 111 111 112 112 112 113 113 113 113 113 113 114 114 114 115 115 115 115 115 115 116 116 116 117 117 117 117 117 117 118 118 118 119 119 119 119 119 119 120 120 120 121 121 121 121 121 121 122 122 122 122 122 122 123 123 123 124 124 124 124 124 124 125 125 125 126 126 126 126 126 126 127 127 127 128 128 128 128 128 128 129 129 129 130 130 130 130 130 130 131 131 131 131 131 131 132 132 132 133 133 133 133 133 133 134 134 134 134 134 134 135 135 135 135 135 135 136 136 136 137 137 137 137 137 137 138 138 138 138 138 138 139 139 139 96 50 2 95 49 2 95 49 2 95 49 2 102 53 2 102 53 2 102 53 2 102 53 2 102 53 2 102 53 2 102 53 2 102 53 2 102 53 2 102 53 2 57 30 1 57 30 1 57 30 1 45 24 1 45 24 1 45 24 1 45 24 1 45 24 1 46 24 1 46 24 1 46 24 1 46 24 1 99 98 95 95 93 91 90 89 87 86 85 83 82 81 78 186 184 182 183 182 179 180 179 177 178 177 174 175 174 171 172 171 169 169 168 166 166 165 163 163 162 160 160 159 156 157 156 153 154 152 150 209 208 206 209 208 205 208 207 205 208 206 204 207 206 203 206 205 202 205 204 201 204 203 200 203 202 199 202 201 198 201 199 197 199 198 196 198 197 194 197 195 193 195 194 191 132 131 129 45 23 1 45 23 1 44 23 1 44 23 1 44 23 1 44 23 1 44 23 1 44 23 1 44 23 1 43 23 1 43 23 1 110 57 2 110 57 2 110 57 2 109 56 2 109 56 2 109 56 2 127 127 127 126 126 126 126 126 126 125 125 125 124 124 124 124 124 124 123 123 123 123 123 123 122 122 122 121 121 121 121 121 121 120 120 120 119 119 119 119 119 119 118 118 118 117 117 117 117 117 117 116 116 116 115 115 115 115 115 115 114 114 114 113 113 113 113 113 113 112 112 112 112 112 112 111 111 111 110 110 110 110 110 110 109 109 109 108 108 108 108 108 108 107 107 107 107 107 107 106 106 106 105 105 105 105 105 105 104 104 104 104 104 104 103 103 103 102 102 102 102 102 102 101 101 101 101 101 101 100 100 100 100 100 100 99 99 99 98 98 98 98 98 98 97 97 97 97 97 97 96 96 96 96 96 96 95 95 95 95 95 95 94 94 94 94 94 94 93 93 93 93 93 93 92 92 92 92 92 92 91 91 91 91 91 91 90 90 90 90 90 90 89 89 89 89 89 89 
103 103 103 103 103 103 104 104 104 105 105 105 105 105 105 106 106 106 106 106 106 107 107 107 108 108 108 108 108 108 109 109 109 110 110 110 110 110 110 111 111 111 112 112 112 112 112 112 113 113 113 113 113 113 114 114 114 115 115 115 115 115 115 116 116 116 117 117 117 117 117 117 118 118 118 119 119 119 119 119 119 120 120 120 121 121 121 121 121 121 122 122 122 123 123 123 123 123 123 124 124 124 125 125 125 125 125 125 126 126 126 127 127 127 127 127 127 128 128 128 129 129 129 129 129 129 130 130 130 130 130 130 131 131 131 132 132 132 132 132 132 133 133 133 134 134 134 134 134 134 135 135 135 135 135 135 136 136 136 136 136 136 137 137 137 137 137 137 138 138 138 139 139 139 96 50 2 96 50 2 95 49 2 102 53 2 102 53 2 102 53 2 102 53 2 103 53 2 103 53 2 103 53 2 103 53 2 103 53 2 103 53 2 57 30 1 57 30 1 58 30 1 58 30 1 58 30 1 46 24 1 46 24 1 46 24 1 46 24 1 46 24 1 46 24 1 46 24 1 103 102 99 99 97 95 94 93 91 90 89 87 86 85 82 81 80 78 186 185 182 183 182 180 181 180 177 178 177 174 175 174 172 172 171 169 169 168 166 166 165 163 163 162 160 160 159 156 30 28 26 35 34 31 211 210 207 210 209 207 210 209 206 209 208 205 208 207 205 207 206 204 206 205 203 205 204 202 204 203 201 203 202 200 202 201 198 201 199 197 199 198 196 198 197 194 134 132 130 134 133 131 45 24 1 45 23 1 45 23 1 45 23 1 44 23 1 44 23 1 44 23 1 44 23 1 44 23 1 44 23 1 44 23 1 43 23 1 111 57 2 110 57 2 110 57 2 110 57 2 109 56 2 109 56 2 126 126 126 126 126 126 125 125 125 124 124 124 124 124 124 123 123 123 122 122 122 122 122 122 121 121 121 120 120 120 120 120 120 119 119 119 118 118 118 118 118 118 117 117 117 116 116 116 116 116 116 115 115 115 114 114 114 114 114 114 113 113 113 112 112 112 112 112 112 111 111 111 111 111 111 110 110 110 109 109 109 109 109 109 108 108 108 107 107 107 107 107 107 106 106 106 106 106 106 105 105 105 104 104 104 104 104 104 103 103 103 103 103 103 102 102 102 101 101 101 101 101 101 100 100 100 100 100 100 99 99 99 99 99 99 98 98 98 97 97 97 97 97 97 96 96 96 96 96 96 95 95 95 95 95 95 94 94 94 94 94 94 93 93 93 93 93 93 92 92 92 92 92 92 91 91 91 91 91 91 90 90 90 90 90 90 89 89 89 89 89 89 88 88 88 
102 102 102 103 103 103 103 103 103 104 104 104 105 105 105 105 105 105 106 106 106 106 106 106 107 107 107 108 108 108 108 108 108 109 109 109 110 110 110 110 110 110 111 111 111 112 112 112 112 112 112 113 113 113 113 113 113 114 114 114 115 115 115 115 115 115 116 116 116 117 117 117 117 117 117 118 118 118 119 119 119 119 119 119 120 120 120 121 121 121 121 121 121 122 122 122 123 123 123 123 123 123 124 124 124 125 125 125 125 125 125 126 126 126 127 127 127 127 127 127 128 128 128 129 129 129 129 129 129 130 130 130 131 131 131 131 131 131 132 132 132 133 133 133 133 133 133 134 134 134 134 134 134 135 135 135 136 136 136 136 136 136 137 137 137 137 137 137 138 138 138 97 50 2 97 50 2 96 50 2 96 50 2 103 53 2 103 53 2 103 53 2 103 53 2 103 53 2 103 53 2 103 53 2 103 53 2 103 53 2 103 53 2 58 30 1 58 30 1 58 30 1 58 30 1 58 30 1 58 30 1 46 24 1 46 24 1 46 24 1 46 24 1 46 24 1 107 106 103 103 102 99 99 97 95 94 93 91 90 89 86 85 84 82 81 80 77 186 185 183 184 183 180 146 146 146 146 146 146 146 146 146 146 146 146 146 146 146 145 145 145 145 145 145 145 145 145 145 145 145 144 144 144 27 25 23 32 31 28 37 36 34 211 209 207 210 208 206 209 208 205 208 207 204 207 206 203 206 204 202 204 203 201 203 202 200 202 201 198 200 199 197 135 134 131 136 134 132 136 135 133 137 136 133 45 24 1 45 24 1 45 24 1 45 23 1 45 23 1 44 23 1 44 23 1 44 23 1 44 23 1 44 23 1 44 23 1 44 23 1 111 57 2 111 57 2 110 57 2 110 57 2 110 57 2 109 56 2 125 125 125 125 125 125 124 124 124 123 123 123 123 123 123 122 122 122 121 121 121 121 121 121 120 120 120 119 119 119 119 119 119 118 118 118 117 117 117 117 117 117 116 116 116 115 115 115 115 115 115 114 114 114 113 113 113 113 113 113 112 112 112 111 111 111 111 111 111 110 110 110 109 109 109 109 109 109 108 108 108 108 108 108 107 107 107 106 106 106 106 106 106 105 105 105 104 104 104 104 104 104 103 103 103 103 103 103 102 102 102 101 101 101 101 101 101 100 100 100 100 100 100 99 99 99 99 99 99 98 98 98 97 97 97 97 97 97 96 96 96 96 96 96 95 95 95 95 95 95 94 94 94 94 94 94 93 93 93 93 93 93 92 92 92 92 92 92 91 91 91 91 91 91 90 90 90 90 90 90 89 89 89 89 89 89 88 88 88 88 88 88 
101 101 101 102 102 102 103 103 103 103 103 103 104 104 104 104 104 104 105 105 105 106 106 106 106 106 106 107 107 107 108 108 108 108 108 108 109 109 109 110 110 110 110 110 110 111 111 111 111 111 111 112 112 112 113 113 113 113 113 113 114 114 114 115 115 115 115 115 115 116 116 116 117 117 117 117 117 117 118 118 118 119 119 119 119 119 119 120 120 120 121 121 121 122 122 122 122 122 122 123 123 123 124 124 124 124 124 124 125 125 125 126 126 126 126 126 126 127 127 127 128 128 128 128 128 128 129 129 129 130 130 130 130 130 130 131 131 131 131 131 131 132 132 132 133 133 133 133 133 133 134 134 134 135 135 135 135 135 135 136 136 136 136 136 136 137 137 137 137 137 137 97 50 2 97 50 2 97 50 2 96 50 2 103 53 2 103 53 2 104 53 2 104 54 2 104 54 2 104 54 2 104 54 2 104 54 2 104 54 2 104 54 2 58 30 1 58 30 1 58 30 1 58 30 1 59 31 1 59 31 1 59 31 1 46 24 1 47 24 1 47 24 1 111 110 107 107 106 103 103 102 99 98 97 95 94 93 90 90 88 86 85 84 81 146 146 146 146 146 146 146 146 146 146 146 146 146 146 146 146 146 146 146 146 146 146 146 146 145 145 145 145 145 145 145 145 145 145 145 145 144 144 144 144 144 144 144 144 144 24 22 20 29 27 25 34 33 30 210 209 207 209 208 206 208 207 204 207 206 203 206 204 202 204 203 201 203 202 199 136 135 133 137 136 133 138 137 134 138 137 135 139 138 135 140 138 136 45 24 1 45 24 1 45 24 1 45 24 1 45 23 1 45 23 1 45 23 1 44 23 1 44 23 1 44 23 1 44 23 1 44 23 1 112 58 2 111 57 2 111 57 2 111 57 2 110 57 2 110 57 2 124 124 124 124 124 124 123 123 123 122 122 122 122 122 122 121 121 121 120 120 120 120 120 120 119 119 119 118 118 118 118 118 118 117 117 117 116 116 116 116 116 116 115 115 115 114 114 114 114 114 114 113 113 113 112 112 112 112 112 112 111 111 111 110 110 110 110 110 110 109 109 109 108 108 108 108 108 108 107 107 107 106 106 106 106 106 106 105 105 105 105 105 105 104 104 104 103 103 103 103 103 103 102 102 102 102 102 102 101 101 101 100 100 100 100 100 100 99 99 99 99 99 99 98 98 98 97 97 97 97 97 97 96 96 96 96 96 96 95 95 95 95 95 95 94 94 94 94 94 94 93 93 93 93 93 93 92 92 92 91 91 91 91 91 91 90 90 90 90 90 90 89 89 89 89 89 89 88 88 88 88 88 88 88 88 88 87 87 87 
101 101 101 101 101 101 102 102 102 102 102 102 103 103 103 104 104 104 104 104 104 105 105 105 106 106 106 106 106 106 107 107 107 107 107 107 108 108 108 109 109 109 109 109 109 110 110 110 111 111 111 111 111 111 112 112 112 113 113 113 113 113 113 114 114 114 115 115 115 115 115 115 116 116 116 117 117 117 117 117 117 118 118 118 119 119 119 119 119 119 120 120 120 121 121 121 121 121 121 122 122 122 123 123 123 124 124 124 124 124 124 125 125 125 126 126 126 126 126 126 127 127 127 128 128 128 128 128 128 129 129 129 130 130 130 130 130 130 131 131 131 131 131 131 132 132 132 133 133 133 133 133 133 134 134 134 135 135 135 135 135 135 136 136 136 136 136 136 98 51 2 98 51 2 97 50 2 97 50 2 104 54 2 104 54 2 104 54 2 104 54 2 104 54 2 104 54 2 104 54 2 104 54 2 105 54 2 105 54 2 58 30 1 58 30 1 59 30 1 59 31 1 59 31 1 59 31 1 59 31 1 59 31 1 60 31 1 119 118 116 115 114 112 111 110 108 107 106 103 103 101 99 98 97 95 94 92 90 89 88 85 146 146 146 146 146 146 146 146 146 146 146 146 146 146 146 146 146 146 146 146 146 145 145 145 145 145 145 145 145 145 145 145 145 145 145 145 144 144 144 144 144 144 144 144 144 143 143 143 143 143 143 143 143 143 142 142 142 25 24 22 31 29 27 36 35 32 208 207 205 207 206 203 205 204 202 137 136 134 138 137 135 139 138 136 140 139 136 141 139 137 141 140 138 142 141 138 142 141 139 46 24 1 45 24 1 45 24 1 45 24 1 45 24 1 45 23 1 45 23 1 45 23 1 44 23 1 44 23 1 44 23 1 44 23 1 112 58 2 112 58 2 111 57 2 111 57 2 110 57 2 110 57 2 123 123 123 122 122 122 122 122 122 121 121 121 120 120 120 120 120 120 119 119 119 118 118 118 118 118 118 117 117 117 116 116 116 116 116 116 115 115 115 114 114 114 114 114 114 113 113 113 112 112 112 112 112 112 111 111 111 110 110 110 110 110 110 109 109 109 108 108 108 108 108 108 107 107 107 106 106 106 106 106 106 105 105 105 105 105 105 104 104 104 103 103 103 103 103 103 102 102 102 102 102 102 101 101 101 100 100 100 100 100 100 99 99 99 99 99 99 98 98 98 97 97 97 97 97 97 96 96 96 96 96 96 95 95 95 95 95 95 94 94 94 94 94 94 93 93 93 92 92 92 92 92 92 91 91 91 91 91 91 90 90 90 90 90 90 89 89 89 89 89 89 88 88 88 88 88 88 87 87 87 87 87 87 86 86 86 
100 100 100 100 100 100 101 101 101 102 102 102 102 102 102 103 103 103 103 103 103 104 104 104 105 105 105 105 105 105 106 106 106 107 107 107 107 107 107 108 108 108 109 109 109 109 109 109 110 110 110 111 111 111 111 111 111 112 112 112 113 113 113 113 113 113 114 114 114 115 115 115 115 115 115 116 116 116 117 117 117 117 117 117 118 118 118 119 119 119 119 119 119 120 120 120 121 121 121 121 121 121 122 122 122 123 123 123 123 123 123 124 124 124 125 125 125 125 125 125 126 126 126 127 127 127 128 128 128 128 128 128 129 129 129 129 129 129 130 130 130 131 131 131 131 131 131 132 132 132 133 133 133 133 133 133 134 134 134 134 134 134 135 135 135 136 136 136 99 51 2 98 51 2 98 51 2 97 50 2 104 54 2 105 54 2 105 54 2 105 54 2 105 54 2 105 54 2 105 54 2 105 54 2 105 54 2 105 54 2 59 30 1 59 31 1 59 31 1 59 31 1 59 31 1 59 31 1 60 31 1 60 31 1 60 31 1 46 45 43 115 114 112 111 110 108 107 106 103 102 101 99 98 97 94 93 92 90 146 146 146 146 146 146 146 146 146 146 146 146 146 146 146 146 146 146 145 145 145 145 145 145 145 145 145 145 145 145 145 145 145 144 144 144 144 144 144 144 144 144 144 144 144 143 143 143 143 143 143 143 143 143 142 142 142 142 142 142 142 142 142 141 141 141 141 141 141 27 26 23 32 31 29 139 137 135 140 138 136 140 139 137 141 140 138 142 141 138 143 142 139 143 142 140 144 143 140 144 143 141 145 144 141 46 24 1 46 24 1 45 24 1 45 24 1 45 24 1 45 24 1 45 24 1 45 23 1 45 23 1 44 23 1 44 23 1 44 23 1 112 58 2 112 58 2 100 52 2 99 51 2 99 51 2 123 123 123 122 122 122 121 121 121 121 121 121 120 120 120 119 119 119 118 118 118 118 118 118 117 117 117 116 116 116 116 116 116 115 115 115 114 114 114 114 114 114 113 113 113 112 112 112 112 112 112 111 111 111 110 110 110 110 110 110 109 109 109 108 108 108 108 108 108 107 107 107 106 106 106 106 106 106 105 105 105 105 105 105 104 104 104 103 103 103 103 103 103 102 102 102 101 101 101 101 101 101 100 100 100 100 100 100 99 99 99 98 98 98 98 98 98 97 97 97 97 97 97 96 96 96 96 96 96 95 95 95 94 94 94 94 94 94 93 93 93 93 93 93 92 92 92 92 92 92 91 91 91 91 91 91 90 90 90 90 90 90 89 89 89 89 89 89 88 88 88 88 88 88 87 87 87 87 87 87 86 86 86 86 86 86 
99 99 99 99 99 99 100 100 100 101 101 101 101 101 101 102 102 102 103 103 103 103 103 103 104 104 104 104 104 104 105 105 105 106 106 106 106 106 106 107 107 107 108 108 108 108 108 108 109 109 109 110 110 110 110 110 110 111 111 111 112 112 112 112 112 112 113 113 113 114 114 114 114 114 114 115 115 115 116 116 116 116 116 116 117 117 117 118 118 118 118 118 118 119 119 119 120 120 120 120 120 120 121 121 121 122 122 122 123 123 123 123 123 123 124 124 124 125 125 125 125 125 125 126 126 126 127 127 127 127 127 127 128 128 128 129 129 129 129 129 129 130 130 130 131 131 131 131 131 131 132 132 132 132 132 132 133 133 133 134 134 134 134 134 134 135 135 135 99 51 2 99 51 2 98 51 2 98 50 2 105 54 2 105 54 2 105 54 2 105 54 2 105 54 2 105 54 2 106 54 2 106 54 2 106 55 2 59 31 1 59 31 1 59 31 1 59 31 1 59 31 1 60 31 1 60 31 1 60 31 1 60 31 1 60 31 1 47 45 43 115 114 112 111 110 108 107 105 103 102 101 99 97 96 94 145 145 145 145 145 145 145 145 145 145 145 145 145 145 145 145 145 145 145 145 145 145 145 145 145 145 145 145 145 145 144 144 144 144 144 144 144 144 144 144 144 144 143 143 143 143 143 143 143 143 143 142 142 142 142 142 142 142 142 142 141 141 141 141 141 141 141 141 141 140 140 140 140 140 140 30 29 27 39 38 36 142 141 138 143 141 139 144 142 140 144 143 141 145 144 141 146 144 142 146 145 142 146 145 143 147 146 143 147 146 144 46 24 1 46 24 1 46 24 1 46 24 1 45 24 1 45 24 1 45 24 1 45 23 1 45 23 1 45 23 1 44 23 1 101 52 2 101 52 2 100 52 2 100 52 2 100 52 2 99 51 2 121 121 121 121 121 121 120 120 120 119 119 119 118 118 118 118 118 118 117 117 117 116 116 116 116 116 116 115 115 115 114 114 114 114 114 114 113 113 113 112 112 112 112 112 112 111 111 111 110 110 110 110 110 110 109 109 109 108 108 108 108 108 108 107 107 107 106 106 106 106 106 106 105 105 105 104 104 104 104 104 104 103 103 103 103 103 103 102 102 102 101 101 101 101 101 101 100 100 100 100 100 100 99 99 99 98 98 98 98 98 98 97 97 97 97 97 97 96 96 96 95 95 95 95 95 95 94 94 94 94 94 94 93 93 93 93 93 93 92 92 92 92 92 92 91 91 91 91 91 91 90 90 90 90 90 90 89 89 89 88 88 88 88 88 88 87 87 87 87 87 87 87 87 87 86 86 86 86 86 86 85 85 85 
98 98 98 99 99 99 99 99 99 100 100 100 100 100 100 101 101 101 102 102 102 102 102 102 103 103 103 103 103 103 104 104 104 105 105 105 105 105 105 106 106 106 107 107 107 107 107 107 108 108 108 109 109 109 109 109 109 110 110 110 111 111 111 111 111 111 112 112 112 113 113 113 113 113 113 114 114 114 115 115 115 115 115 115 116 116 116 117 117 117 117 117 117 118 118 118 119 119 119 119 119 119 120 120 120 121 121 121 122 122 122 122 122 122 123 123 123 124 124 124 124 124 124 125 125 125 126 126 126 126 126 126 127 127 127 128 128 128 128 128 128 129 129 129 130 130 130 130 130 130 131 131 131 132 132 132 132 132 132 133 133 133 133 133 133 100 52 2 99 51 2 99 51 2 98 51 2 105 54 2 106 54 2 106 55 2 106 55 2 106 55 2 106 55 2 106 55 2 106 55 2 106 55 2 106 55 2 59 31 1 59 31 1 59 31 1 60 31 1 60 31 1 60 31 1 60 31 1 60 31 1 61 32 1 53 52 49 47 46 43 115 114 112 111 110 107 106 105 103 144 144 144 144 144 144 144 144 144 144 144 144 144 144 144 144 144 144 144 144 144 144 144 144 144 144 144 144 144 144 144 144 144 144 144 144 144 144 144 143 143 143 143 143 143 143 143 143 143 143 143 142 142 142 142 142 142 142 142 142 141 141 141 141 141 141 141 141 141 140 140 140 140 140 140 139 139 139 139 139 139 138 138 138 32 31 29 41 40 38 145 144 141 146 145 142 146 145 143 147 146 144 148 147 144 148 147 145 149 147 145 149 148 145 149 148 146 149 148 146 46 24 1 46 24 1 46 24 1 46 24 1 46 24 1 45 24 1 45 24 1 45 24 1 57 30 1 57 30 1 57 29 1 101 52 2 101 52 2 101 52 2 100 52 2 100 52 2 121 121 121 120 120 120 119 119 119 118 118 118 118 118 118 117 117 117 116 116 116 116 116 116 115 115 115 114 114 114 114 114 114 113 113 113 112 112 112 112 112 112 111 111 111 110 110 110 110 110 110 109 109 109 108 108 108 108 108 108 107 107 107 106 106 106 106 106 106 105 105 105 104 104 104 104 104 104 103 103 103 102 102 102 102 102 102 101 101 101 101 101 101 100 100 100 99 99 99 99 99 99 98 98 98 98 98 98 97 97 97 96 96 96 96 96 96 95 95 95 95 95 95 94 94 94 94 94 94 93 93 93 92 92 92 92 92 92 91 91 91 91 91 91 90 90 90 90 90 90 89 89 89 89 89 89 88 88 88 88 88 88 87 87 87 87 87 87 86 86 86 86 86 86 85 85 85 85 85 85 84 84 84 
97 97 97 97 97 97 98 98 98 99 99 99 99 99 99 100 100 100 101 101 101 101 101 101 102 102 102 102 102 102 103 103 103 104 104 104 104 104 104 105 105 105 106 106 106 106 106 106 107 107 107 108 108 108 108 108 108 109 109 109 110 110 110 110 110 110 111 111 111 112 112 112 112 112 112 113 113 113 114 114 114 114 114 114 115 115 115 116 116 116 116 116 116 117 117 117 118 118 118 118 118 118 119 119 119 120 120 120 120 120 120 121 121 121 122 122 122 123 123 123 123 123 123 124 124 124 125 125 125 125 125 125 126 126 126 127 127 127 127 127 127 128 128 128 129 129 129 129 129 129 130 130 130 130 130 130 131 131 131 132 132 132 132 132 132 100 52 2 100 52 2 99 51 2 99 51 2 106 55 2 106 55 2 106 55 2 106 55 2 106 55 2 107 55 2 107 55 2 107 55 2 107 55 2 107 55 2 59 31 1 60 31 1 60 31 1 60 31 1 60 31 1 60 31 1 61 32 1 61 32 1 61 32 1 54 52 50 47 46 44 115 114 112 111 110 107 143 143 143 143 143 143 143 143 143 143 143 143 144 144 144 144 144 144 144 144 144 143 143 143 143 143 143 143 143 143 143 143 143 143 143 143 143 143 143 143 143 143 143 143 143 142 142 142 142 142 142 142 142 142 142 142 142 141 141 141 141 141 141 141 141 141 140 140 140 140 140 140 139 139 139 139 139 139 139 139 139 138 138 138 138 138 138 137 137 137 34 33 30 43 42 40 148 147 144 149 147 145 149 148 146 150 149 146 150 149 147 151 150 147 151 150 148 151 150 148 152 150 148 152 150 148 46 24 1 46 24 1 46 24 1 46 24 1 46 24 1 58 30 1 58 30 1 57 30 1 57 30 1 57 30 1 102 53 2 102 53 2 101 52 2 101 52 2 101 52 2 120 120 120 119 119 119 118 118 118 118 118 118 117 117 117 116 116 116 116 116 116 115 115 115 114 114 114 113 113 113 113 113 113 112 112 112 111 111 111 111 111 111 110 110 110 109 109 109 109 109 109 108 108 108 107 107 107 107 107 107 106 106 106 105 105 105 105 105 105 104 104 104 104 104 104 103 103 103 102 102 102 102 102 102 101 101 101 100 100 100 100 100 100 99 99 99 99 99 99 98 98 98 97 97 97 97 97 97 96 96 96 96 96 96 95 95 95 94 94 94 94 94 94 93 93 93 93 93 93 92 92 92 92 92 92 91 91 91 91 91 91 90 90 90 90 90 90 89 89 89 89 89 89 88 88 88 87 87 87 87 87 87 86 86 86 86 86 86 86 86 86 85 85 85 85 85 85 84 84 84 84 84 84 
96 96 96 96 96 96 97 97 97 98 98 98 98 98 98 99 99 99 99 99 99 100 100 100 101 101 101 101 101 101 102 102 102 103 103 103 103 103 103 104 104 104 104 104 104 105 105 105 106 106 106 106 106 106 107 107 107 108 108 108 108 108 108 109 109 109 110 110 110 110 110 110 111 111 111 112 112 112 112 112 112 113 113 113 114 114 114 114 114 114 115 115 115 116 116 116 117 117 117 117 117 117 118 118 118 119 119 119 119 119 119 120 120 120 121 121 121 121 121 121 122 122 122 123 123 123 123 123 123 124 124 124 125 125 125 125 125 125 126 126 126 127 127 127 127 127 127 128 128 128 129 129 129 129 129 129 130 130 130 131 131 131 131 131 131 101 52 2 100 52 2 100 51 2 106 55 2 107 55 2 107 55 2 107 55 2 107 55 2 107 55 2 107 55 2 107 55 2 107 55 2 107 55 2 60 31 1 60 31 1 60 31 1 60 31 1 60 31 1 61 32 1 61 32 1 61 32 1 61 32 1 61 32 1 54 53 51 48 47 44 115 114 112 142 142 142 142 142 142 142 142 142 142 142 142 142 142 142 142 142 142 142 142 142 142 142 142 142 142 142 142 142 142 142 142 142 142 142 142 142 142 142 142 142 142 142 142 142 142 142 142 141 141 141 141 141 141 141 141 141 141 141 141 140 140 140 140 140 140 140 140 140 139 139 139 139 139 139 138 138 138 138 138 138 138 138 138 137 137 137 137 137 137 136 136 136 136 136 136 36 35 32 45 44 42 151 150 147 152 150 148 152 151 149 153 151 149 153 152 149 153 152 150 154 152 150 154 153 150 154 153 150 154 153 150 47 24 1 46 24 1 59 31 1 59 30 1 58 30 1 58 30 1 58 30 1 58 30 1 57 30 1 103 53 2 102 53 2 102 53 2 102 53 2 101 52 2 119 119 119 118 118 118 117 117 117 117 117 117 116 116 116 115 115 115 115 115 115 114 114 114 113 113 113 113 113 113 112 112 112 111 111 111 110 110 110 110 110 110 109 109 109 108 108 108 108 108 108 107 107 107 106 106 106 106 106 106 105 105 105 105 105 105 104 104 104 103 103 103 103 103 103 102 102 102 101 101 101 101 101 101 100 100 100 99 99 99 99 99 99 98 98 98 98 98 98 97 97 97 96 96 96 96 96 96 95 95 95 95 95 95 94 94 94 94 94 94 93 93 93 92 92 92 92 92 92 91 91 91 91 91 91 90 90 90 90 90 90 89 89 89 89 89 89 88 88 88 88 88 88 87 87 87 87 87 87 86 86 86 86 86 86 85 85 85 85 85 85 84 84 84 84 84 84 83 83 83 83 83 83 
95 95 95 95 95 95 96 96 96 96 96 96 97 97 97 98 98 98 98 98 98 99 99 99 99 99 99 100 100 100 101 101 101 101 101 101 102 102 102 103 103 103 103 103 103 104 104 104 105 105 105 105 105 105 106 106 106 107 107 107 107 107 107 108 108 108 108 108 108 109 109 109 110 110 110 111 111 111 111 111 111 112 112 112 113 113 113 113 113 113 114 114 114 115 115 115 115 115 115 116 116 116 117 117 117 117 117 117 118 118 118 119 119 119 119 119 119 120 120 120 121 121 121 121 121 121 122 122 122 123 123 123 123 123 123 124 124 124 125 125 125 125 125 125 126 126 126 127 127 127 127 127 127 128 128 128 129 129 129 129 129 129 101 52 2 101 52 2 100 52 2 100 52 2 107 55 2 107 55 2 107 55 2 107 55 2 108 55 2 108 56 2 108 56 2 108 56 2 108 56 2 108 56 2 60 31 1 60 31 1 60 31 1 61 32 1 61 32 1 61 32 1 61 32 1 61 32 1 62 32 1 61 60 58 55 54 51 48 47 45 141 141 141 141 141 141 141 141 141 141 141 141 141 141 141 141 141 141 141 141 141 141 141 141 141 141 141 141 141 141 141 141 141 141 141 141 141 141 141 141 141 141 141 141 141 140 140 140 140 140 140 140 140 140 140 140 140 140 140 140 139 139 139 139 139 139 139 139 139 138 138 138 138 138 138 138 138 138 137 137 137 137 137 137 136 136 136 136 136 136 135 135 135 135 135 135 134 134 134 134 134 134 38 37 34 47 46 44 154 153 150 154 153 151 155 154 151 155 154 152 156 154 152 156 155 152 156 155 152 156 155 152 156 155 152 60 31 1 59 31 1 59 31 1 59 31 1 59 31 1 58 30 1 58 30 1 58 30 1 58 30 1 57 30 1 103 53 2 103 53 2 102 53 2 102 53 2 102 53 2 117 117 117 116 116 116 116 116 116 115 115 115 114 114 114 114 114 114 113 113 113 112 112 112 111 111 111 111 111 111 110 110 110 109 109 109 109 109 109 108 108 108 107 107 107 107 107 107 106 106 106 105 105 105 105 105 105 104 104 104 104 104 104 103 103 103 102 102 102 102 102 102 101 101 101 100 100 100 100 100 100 99 99 99 99 99 99 98 98 98 97 97 97 97 97 97 96 96 96 96 96 96 95 95 95 94 94 94 94 94 94 93 93 93 93 93 93 92 92 92 92 92 92 91 91 91 91 91 91 90 90 90 89 89 89 89 89 89 88 88 88 88 88 88 87 87 87 87 87 87 86 86 86 86 86 86 85 85 85 85 85 85 84 84 84 84 84 84 83 83 83 83 83 83 82 82 82 82 82 82 
94 94 94 94 94 94 95 95 95 95 95 95 96 96 96 96 96 96 97 97 97 98 98 98 98 98 98 99 99 99 100 100 100 100 100 100 101 101 101 101 101 101 102 102 102 103 103 103 103 103 103 104 104 104 105 105 105 105 105 105 106 106 106 107 107 107 107 107 107 108 108 108 109 109 109 109 109 109 110 110 110 111 111 111 111 111 111 112 112 112 113 113 113 113 113 113 114 114 114 115 115 115 115 115 115 116 116 116 117 117 117 117 117 117 118 118 118 119 119 119 119 119 119 120 120 120 121 121 121 121 121 121 122 122 122 123 123 123 123 123 123 124 124 124 125 125 125 125 125 125 126 126 126 127 127 127 127 127 127 128 128 128 102 53 2 101 52 2 101 52 2 100 52 2 108 56 2 108 56 2 108 56 2 108 56 2 108 56 2 108 56 2 108 56 2 108 56 2 108 56 2 108 56 2 60 31 1 61 32 1 61 32 1 61 32 1 61 32 1 61 32 1 62 32 1 62 32 1 62 32 1 62 61 58 55 54 52 49 48 45 139 139 139 139 139 139 139 139 139 140 140 140 140 140 140 140 140 140 140 140 140 140 140 140 140 140 140 140 140 140 140 140 140 140 140 140 140 140 140 139 139 139 139 139 139 139 139 139 139 139 139 139 139 139 138 138 138 26 14 14 26 14 14 26 14 14 137 137 137 137 137 137 137 137 137 136 136 136 136 136 136 135 135 135 135 135 135 135 135 135 134 134 134 134 134 134 133 133 133 133 133 133 132 132 132 40 38 36 49 48 46 157 155 153 157 156 153 157 156 154 158 157 154 158 157 154 158 157 154 158 157 154 42 41 39 43 42 40 60 31 1 60 31 1 59 31 1 59 31 1 59 31 1 59 31 1 58 30 1 58 30 1 58 30 1 104 54 2 104 53 2 103 53 2 103 53 2 102 53 2 116 116 116 115 115 115 114 114 114 114 114 114 113 113 113 112 112 112 112 112 112 111 111 111 110 110 110 110 110 110 109 109 109 108 108 108 108 108 108 107 107 107 106 106 106 106 106 106 105 105 105 104 104 104 104 104 104 103 103 103 103 103 103 102 102 102 101 101 101 101 101 101 100 100 100 99 99 99 99 99 99 98 98 98 98 98 98 97 97 97 96 96 96 96 96 96 95 95 95 95 95 95 94 94 94 93 93 93 93 93 93 92 92 92 92 92 92 91 91 91 91 91 91 90 90 90 90 90 90 89 89 89 89 89 89 88 88 88 87 87 87 87 87 87 86 86 86 86 86 86 85 85 85 85 85 85 84 84 84 84 84 84 83 83 83 83 83 83 83 83 83 82 82 82 82 82 82 81 81 81 
92 92 92 93 93 93 94 94 94 94 94 94 95 95 95 95 95 95 96 96 96 96 96 96 97 97 97 98 98 98 98 98 98 99 99 99 99 99 99 100 100 100 101 101 101 101 101 101 102 102 102 103 103 103 103 103 103 104 104 104 105 105 105 105 105 105 106 106 106 106 106 106 107 107 107 108 108 108 108 108 108 109 109 109 110 110 110 110 110 110 111 111 111 112 112 112 112 112 112 113 113 113 114 114 114 114 114 114 115 115 115 116 116 116 116 116 116 117 117 117 118 118 118 118 118 118 119 119 119 120 120 120 120 120 120 121 121 121 122 122 122 122 122 122 123 123 123 124 124 124 124 124 124 125 125 125 126 126 126 103 53 2 102 53 2 102 52 2 101 52 2 108 56 2 108 56 2 108 56 2 108 56 2 109 56 2 109 56 2 109 56 2 109 56 2 109 56 2 109 56 2 60 31 1 61 32 1 61 32 1 61 32 1 61 32 1 62 32 1 62 32 1 62 32 1 62 32 1 63 33 1 62 61 59 56 55 52 49 48 45 137 137 137 138 138 138 138 138 138 138 138 138 138 138 138 138 138 138 138 138 138 138 138 138 138 138 138 138 138 138 138 138 138 138 138 138 138 138 138 138 138 138 138 138 138 138 138 138 26 14 14 22 10 10 18 6 6 17 4 4 15 3 3 17 4 4 18 6 5 20 8 7 24 12 12 135 135 135 134 134 134 134 134 134 134 134 134 133 133 133 133 133 133 132 132 132 132 132 132 131 131 131 131 131 131 130 130 130 42 40 38 51 50 48 159 158 156 160 158 156 160 159 156 160 159 157 42 41 38 43 42 39 44 43 40 45 43 41 60 31 1 60 31 1 60 31 1 60 31 1 59 31 1 59 31 1 59 31 1 59 30 1 58 30 1 104 54 2 104 54 2 104 54 2 104 53 2 103 53 2 115 115 115 114 114 114 113 113 113 113 113 113 112 112 112 111 111 111 111 111 111 110 110 110 109 109 109 109 109 109 108 108 108 107 107 107 107 107 107 106 106 106 105 105 105 105 105 105 104 104 104 103 103 103 103 103 103 102 102 102 101 101 101 101 101 101 100 100 100 100 100 100 99 99 99 98 98 98 98 98 98 97 97 97 97 97 97 96 96 96 95 95 95 95 95 95 94 94 94 94 94 94 93 93 93 92 92 92 92 92 92 91 91 91 91 91 91 90 90 90 90 90 90 89 89 89 89 89 89 88 88 88 88 88 88 87 87 87 87 87 87 86 86 86 86 86 86 85 85 85 85 85 85 84 84 84 84 84 84 83 83 83 83 83 83 82 82 82 82 82 82 81 81 81 81 81 81 80 80 80 
91 91 91 92 92 92 92 92 92 93 93 93 93 93 93 94 94 94 95 95 95 95 95 95 96 96 96 96 96 96 97 97 97 97 97 97 98 98 98 99 99 99 99 99 99 100 100 100 101 101 101 101 101 101 102 102 102 102 102 102 103 103 103 104 104 104 104 104 104 105 105 105 106 106 106 106 106 106 107 107 107 108 108 108 108 108 108 109 109 109 110 110 110 110 110 110 111 111 111 112 112 112 112 112 112 113 113 113 114 114 114 114 114 114 115 115 115 116 116 116 116 116 116 117 117 117 118 118 118 118 118 118 119 119 119 119 119 119 120 120 120 121 121 121 121 121 121 122 122 122 123 123 123 123 123 123 124 124 124 103 53 2 102 53 2 102 53 2 101 52 2 109 56 2 109 56 2 109 56 2 109 56 2 109 56 2 109 56 2 109 56 2 109 56 2 109 56 2 110 56 2 61 32 1 61 32 1 61 32 1 62 32 1 62 32 1 62 32 1 62 32 1 63 33 1 63 33 1 70 68 66 63 62 60 56 55 53 136 136 136 136 136 136 136 136 136 136 136 136 136 136 136 136 136 136 136 136 136 136 136 136 136 136 136 136 136 136 136 136 136 136 136 136 136 136 136 136 136 136 136 136 136 26 14 14 25 13 12 18 6 6 15 3 3 13 1 1 13 0 0 15 1 0 15 1 0 15 1 0 13 1 1 14 2 2 17 5 5 21 9 9 132 132 132 132 132 132 132 132 132 131 131 131 131 131 131 130 130 130 130 130 130 129 129 129 129 129 129 128 128 128 43 42 40 53 52 50 162 161 158 162 161 159 43 41 39 44 42 40 44 43 41 45 44 42 46 45 43 61 32 1 61 31 1 60 31 1 60 31 1 60 31 1 59 31 1 59 31 1 59 31 1 59 31 1 58 30 1 105 54 2 105 54 2 104 54 2 104 54 2 103 53 2 113 113 113 112 112 112 111 111 111 111 111 111 110 110 110 109 109 109 109 109 109 108 108 108 107 107 107 107 107 107 106 106 106 105 105 105 105 105 105 104 104 104 103 103 103 103 103 103 102 102 102 101 101 101 101 101 101 100 100 100 100 100 100 99 99 99 98 98 98 98 98 98 97 97 97 97 97 97 96 96 96 95 95 95 95 95 95 94 94 94 94 94 94 93 93 93 93 93 93 92 92 92 91 91 91 91 91 91 90 90 90 90 90 90 89 89 89 89 89 89 88 88 88 88 88 88 87 87 87 87 87 87 86 86 86 86 86 86 85 85 85 85 85 85 84 84 84 84 84 84 83 83 83 83 83 83 82 82 82 82 82 82 81 81 81 81 81 81 80 80 80 80 80 80 79 79 79 
90 90 90 90 90 90 91 91 91 91 91 91 92 92 92 93 93 93 93 93 93 94 94 94 94 94 94 95 95 95 96 96 96 96 96 96 97 97 97 97 97 97 98 98 98 99 99 99 99 99 99 100 100 100 100 100 100 101 101 101 102 102 102 102 102 102 103 103 103 103 103 103 104 104 104 105 105 105 105 105 105 106 106 106 107 107 107 107 107 107 108 108 108 109 109 109 109 109 109 110 110 110 111 111 111 111 111 111 112 112 112 113 113 113 113 113 113 114 114 114 115 115 115 115 115 115 116 116 116 116 116 116 117 117 117 118 118 118 118 118 118 119 119 119 120 120 120 120 120 120 121 121 121 121 121 121 122 122 122 103 53 2 103 53 2 102 53 2 101 52 2 109 56 2 109 56 2 109 56 2 110 56 2 110 57 2 110 57 2 110 57 2 110 57 2 110 57 2 110 57 2 61 32 1 61 32 1 62 32 1 62 32 1 62 32 1 62 32 1 63 33 1 63 33 1 63 33 1 70 69 67 64 63 60 57 56 53 134 134 134 134 134 134 134 134 134 134 134 134 134 134 134 134 134 134 134 134 134 134 134 134 134 134 134 134 134 134 134 134 134 134 134 134 134 134 134 26 14 14 26 14 14 19 7 6 12 0 0 12 0 0 15 2 0 24 12 12 24 12 12 23 11 11 23 11 11 23 11 11 23 11 11 24 12 12 15 1 0 12 0 0 15 3 2 25 13 13 130 130 130 129 129 129 129 129 129 128 128 128 128 128 128 127 127 127 127 127 127 126 126 126 126 126 126 45 44 42 42 41 38 43 42 39 44 43 41 45 44 41 46 45 42 47 46 43 48 47 44 49 47 45 61 32 1 61 32 1 60 31 1 60 31 1 60 31 1 60 31 1 59 31 1 59 31 1 59 31 1 106 54 2 105 54 2 105 54 2 105 54 2 104 54 2 111 111 111 110 110 110 110 110 110 109 109 109 109 109 109 108 108 108 107 107 107 107 107 107 106 106 106 105 105 105 105 105 105 104 104 104 103 103 103 103 103 103 102 102 102 101 101 101 101 101 101 100 100 100 100 100 100 99 99 99 98 98 98 98 98 98 97 97 97 97 97 97 96 96 96 95 95 95 95 95 95 94 94 94 94 94 94 93 93 93 93 93 93 92 92 92 91 91 91 91 91 91 90 90 90 90 90 90 89 89 89 89 89 89 88 88 88 88 88 88 87 87 87 87 87 87 86 86 86 86 86 86 85 85 85 85 85 85 84 84 84 84 84 84 83 83 83 83 83 83 82 82 82 82 82 82 81 81 81 81 81 81 80 80 80 80 80 80 79 79 79 79 79 79 78 78 78 
89 89 89 89 89 89 90 90 90 90 90 90 91 91 91 91 91 91 92 92 92 92 92 92 93 93 93 94 94 94 94 94 94 95 95 95 95 95 95 96 96 96 96 96 96 97 97 97 98 98 98 98 98 98 99 99 99 99 99 99 100 100 100 101 101 101 101 101 101 102 102 102 103 103 103 103 103 103 104 104 104 104 104 104 105 105 105 106 106 106 106 106 106 107 107 107 108 108 108 108 108 108 109 109 109 110 110 110 110 110 110 111 111 111 111 111 111 112 112 112 113 113 113 113 113 113 114 114 114 115 115 115 115 115 115 116 116 116 117 117 117 117 117 117 118 118 118 118 118 118 119 119 119 120 120 120 104 54 2 104 53 2 103 53 2 102 53 2 110 56 2 110 57 2 110 57 2 110 57 2 110 57 2 110 57 2 110 57 2 110 57 2 110 57 2 111 57 2 61 32 1 62 32 1 62 32 1 62 32 1 62 32 1 63 33 1 63 33 1 63 33 1 63 33 1 64 33 1 71 70 68 64 63 61 57 56 54 131 131 131 132 132 132 132 132 132 132 132 132 132 132 132 132 132 132 132 132 132 132 132 132 132 132 132 132 132 132 132 132 132 132 132 132 26 14 14 25 13 13 22 10 10 13 1 0 12 0 0 16 2 0 23 11 11 23 11 11 23 11 11 23 11 11 23 11 11 23 11 11 23 11 11 23 11 11 23 11 11 23 11 11 12 0 0 15 3 2 25 13 13 127 127 127 127 127 127 127 127 127 126 126 126 126 126 126 125 125 125 125 125 125 124 124 124 124 124 124 27 26 24 45 43 41 46 44 42 47 45 43 48 46 44 49 47 45 49 48 46 50 49 47 61 32 1 61 32 1 61 32 1 61 32 1 60 31 1 60 31 1 60 31 1 59 31 1 59 31 1 106 55 2 106 55 2 106 54 2 105 54 2 105 54 2 110 110 110 109 109 109 108 108 108 108 108 108 107 107 107 106 106 106 106 106 106 105 105 105 105 105 105 104 104 104 103 103 103 103 103 103 102 102 102 101 101 101 101 101 101 100 100 100 100 100 100 99 99 99 98 98 98 98 98 98 97 97 97 97 97 97 96 96 96 95 95 95 95 95 95 94 94 94 94 94 94 93 93 93 92 92 92 92 92 92 91 91 91 91 91 91 90 90 90 90 90 90 89 89 89 89 89 89 88 88 88 88 88 88 87 87 87 86 86 86 86 86 86 85 85 85 85 85 85 84 84 84 84 84 84 83 83 83 83 83 83 82 82 82 82 82 82 82 82 82 81 81 81 81 81 81 80 80 80 80 80 80 79 79 79 79 79 79 78 78 78 78 78 78 77 77 77 
87 87 87 88 88 88 88 88 88 89 89 89 89 89 89 90 90 90 90 90 90 91 91 91 91 91 91 92 92 92 93 93 93 93 93 93 94 94 94 94 94 94 95 95 95 95 95 95 96 96 96 97 97 97 97 97 97 98 98 98 98 98 98 99 99 99 100 100 100 100 100 100 101 101 101 102 102 102 102 102 102 103 103 103 103 103 103 104 104 104 105 105 105 105 105 105 106 106 106 106 106 106 107 107 107 108 108 108 108 108 108 109 109 109 110 110 110 110 110 110 111 111 111 111 111 111 112 112 112 113 113 113 113 113 113 114 114 114 115 115 115 115 115 115 116 116 116 116 116 116 117 117 117 118 118 118 105 54 2 104 54 2 103 53 2 67 35 1 95 49 2 95 49 2 95 49 2 95 49 2 95 49 2 96 49 2 96 49 2 96 49 2 96 49 2 96 50 2 77 40 2 77 40 2 78 40 2 63 33 1 63 33 1 63 33 1 63 33 1 64 33 1 64 33 1 79 77 75 72 71 68 65 64 61 129 129 129 129 129 129 129 129 129 130 130 130 130 130 130 130 130 130 130 130 130 130 130 130 130 130 130 130 130 130 130 130 130 130 130 130 130 130 130 26 14 14 23 11 11 14 2 1 12 0 0 16 2 0 23 11 11 23 11 11 22 10 10 22 10 10 22 10 10 22 10 10 22 10 10 22 10 10 22 10 10 22 10 10 23 11 11 23 11 11 12 0 0 16 4 4 125 125 125 125 125 125 125 125 125 124 124 124 124 124 124 123 123 123 123 123 123 122 122 122 122 122 122 25 23 21 46 45 43 47 46 44 48 47 45 49 48 46 50 49 47 51 50 47 52 51 48 62 32 1 62 32 1 61 32 1 61 32 1 61 32 1 60 31 1 60 31 1 60 31 1 60 31 1 59 31 1 107 55 2 106 55 2 106 55 2 105 54 2 105 54 2 107 107 107 107 107 107 106 106 106 106 106 106 105 105 105 104 104 104 104 104 104 103 103 103 102 102 102 102 102 102 101 101 101 101 101 101 100 100 100 99 99 99 99 99 99 98 98 98 98 98 98 97 97 97 96 96 96 96 96 96 95 95 95 95 95 95 94 94 94 93 93 93 93 93 93 92 92 92 92 92 92 91 91 91 91 91 91 90 90 90 90 90 90 89 89 89 88 88 88 88 88 88 87 87 87 87 87 87 86 86 86 86 86 86 85 85 85 85 85 85 84 84 84 84 84 84 83 83 83 83 83 83 82 82 82 82 82 82 81 81 81 81 81 81 80 80 80 80 80 80 80 80 80 79 79 79 79 79 79 78 78 78 78 78 78 77 77 77 77 77 77 76 76 76 
86 86 86 86 86 86 87 87 87 87 87 87 88 88 88 88 88 88 89 89 89 89 89 89 90 90 90 91 91 91 91 91 91 92 92 92 92 92 92 93 93 93 93 93 93 94 94 94 94 94 94 95 95 95 96 96 96 96 96 96 97 97 97 97 97 97 98 98 98 99 99 99 99 99 99 100 100 100 100 100 100 101 101 101 102 102 102 102 102 102 103 103 103 103 103 103 104 104 104 105 105 105 105 105 105 106 106 106 106 106 106 107 107 107 108 108 108 108 108 108 109 109 109 110 110 110 110 110 110 111 111 111 111 111 111 112 112 112 113 113 113 113 113 113 114 114 114 114 114 114 115 115 115 115 115 115 105 54 2 68 35 1 68 35 1 67 35 1 96 49 2 96 49 2 96 49 2 96 50 2 96 50 2 96 50 2 96 50 2 96 50 2 96 50 2 96 50 2 96 50 2 78 40 2 78 40 2 78 41 2 79 41 2 79 41 2 80 41 2 64 33 1 64 33 1 80 78 76 73 72 69 66 65 62 127 127 127 127 127 127 127 127 127 127 127 127 127 127 127 128 128 128 128 128 128 128 128 128 128 128 128 128 128 128 128 128 128 128 128 128 26 14 14 22 9 9 16 4 3 13 1 1 12 0 0 22 10 10 22 10 10 22 10 10 22 10 10 21 9 9 21 9 9 21 9 9 21 9 9 21 9 9 22 10 10 22 10 10 22 10 10 22 10 10 23 11 11 13 1 1 27 15 14 123 123 123 122 122 122 122 122 122 122 122 122 121 121 121 121 121 121 120 120 120 120 120 120 22 21 18 48 47 44 49 48 45 50 49 46 51 50 47 52 51 48 53 51 49 53 52 50 54 53 51 62 32 1 62 32 1 61 32 1 61 32 1 61 32 1 61 32 1 60 31 1 60 31 1 60 31 1 107 55 2 107 55 2 107 55 2 106 55 2 106 55 2 106 106 106 105 105 105 105 105 105 104 104 104 103 103 103 103 103 103 102 102 102 101 101 101 101 101 101 100 100 100 100 100 100 99 99 99 98 98 98 98 98 98 97 97 97 97 97 97 96 96 96 96 96 96 95 95 95 94 94 94 94 94 94 93 93 93 93 93 93 92 92 92 92 92 92 91 91 91 90 90 90 90 90 90 89 89 89 89 89 89 88 88 88 88 88 88 87 87 87 87 87 87 86 86 86 86 86 86 85 85 85 85 85 85 84 84 84 84 84 84 83 83 83 83 83 83 82 82 82 82 82 82 81 81 81 81 81 81 80 80 80 80 80 80 79 79 79 79 79 79 78 78 78 78 78 78 78 78 78 77 77 77 77 77 77 76 76 76 76 76 76 75 75 75 
84 84 84 85 85 85 85 85 85 86 86 86 86 86 86 87 87 87 87 87 87 88 88 88 88 88 88 89 89 89 90 90 90 90 90 90 91 91 91 91 91 91 92 92 92 92 92 92 93 93 93 93 93 93 94 94 94 95 95 95 95 95 95 96 96 96 96 96 96 97 97 97 97 97 97 98 98 98 99 99 99 99 99 99 100 100 100 100 100 100 101 101 101 102 102 102 102 102 102 103 103 103 103 103 103 104 104 104 105 105 105 105 105 105 106 106 106 106 106 106 107 107 107 108 108 108 108 108 108 109 109 109 109 109 109 110 110 110 110 110 110 111 111 111 112 112 112 112 112 112 113 113 113 69 36 1 69 36 1 68 35 1 68 35 1 68 35 1 68 35 1 96 50 2 96 50 2 96 50 2 97 50 2 97 50 2 97 50 2 97 50 2 97 50 2 97 50 2 97 50 2 78 40 2 78 41 2 79 41 2 79 41 2 80 41 2 80 41 2 80 42 2 81 42 2 80 79 77 74 72 70 66 65 63 124 124 124 124 124 124 125 125 125 125 125 125 125 125 125 125 125 125 125 125 125 125 125 125 125 125 125 125 125 125 125 125 125 125 125 125 25 13 13 16 4 3 12 0 0 12 0 0 17 3 0 21 9 9 21 9 9 21 9 9 21 9 9 20 8 8 20 8 8 20 8 8 20 8 8 20 8 8 21 9 9 21 9 9 21 9 9 21 9 9 22 10 10 16 2 0 12 0 0 121 121 121 120 120 120 120 120 120 119 119 119 119 119 119 118 118 118 118 118 118 117 117 117 117 117 117 34 33 30 51 49 47 52 50 48 53 51 49 54 52 50 54 53 51 55 54 52 56 55 52 62 32 1 62 32 1 62 32 1 62 32 1 61 32 1 61 32 1 61 32 1 60 31 1 60 31 1 108 56 2 108 55 2 107 55 2 107 55 2 106 55 2 104 104 104 103 103 103 103 103 103 102 102 102 102 102 102 101 101 101 100 100 100 100 100 100 99 99 99 99 99 99 98 98 98 98 98 98 97 97 97 96 96 96 96 96 96 95 95 95 95 95 95 94 94 94 93 93 93 93 93 93 92 92 92 92 92 92 91 91 91 91 91 91 90 90 90 90 90 90 89 89 89 89 89 89 88 88 88 87 87 87 87 87 87 86 86 86 86 86 86 85 85 85 85 85 85 84 84 84 84 84 84 83 83 83 83 83 83 82 82 82 82 82 82 81 81 81 81 81 81 80 80 80 80 80 80 80 80 80 79 79 79 79 79 79 78 78 78 78 78 78 77 77 77 77 77 77 76 76 76 76 76 76 76 76 76 75 75 75 75 75 75 74 74 74 
83 83 83 83 83 83 84 84 84 84 84 84 85 85 85 85 85 85 86 86 86 86 86 86 87 87 87 87 87 87 88 88 88 88 88 88 89 89 89 90 90 90 90 90 90 91 91 91 91 91 91 92 92 92 92 92 92 93 93 93 93 93 93 94 94 94 95 95 95 95 95 95 96 96 96 96 96 96 97 97 97 97 97 97 98 98 98 98 98 98 99 99 99 100 100 100 100 100 100 101 101 101 101 101 101 102 102 102 103 103 103 103 103 103 104 104 104 104 104 104 105 105 105 105 105 105 106 106 106 107 107 107 107 107 107 108 108 108 108 108 108 109 109 109 109 109 109 110 110 110 110 110 110 69 36 1 69 36 1 69 36 1 69 36 1 68 35 1 68 35 1 97 50 2 97 50 2 97 50 2 97 50 2 97 50 2 97 50 2 97 50 2 98 50 2 98 50 2 98 50 2 79 41 2 79 41 2 79 41 2 80 41 2 80 41 2 80 42 2 81 42 2 81 42 2 77 66 54 74 73 71 121 121 121 122 122 122 122 122 122 122 122 122 122 122 122 122 122 122 122 122 122 123 123 123 123 123 123 123 123 123 123 123 123 123 123 123 25 13 13 24 12 12 19 7 7 12 0 0 12 0 0 21 9 9 20 8 8 20 8 8 19 7 7 19 7 7 19 7 7 19 7 7 19 7 7 19 7 7 19 7 7 19 7 7 19 7 7 20 8 8 20 8 8 21 9 9 21 9 9 12 0 0 18 6 6 118 118 118 117 117 117 117 117 117 117 117 117 116 116 116 116 116 116 115 115 115 115 115 115 31 30 27 52 51 49 53 52 50 54 53 51 55 54 52 56 55 52 57 56 53 58 56 54 63 33 1 63 33 1 62 32 1 62 32 1 62 32 1 61 32 1 61 32 1 61 32 1 60 31 1 108 56 2 108 56 2 108 56 2 108 55 2 107 55 2 107 55 2 102 102 102 101 101 101 101 101 101 100 100 100 99 99 99 99 99 99 98 98 98 98 98 98 97 97 97 96 96 96 96 96 96 95 95 95 95 95 95 94 94 94 94 94 94 93 93 93 93 93 93 92 92 92 91 91 91 91 91 91 90 90 90 90 90 90 89 89 89 89 89 89 88 88 88 88 88 88 87 87 87 87 87 87 86 86 86 86 86 86 85 85 85 85 85 85 84 84 84 84 84 84 83 83 83 83 83 83 82 82 82 82 82 82 81 81 81 81 81 81 80 80 80 80 80 80 79 79 79 79 79 79 78 78 78 78 78 78 77 77 77 77 77 77 77 77 77 76 76 76 76 76 76 75 75 75 75 75 75 74 74 74 74 74 74 74 74 74 73 73 73 
81 81 81 82 82 82 82 82 82 83 83 83 83 83 83 84 84 84 84 84 84 85 85 85 85 85 85 86 86 86 86 86 86 87 87 87 87 87 87 88 88 88 88 88 88 89 89 89 89 89 89 90 90 90 91 91 91 91 91 91 92 92 92 92 92 92 93 93 93 93 93 93 94 94 94 94 94 94 95 95 95 95 95 95 96 96 96 97 97 97 97 97 97 98 98 98 98 98 98 99 99 99 99 99 99 100 100 100 100 100 100 101 101 101 102 102 102 102 102 102 103 103 103 103 103 103 104 104 104 104 104 104 105 105 105 105 105 105 106 106 106 107 107 107 107 107 107 108 108 108 108 108 108 109 109 109 70 36 1 69 36 1 69 36 1 69 36 1 68 36 1 97 50 2 97 50 2 98 50 2 98 50 2 98 51 2 98 51 2 98 51 2 98 51 2 98 51 2 98 51 2 79 41 2 79 41 2 80 41 2 80 41 2 80 42 2 81 42 2 81 42 2 82 42 2 83 72 59 75 74 72 119 119 119 119 119 119 119 119 119 119 119 119 120 120 120 120 120 120 120 120 120 120 120 120 120 120 120 120 120 120 120 120 120 120 120 120 24 12 12 18 6 6 12 0 0 12 0 0 12 0 0 19 7 7 18 6 6 17 5 5 17 5 5 17 5 5 17 5 5 16 4 4 17 5 5 17 5 5 17 5 5 17 5 5 18 6 6 18 6 6 19 7 7 19 7 7 20 8 8 18 3 0 12 0 0 115 115 115 115 115 115 115 115 115 114 114 114 114 114 114 113 113 113 113 113 113 112 112 112 28 27 24 54 53 51 55 54 52 56 55 53 57 56 53 58 57 54 59 57 55 59 58 56 63 33 1 63 33 1 63 33 1 62 32 1 62 32 1 62 32 1 62 32 1 61 32 1 61 32 1 61 32 1 109 56 2 109 56 2 108 56 2 108 56 2 107 55 2 100 100 100 99 99 99 99 99 99 98 98 98 98 98 98 97 97 97 96 96 96 96 96 96 95 95 95 95 95 95 94 94 94 94 94 94 93 93 93 93 93 93 92 92 92 92 92 92 91 91 91 90 90 90 90 90 90 89 89 89 89 89 89 88 88 88 88 88 88 87 87 87 87 87 87 86 86 86 86 86 86 85 85 85 85 85 85 84 84 84 84 84 84 83 83 83 83 83 83 82 82 82 82 82 82 81 81 81 81 81 81 80 80 80 80 80 80 79 79 79 79 79 79 79 79 79 78 78 78 78 78 78 77 77 77 77 77 77 76 76 76 76 76 76 75 75 75 75 75 75 75 75 75 74 74 74 74 74 74 73 73 73 73 73 73 73 73 73 72 72 72 
80 80 80 80 80 80 81 81 81 81 81 81 82 82 82 82 82 82 83 83 83 83 83 83 84 84 84 84 84 84 85 85 85 85 85 85 86 86 86 86 86 86 87 87 87 87 87 87 88 88 88 88 88 88 89 89 89 89 89 89 90 90 90 90 90 90 91 91 91 91 91 91 92 92 92 92 92 92 93 93 93 94 94 94 94 94 94 95 95 95 95 95 95 96 96 96 96 96 96 97 97 97 97 97 97 98 98 98 98 98 98 99 99 99 99 99 99 100 100 100 101 101 101 101 101 101 102 102 102 102 102 102 103 103 103 103 103 103 104 104 104 104 104 104 105 105 105 105 105 105 106 106 106 106 106 106 70 36 1 70 36 1 70 36 1 69 36 1 69 36 1 98 51 2 98 51 2 98 51 2 98 51 2 98 51 2 98 51 2 99 51 2 99 51 2 99 51 2 99 51 2 99 51 2 80 41 2 80 41 2 80 42 2 81 42 2 81 42 2 82 42 2 82 42 2 82 43 2 75 63 51 116 116 116 116 116 116 116 116 116 117 117 117 117 117 117 117 117 117 117 117 117 117 117 117 117 117 117 117 117 117 117 117 117 117 117 117 22 10 10 21 9 9 12 0 0 12 0 0 12 0 0 16 4 4 15 3 3 14 2 2 13 1 1 13 1 1 13 1 1 13 1 1 13 1 1 13 1 1 13 1 1 14 2 2 15 3 3 15 3 3 16 4 4 17 5 5 18 6 6 18 3 0 12 0 0 113 113 113 113 113 113 112 112 112 112 112 112 111 111 111 111 111 111 111 111 111 110 110 110 25 24 21 56 55 52 57 56 53 58 57 54 59 58 55 60 58 56 60 59 57 61 60 58 62 61 58 64 33 1 63 33 1 63 33 1 63 33 1 62 32 1 62 32 1 62 32 1 61 32 1 61 32 1 109 56 2 109 56 2 109 56 2 108 56 2 108 56 2 98 98 98 97 97 97 97 97 97 96 96 96 96 96 96 95 95 95 95 95 95 94 94 94 94 94 94 93 93 93 93 93 93 92 92 92 91 91 91 91 91 91 90 90 90 90 90 90 89 89 89 89 89 89 88 88 88 88 88 88 87 87 87 87 87 87 86 86 86 86 86 86 85 85 85 85 85 85 84 84 84 84 84 84 83 83 83 83 83 83 82 82 82 82 82 82 81 81 81 81 81 81 80 80 80 80 80 80 79 79 79 79 79 79 79 79 79 78 78 78 78 78 78 77 77 77 77 77 77 76 76 76 76 76 76 75 75 75 75 75 75 75 75 75 74 74 74 74 74 74 73 73 73 73 73 73 73 73 73 72 72 72 72 72 72 71 71 71 71 71 71 
78 78 78 79 79 79 79 79 79 80 80 80 80 80 80 81 81 81 81 81 81 82 82 82 82 82 82 83 83 83 83 83 83 84 84 84 84 84 84 84 84 84 85 85 85 85 85 85 86 86 86 86 86 86 87 87 87 87 87 87 88 88 88 88 88 88 89 89 89 90 90 90 90 90 90 91 91 91 91 91 91 92 92 92 92 92 92 93 93 93 93 93 93 94 94 94 94 94 94 95 95 95 95 95 95 96 96 96 96 96 96 97 97 97 97 97 97 98 98 98 98 98 98 99 99 99 99 99 99 100 100 100 100 100 100 101 101 101 101 101 101 102 102 102 102 102 102 103 103 103 103 103 103 104 104 104 71 37 1 70 37 1 70 36 1 70 36 1 69 36 1 98 51 2 99 51 2 99 51 2 99 51 2 99 51 2 99 51 2 99 51 2 99 51 2 99 51 2 99 51 2 99 51 2 80 41 2 80 42 2 81 42 2 81 42 2 82 42 2 82 43 2 83 43 2 83 43 2 81 69 56 113 113 113 114 114 114 114 114 114 114 114 114 114 114 114 114 114 114 114 114 114 114 114 114 114 114 114 115 115 115 115 115 115 23 11 11 21 9 9 24 11 11 13 1 1 14 1 0 14 1 0 12 0 0 12 0 0 12 0 0 12 0 0 12 0 0 12 0 0 12 0 0 12 0 0 12 0 0 12 0 0 12 0 0 12 0 0 12 0 0 13 1 1 14 2 2 16 4 4 18 3 0 12 0 0 22 10 10 110 110 110 110 110 110 109 109 109 109 109 109 109 109 109 108 108 108 108 108 108 107 107 107 38 37 34 59 58 55 60 59 56 61 59 57 61 60 58 62 61 59 63 62 59 64 62 60 64 33 1 64 33 1 63 33 1 63 33 1 63 33 1 62 32 1 62 32 1 62 32 1 61 32 1 110 57 2 110 57 2 109 56 2 109 56 2 109 56 2 96 96 96 95 95 95 95 95 95 94 94 94 94 94 94 93 93 93 93 93 93 92 92 92 92 92 92 91 91 91 91 91 91 90 90 90 90 90 90 89 89 89 89 89 89 88 88 88 88 88 88 87 87 87 87 87 87 86 86 86 86 86 86 85 85 85 85 85 85 84 84 84 84 84 84 83 83 83 83 83 83 82 82 82 82 82 82 81 81 81 81 81 81 80 80 80 80 80 80 79 79 79 79 79 79 79 79 79 78 78 78 78 78 78 77 77 77 77 77 77 76 76 76 76 76 76 76 76 76 75 75 75 75 75 75 74 74 74 74 74 74 73 73 73 73 73 73 73 73 73 72 72 72 72 72 72 71 71 71 71 71 71 71 71 71 70 70 70 70 70 70 
77 77 77 77 77 77 78 78 78 78 78 78 79 79 79 79 79 79 79 79 79 80 80 80 80 80 80 81 81 81 81 81 81 82 82 82 82 82 82 83 83 83 83 83 83 84 84 84 84 84 84 85 85 85 85 85 85 86 86 86 86 86 86 87 87 87 87 87 87 88 88 88 88 88 88 89 89 89 89 89 89 90 90 90 90 90 90 91 91 91 91 91 91 92 92 92 92 92 92 93 93 93 93 93 93 94 94 94 94 94 94 95 95 95 95 95 95 96 96 96 96 96 96 97 97 97 97 97 97 98 98 98 98 98 98 99 99 99 99 99 99 100 100 100 100 100 100 101 101 101 101 101 101 101 101 101 71 37 1 71 37 1 71 37 1 70 36 1 70 36 1 70 36 1 99 51 2 99 51 2 99 51 2 100 51 2 100 51 2 100 51 2 100 52 2 100 52 2 100 52 2 100 52 2 80 42 2 81 42 2 81 42 2 82 42 2 82 43 2 83 43 2 83 43 2 83 43 2 87 75 62 111 111 111 111 111 111 111 111 111 111 111 111 111 111 111 111 111 111 111 111 111 112 112 112 112 112 112 112 112 112 112 112 112 23 10 10 18 6 6 15 3 3 17 5 4 14 1 0 14 1 0 12 0 0 12 0 0 12 0 0 12 0 0 12 0 0 12 0 0 12 0 0 12 0 0 12 0 0 12 0 0 12 0 0 12 0 0 12 0 0 12 0 0 12 0 0 13 1 1 18 3 0 12 0 0 21 9 9 107 107 107 107 107 107 107 107 107 106 106 106 106 106 106 106 106 106 105 105 105 105 105 105 35 33 31 61 59 57 62 60 58 63 61 59 63 62 60 64 63 60 65 64 61 65 64 62 64 33 1 64 33 1 64 33 1 63 33 1 63 33 1 63 33 1 62 32 1 62 32 1 62 32 1 61 32 1 110 57 2 110 57 2 110 57 2 109 56 2 109 56 2 94 94 94 93 93 93 93 93 93 92 92 92 92 92 92 91 91 91 91 91 91 90 90 90 90 90 90 89 89 89 89 89 89 88 88 88 88 88 88 87 87 87 87 87 87 86 86 86 86 86 86 85 85 85 85 85 85 84 84 84 84 84 84 83 83 83 83 83 83 82 82 82 82 82 82 81 81 81 81 81 81 80 80 80 80 80 80 79 79 79 79 79 79 79 79 79 78 78 78 78 78 78 77 77 77 77 77 77 76 76 76 76 76 76 75 75 75 75 75 75 75 75 75 74 74 74 74 74 74 73 73 73 73 73 73 73 73 73 72 72 72 72 72 72 71 71 71 71 71 71 71 71 71 70 70 70 70 70 70 69 69 69 69 69 69 69 69 69 
75 75 75 76 76 76 76 76 76 77 77 77 77 77 77 77 77 77 78 78 78 78 78 78 79 79 79 79 79 79 80 80 80 80 80 80 81 81 81 81 81 81 81 81 81 82 82 82 82 82 82 83 83 83 83 83 83 84 84 84 84 84 84 85 85 85 85 85 85 86 86 86 86 86 86 87 87 87 87 87 87 88 88 88 88 88 88 89 89 89 89 89 89 90 90 90 90 90 90 91 91 91 91 91 91 91 91 91 92 92 92 92 92 92 93 93 93 93 93 93 94 94 94 94 94 94 95 95 95 95 95 95 96 96 96 96 96 96 97 97 97 97 97 97 98 98 98 98 98 98 99 99 99 99 99 99 72 37 1 71 37 1 71 37 1 71 37 1 70 37 1 70 36 2 100 52 2 100 52 2 100 52 2 100 52 2 100 52 2 100 52 2 100 52 2 100 52 2 101 52 2 101 52 2 81 42 2 81 42 2 82 42 2 82 42 2 83 43 2 83 43 2 83 43 2 84 43 2 92 81 68 78 66 53 108 108 108 108 108 108 108 108 108 108 108 108 108 108 108 109 109 109 109 109 109 109 109 109 109 109 109 109 109 109 42 10 10 16 4 4 13 1 1 19 7 7 14 1 0 14 1 0 20 4 0 12 0 0 12 0 0 12 0 0 12 0 0 12 0 0 12 0 0 12 0 0 12 0 0 12 0 0 12 0 0 12 0 0 12 0 0 12 0 0 12 0 0 12 0 0 20 4 0 14 1 0 21 9 9 105 105 105 105 105 105 104 104 104 104 104 104 103 103 103 103 103 103 103 103 103 102 102 102 31 30 28 63 61 59 64 62 60 64 63 61 65 64 62 66 65 62 26 15 3 26 15 3 81 42 2 81 42 2 80 42 2 80 41 2 79 41 2 79 41 2 78 41 2 78 40 2 78 40 2 96 50 2 96 50 2 96 49 2 95 49 2 110 57 2 110 57 2 92 92 92 91 91 91 91 91 91 90 90 90 90 90 90 89 89 89 89 89 89 88 88 88 88 88 88 87 87 87 87 87 87 86 86 86 86 86 86 85 85 85 85 85 85 84 84 84 84 84 84 83 83 83 83 83 83 82 82 82 82 82 82 82 82 82 81 81 81 81 81 81 80 80 80 80 80 80 79 79 79 79 79 79 78 78 78 78 78 78 77 77 77 77 77 77 77 77 77 76 76 76 76 76 76 75 75 75 75 75 75 75 75 75 74 74 74 74 74 74 73 73 73 73 73 73 72 72 72 72 72 72 72 72 72 71 71 71 71 71 71 71 71 71 70 70 70 70 70 70 69 69 69 69 69 69 69 69 69 68 68 68 68 68 68 68 68 68 
74 74 74 74 74 74 75 75 75 75 75 75 75 75 75 76 76 76 76 76 76 77 77 77 77 77 77 77 77 77 78 78 78 78 78 78 79 79 79 79 79 79 80 80 80 80 80 80 81 81 81 81 81 81 81 81 81 82 82 82 82 82 82 83 83 83 83 83 83 84 84 84 84 84 84 85 85 85 85 85 85 86 86 86 86 86 86 87 87 87 87 87 87 87 87 87 88 88 88 88 88 88 89 89 89 89 89 89 90 90 90 90 90 90 91 91 91 91 91 91 92 92 92 92 92 92 93 93 93 93 93 93 93 93 93 94 94 94 94 94 94 95 95 95 95 95 95 96 96 96 96 96 96 96 96 96 97 97 97 72 37 1 72 37 1 71 37 1 71 37 1 71 37 2 100 52 2 100 52 2 101 52 2 101 52 2 101 52 2 101 52 2 101 52 2 101 52 2 101 52 2 101 52 2 81 42 2 82 42 2 82 42 2 82 43 2 83 43 2 83 43 2 84 43 2 84 44 2 85 44 2 84 72 59 105 105 105 105 105 105 105 105 105 105 105 105 106 106 106 106 106 106 106 106 106 106 106 106 106 106 106 106 106 106 106 106 106 18 3 3 12 0 0 22 10 9 14 1 0 14 1 0 20 4 0 12 0 0 12 0 0 12 0 0 12 0 0 12 0 0 12 0 0 12 0 0 12 0 0 12 0 0 12 0 0 12 0 0 12 0 0 12 0 0 12 0 0 12 0 0 14 1 0 14 1 0 102 102 102 102 102 102 102 102 102 102 102 102 101 101 101 101 101 101 101 101 101 100 100 100 100 100 100 99 99 99 45 44 42 26 15 2 26 15 2 27 15 2 27 15 3 27 15 3 27 16 3 82 42 2 81 42 2 81 42 2 80 42 2 80 41 2 79 41 2 79 41 2 78 41 2 78 40 2 97 50 2 97 50 2 96 50 2 96 50 2 96 49 2 95 49 2 90 90 90 89 89 89 89 89 89 88 88 88 88 88 88 87 87 87 87 87 87 86 86 86 86 86 86 85 85 85 85 85 85 84 84 84 84 84 84 84 84 84 83 83 83 83 83 83 82 82 82 82 82 82 81 81 81 81 81 81 80 80 80 80 80 80 79 79 79 79 79 79 79 79 79 78 78 78 78 78 78 77 77 77 77 77 77 76 76 76 76 76 76 76 76 76 75 75 75 75 75 75 74 74 74 74 74 74 74 74 74 73 73 73 73 73 73 72 72 72 72 72 72 72 72 72 71 71 71 71 71 71 70 70 70 70 70 70 70 70 70 69 69 69 69 69 69 68 68 68 68 68 68 68 68 68 67 67 67 67 67 67 67 67 67 66 66 66 
72 72 72 73 73 73 73 73 73 73 73 73 74 74 74 74 74 74 75 75 75 75 75 75 75 75 75 76 76 76 76 76 76 77 77 77 77 77 77 77 77 77 78 78 78 78 78 78 79 79 79 79 79 79 80 80 80 80 80 80 80 80 80 81 81 81 81 81 81 82 82 82 82 82 82 83 83 83 83 83 83 84 84 84 84 84 84 84 84 84 85 85 85 85 85 85 86 86 86 86 86 86 87 87 87 87 87 87 88 88 88 88 88 88 88 88 88 89 89 89 89 89 89 90 90 90 90 90 90 91 91 91 91 91 91 91 91 91 92 92 92 92 92 92 93 93 93 93 93 93 94 94 94 94 94 94 94 94 94 73 38 2 72 37 1 72 37 1 72 37 2 71 37 2 101 52 2 101 52 2 101 52 2 101 52 2 101 52 2 101 52 2 102 52 2 102 52 2 102 52 2 102 53 2 102 53 2 82 42 2 82 43 2 83 43 2 83 43 2 84 43 2 84 44 2 85 44 2 85 44 2 90 79 65 102 102 102 102 102 102 102 102 102 102 102 102 103 103 103 103 103 103 103 103 103 103 103 103 103 103 103 103 103 103 103 103 103 38 2 2 15 0 0 24 12 12 26 14 14 14 1 0 18 3 0 22 5 0 12 0 0 12 0 0 12 0 0 12 0 0 12 0 0 12 0 0 12 0 0 12 0 0 12 0 0 12 0 0 12 0 0 12 0 0 12 0 0 20 4 0 14 1 0 17 5 4 100 100 100 100 100 100 99 99 99 99 99 99 99 99 99 98 98 98 98 98 98 98 98 98 97 97 97 97 97 97 27 15 2 27 15 2 27 15 3 27 16 3 27 16 3 27 16 4 28 16 4 82 42 2 82 42 2 81 42 2 81 42 2 80 42 2 80 41 2 79 41 2 79 41 2 78 41 2 97 50 2 97 50 2 97 50 2 96 50 2 96 50 2 96 49 2 87 87 87 87 87 87 87 87 87 86 86 86 86 86 86 85 85 85 85 85 85 84 84 84 84 84 84 83 83 83 83 83 83 83 83 83 82 82 82 82 82 82 81 81 81 81 81 81 80 80 80 80 80 80 80 80 80 79 79 79 79 79 79 78 78 78 78 78 78 77 77 77 77 77 77 77 77 77 76 76 76 76 76 76 75 75 75 75 75 75 74 74 74 74 74 74 74 74 74 73 73 73 73 73 73 72 72 72 72 72 72 72 72 72 71 71 71 71 71 71 71 71 71 70 70 70 70 70 70 69 69 69 69 69 69 69 69 69 68 68 68 68 68 68 68 68 68 67 67 67 67 67 67 67 67 67 66 66 66 66 66 66 65 65 65 65 65 65 
71 71 71 71 71 71 71 71 71 72 72 72 72 72 72 72 72 72 73 73 73 73 73 73 74 74 74 74 74 74 74 74 74 75 75 75 75 75 75 76 76 76 76 76 76 77 77 77 77 77 77 77 77 77 78 78 78 78 78 78 79 79 79 79 79 79 79 79 79 80 80 80 80 80 80 81 81 81 81 81 81 82 82 82 82 82 82 82 82 82 83 83 83 83 83 83 84 84 84 84 84 84 85 85 85 85 85 85 85 85 85 86 86 86 86 86 86 87 87 87 87 87 87 87 87 87 88 88 88 88 88 88 89 89 89 89 89 89 90 90 90 90 90 90 90 90 90 91 91 91 91 91 91 91 91 91 92 92 92 73 38 2 73 38 2 72 38 2 72 37 2 72 37 2 72 37 2 102 52 2 102 52 2 102 53 2 102 53 2 102 53 2 102 53 2 102 53 2 102 53 2 102 53 2 102 53 2 82 43 2 83 43 2 83 43 2 84 43 2 84 44 2 85 44 2 85 44 2 86 44 2 97 85 72 99 99 99 99 99 99 99 99 99 100 100 100 100 100 100 100 100 100 100 100 100 100 100 100 100 100 100 100 100 100 100 100 100 63 3 3 35 0 0 19 0 0 16 4 4 18 3 0 18 3 0 18 3 0 12 0 0 12 0 0 12 0 0 12 0 0 12 0 0 12 0 0 12 0 0 12 0 0 12 0 0 12 0 0 12 0 0 12 0 0 12 0 0 14 1 0 14 1 0 15 3 3 97 97 97 97 97 97 97 97 97 96 96 96 96 96 96 96 96 96 95 95 95 95 95 95 95 95 95 94 94 94 27 16 2 28 16 3 28 16 3 28 16 4 28 17 4 28 17 4 28 17 5 83 43 2 82 43 2 82 42 2 81 42 2 81 42 2 80 42 2 80 41 2 79 41 2 79 41 2 98 51 2 98 50 2 97 50 2 97 50 2 97 50 2 96 50 2 85 85 85 85 85 85 85 85 85 84 84 84 84 84 84 83 83 83 83 83 83 82 82 82 82 82 82 82 82 82 81 81 81 81 81 81 80 80 80 80 80 80 79 79 79 79 79 79 79 79 79 78 78 78 78 78 78 77 77 77 77 77 77 77 77 77 76 76 76 76 76 76 75 75 75 75 75 75 75 75 75 74 74 74 74 74 74 73 73 73 73 73 73 73 73 73 72 72 72 72 72 72 71 71 71 71 71 71 71 71 71 70 70 70 70 70 70 70 70 70 69 69 69 69 69 69 68 68 68 68 68 68 68 68 68 67 67 67 67 67 67 67 67 67 66 66 66 66 66 66 66 66 66 65 65 65 65 65 65 65 65 65 64 64 64 64 64 64 
69 69 69 69 69 69 70 70 70 70 70 70 70 70 70 71 71 71 71 71 71 72 72 72 72 72 72 72 72 72 73 73 73 73 73 73 74 74 74 74 74 74 74 74 74 75 75 75 75 75 75 75 75 75 76 76 76 76 76 76 77 77 77 77 77 77 77 77 77 78 78 78 78 78 78 79 79 79 79 79 79 80 80 80 80 80 80 80 80 80 81 81 81 81 81 81 82 82 82 82 82 82 82 82 82 83 83 83 83 83 83 84 84 84 84 84 84 84 84 84 85 85 85 85 85 85 86 86 86 86 86 86 86 86 86 87 87 87 87 87 87 87 87 87 88 88 88 88 88 88 89 89 89 89 89 89 89 89 89 74 38 2 73 38 2 73 38 2 73 38 2 72 38 2 72 38 2 102 53 2 102 53 2 102 53 2 102 53 2 103 53 2 103 53 2 103 53 2 103 53 2 103 53 2 103 53 2 83 43 2 83 43 2 84 43 2 84 44 2 85 44 2 85 44 2 86 44 2 86 44 2 103 91 78 96 96 96 96 96 96 97 97 97 97 97 97 97 97 97 97 97 97 97 97 97 97 97 97 97 97 97 97 97 97 97 97 97 97 97 97 59 0 0 40 0 0 34 7 7 23 7 6 18 3 0 18 3 0 18 3 0 23 5 0 12 0 0 12 0 0 12 0 0 12 0 0 12 0 0 12 0 0 12 0 0 12 0 0 12 0 0 22 5 0 18 3 0 14 1 0 21 9 9 95 95 95 94 94 94 94 94 94 94 94 94 94 94 94 93 93 93 93 93 93 93 93 93 93 93 93 92 92 92 92 92 92 28 16 3 28 16 3 28 17 4 29 17 4 29 17 4 29 17 5 84 43 2 83 43 2 83 43 2 82 43 2 82 42 2 81 42 2 81 42 2 80 42 2 80 41 2 79 41 2 99 51 2 98 51 2 98 51 2 98 50 2 97 50 2 97 50 2 83 83 83 83 83 83 83 83 83 82 82 82 82 82 82 81 81 81 81 81 81 81 81 81 80 80 80 80 80 80 79 79 79 79 79 79 78 78 78 78 78 78 78 78 78 77 77 77 77 77 77 76 76 76 76 76 76 76 76 76 75 75 75 75 75 75 74 74 74 74 74 74 74 74 74 73 73 73 73 73 73 73 73 73 72 72 72 72 72 72 71 71 71 71 71 71 71 71 71 70 70 70 70 70 70 70 70 70 69 69 69 69 69 69 68 68 68 68 68 68 68 68 68 67 67 67 67 67 67 67 67 67 66 66 66 66 66 66 66 66 66 65 65 65 65 65 65 65 65 65 64 64 64 64 64 64 64 64 64 63 63 63 63 63 63 63 63 63 
67 67 67 68 68 68 68 68 68 68 68 68 69 69 69 69 69 69 70 70 70 70 70 70 70 70 70 71 71 71 71 71 71 71 71 71 72 72 72 72 72 72 73 73 73 73 73 73 73 73 73 74 74 74 74 74 74 74 74 74 75 75 75 75 75 75 76 76 76 76 76 76 76 76 76 77 77 77 77 77 77 77 77 77 78 78 78 78 78 78 79 79 79 79 79 79 79 79 79 80 80 80 80 80 80 81 81 81 81 81 81 81 81 81 82 82 82 82 82 82 83 83 83 83 83 83 83 83 83 84 84 84 84 84 84 84 84 84 85 85 85 85 85 85 85 85 85 86 86 86 86 86 86 87 87 87 87 87 87 74 38 2 74 38 2 73 38 2 73 38 2 73 38 2 73 38 2 103 53 2 103 53 2 103 53 2 103 53 2 103 53 2 103 53 2 103 53 2 103 53 2 103 53 2 103 53 2 83 43 2 84 43 2 84 43 2 85 44 2 85 44 2 85 44 2 86 44 2 86 45 2 87 45 2 95 82 69 94 94 94 94 94 94 94 94 94 94 94 94 94 94 94 94 94 94 94 94 94 94 94 94 94 94 94 94 94 94 94 94 94 88 0 0 65 0 0 49 0 0 47 10 10 36 9 9 24 3 0 18 3 0 21 4 0 24 6 0 12 0 0 12 0 0 12 0 0 12 0 0 12 0 0 12 0 0 12 0 0 23 5 0 18 3 0 18 3 0 25 13 13 12 0 0 92 92 92 92 92 92 92 92 92 91 91 91 91 91 91 91 91 91 90 90 90 90 90 90 90 90 90 90 90 90 89 89 89 29 17 4 29 17 4 29 17 4 29 18 5 30 18 5 30 18 6 84 44 2 84 43 2 83 43 2 83 43 2 82 43 2 82 42 2 81 42 2 81 42 2 80 42 2 100 51 2 99 51 2 99 51 2 99 51 2 98 51 2 98 51 2 98 50 2 81 81 81 81 81 81 81 81 81 80 80 80 80 80 80 79 79 79 79 79 79 79 79 79 78 78 78 78 78 78 77 77 77 77 77 77 77 77 77 76 76 76 76 76 76 75 75 75 75 75 75 75 75 75 74 74 74 74 74 74 74 74 74 73 73 73 73 73 73 72 72 72 72 72 72 72 72 72 71 71 71 71 71 71 71 71 71 70 70 70 70 70 70 70 70 70 69 69 69 69 69 69 68 68 68 68 68 68 68 68 68 67 67 67 67 67 67 67 67 67 66 66 66 66 66 66 66 66 66 65 65 65 65 65 65 65 65 65 64 64 64 64 64 64 64 64 64 63 63 63 63 63 63 63 63 63 62 62 62 62 62 62 62 62 62 61 61 61 
66 66 66 66 66 66 67 67 67 67 67 67 67 67 67 68 68 68 68 68 68 68 68 68 69 69 69 69 69 69 69 69 69 70 70 70 70 70 70 70 70 70 71 71 71 71 71 71 71 71 71 72 72 72 72 72 72 73 73 73 73 73 73 73 73 73 74 74 74 74 74 74 74 74 74 75 75 75 75 75 75 75 75 75 76 76 76 76 76 76 77 77 77 77 77 77 77 77 77 78 78 78 78 78 78 78 78 78 79 79 79 79 79 79 80 80 80 80 80 80 80 80 80 81 81 81 81 81 81 81 81 81 82 82 82 82 82 82 82 82 82 83 83 83 83 83 83 83 83 83 84 84 84 84 84 84 84 84 84 85 85 85 74 39 2 74 38 2 74 38 2 73 38 2 73 38 2 103 53 2 103 53 2 104 53 2 104 53 2 104 54 2 104 54 2 104 54 2 104 54 2 104 54 2 104 54 2 104 54 2 84 43 2 84 44 2 85 44 2 85 44 2 86 44 2 86 45 2 87 45 2 87 45 2 101 89 75 91 91 91 91 91 91 91 91 91 91 91 91 91 91 91 91 91 91 91 91 91 91 91 91 91 91 91 91 91 91 91 91 91 91 91 91 95 1 1 77 3 3 62 2 2 63 15 14 52 13 13 40 5 0 33 5 0 27 4 0 22 4 0 21 4 0 24 6 0 24 6 0 24 6 0 21 4 0 18 3 0 18 3 0 18 3 0 16 4 4 18 0 0 89 89 89 89 89 89 89 89 89 89 89 89 89 89 89 88 88 88 88 88 88 88 88 88 88 88 88 87 87 87 87 87 87 29 17 4 30 18 4 30 18 5 30 18 5 30 18 6 30 19 6 31 19 6 85 44 2 84 44 2 84 43 2 83 43 2 83 43 2 82 43 2 82 42 2 81 42 2 81 42 2 100 52 2 100 52 2 100 51 2 99 51 2 99 51 2 99 51 2 80 80 80 79 79 79 79 79 79 78 78 78 78 78 78 78 78 78 77 77 77 77 77 77 77 77 77 76 76 76 76 76 76 76 76 76 75 75 75 75 75 75 74 74 74 74 74 74 74 74 74 73 73 73 73 73 73 73 73 73 72 72 72 72 72 72 72 72 72 71 71 71 71 71 71 70 70 70 70 70 70 70 70 70 69 69 69 69 69 69 69 69 69 68 68 68 68 68 68 68 68 68 67 67 67 67 67 67 67 67 67 66 66 66 66 66 66 66 66 66 65 65 65 65 65 65 65 65 65 64 64 64 64 64 64 64 64 64 63 63 63 63 63 63 63 63 63 62 62 62 62 62 62 62 62 62 61 61 61 61 61 61 61 61 61 61 61 61 60 60 60 
64 64 64 65 65 65 65 65 65 65 65 65 66 66 66 66 66 66 66 66 66 67 67 67 67 67 67 67 67 67 68 68 68 68 68 68 68 68 68 69 69 69 69 69 69 69 69 69 70 70 70 70 70 70 70 70 70 71 71 71 71 71 71 71 71 71 72 72 72 72 72 72 72 72 72 73 73 73 73 73 73 73 73 73 74 74 74 74 74 74 75 75 75 75 75 75 75 75 75 76 76 76 76 76 76 76 76 76 77 77 77 77 77 77 77 77 77 78 78 78 78 78 78 78 78 78 79 79 79 79 79 79 79 79 79 80 80 80 80 80 80 80 80 80 81 81 81 81 81 81 81 81 81 82 82 82 82 82 82 82 82 82 75 39 2 75 39 2 74 39 2 74 39 2 74 39 2 104 54 2 104 54 2 104 54 2 104 54 2 104 54 2 104 54 2 104 54 2 105 54 2 105 54 2 105 54 2 105 54 2 84 44 2 85 44 2 85 44 2 86 44 2 86 45 2 87 45 2 87 45 2 88 45 2 107 95 82 88 88 88 88 88 88 88 88 88 88 88 88 88 88 88 88 88 88 88 88 88 89 89 89 89 89 89 89 89 89 89 89 89 89 89 89 146 5 5 110 5 5 101 14 14 86 13 13 82 18 17 67 13 11 58 6 2 50 5 0 44 5 0 40 5 0 36 5 0 33 5 0 31 4 0 31 4 0 29 3 0 31 3 0 35 6 6 36 0 0 64 5 5 87 87 87 87 87 87 86 86 86 86 86 86 86 86 86 86 86 86 86 86 86 85 85 85 85 85 85 85 85 85 85 85 85 30 18 4 30 18 5 31 19 5 31 19 6 31 19 6 31 20 7 32 20 7 85 44 2 85 44 2 84 44 2 84 43 2 83 43 2 83 43 2 82 43 2 82 42 2 81 42 2 101 52 2 101 52 2 100 52 2 100 52 2 100 51 2 99 51 2 78 78 78 77 77 77 77 77 77 76 76 76 76 76 76 76 76 76 75 75 75 75 75 75 75 75 75 74 74 74 74 74 74 74 74 74 73 73 73 73 73 73 73 73 73 72 72 72 72 72 72 72 72 72 71 71 71 71 71 71 71 71 71 70 70 70 70 70 70 69 69 69 69 69 69 69 69 69 68 68 68 68 68 68 68 68 68 67 67 67 67 67 67 67 67 67 66 66 66 66 66 66 66 66 66 65 65 65 65 65 65 65 65 65 64 64 64 64 64 64 64 64 64 64 64 64 63 63 63 63 63 63 63 63 63 62 62 62 62 62 62 62 62 62 61 61 61 61 61 61 61 61 61 60 60 60 60 60 60 60 60 60 60 60 60 59 59 59 59 59 59 
63 63 63 63 63 63 63 63 63 64 64 64 64 64 64 64 64 64 65 65 65 65 65 65 65 65 65 66 66 66 66 66 66 66 66 66 67 67 67 67 67 67 67 67 67 68 68 68 68 68 68 68 68 68 69 69 69 69 69 69 69 69 69 70 70 70 70 70 70 70 70 70 71 71 71 71 71 71 71 71 71 72 72 72 72 72 72 72 72 72 73 73 73 73 73 73 73 73 73 74 74 74 74 74 74 74 74 74 75 75 75 75 75 75 75 75 75 75 75 75 76 76 76 76 76 76 76 76 76 77 77 77 77 77 77 77 77 77 78 78 78 78 78 78 78 78 78 79 79 79 79 79 79 79 79 79 79 79 79 80 80 80 76 39 2 75 39 2 75 39 2 75 39 2 74 39 2 74 39 3 105 54 2 105 54 2 105 54 2 105 54 2 105 54 2 105 54 2 105 54 2 105 54 2 105 54 2 105 54 2 85 44 2 85 44 2 86 44 2 86 45 2 87 45 2 87 45 2 88 45 2 88 46 2 114 101 88 85 85 85 85 85 85 85 85 85 85 85 85 86 86 86 86 86 86 86 86 86 86 86 86 86 86 86 86 86 86 86 86 86 86 86 86 86 86 86 159 4 4 133 13 13 145 42 42 141 51 51 120 40 40 110 38 37 91 25 24 77 17 16 68 9 4 62 7 2 58 6 1 57 5 0 53 6 5 59 11 11 60 9 9 58 0 0 85 4 4 84 84 84 84 84 84 84 84 84 84 84 84 84 84 84 83 83 83 83 83 83 83 83 83 83 83 83 83 83 83 82 82 82 82 82 82 31 19 5 31 19 6 32 19 6 32 20 7 32 20 7 32 21 8 86 45 2 86 44 2 85 44 2 85 44 2 84 44 2 84 43 2 83 43 2 83 43 2 82 43 2 82 42 2 101 52 2 101 52 2 101 52 2 101 52 2 100 52 2 100 52 2 75 75 75 75 75 75 75 75 75 74 74 74 74 74 74 74 74 74 73 73 73 73 73 73 73 73 73 72 72 72 72 72 72 72 72 72 71 71 71 71 71 71 71 71 71 70 70 70 70 70 70 70 70 70 69 69 69 69 69 69 69 69 69 68 68 68 68 68 68 68 68 68 67 67 67 67 67 67 67 67 67 66 66 66 66 66 66 66 66 66 66 66 66 65 65 65 65 65 65 65 65 65 64 64 64 64 64 64 64 64 64 63 63 63 63 63 63 63 63 63 62 62 62 62 62 62 62 62 62 61 61 61 61 61 61 61 61 61 61 61 61 60 60 60 60 60 60 60 60 60 59 59 59 59 59 59 59 59 59 59 59 59 58 58 58 58 58 58 58 58 58 
61 61 61 61 61 61 62 62 62 62 62 62 62 62 62 63 63 63 63 63 63 63 63 63 64 64 64 64 64 64 64 64 64 65 65 65 65 65 65 65 65 65 65 65 65 66 66 66 66 66 66 66 66 66 67 67 67 67 67 67 67 67 67 68 68 68 68 68 68 68 68 68 69 69 69 69 69 69 69 69 69 70 70 70 70 70 70 70 70 70 71 71 71 71 71 71 71 71 71 71 71 71 72 72 72 72 72 72 72 72 72 73 73 73 73 73 73 73 73 73 74 74 74 74 74 74 74 74 74 75 75 75 75 75 75 75 75 75 75 75 75 76 76 76 76 76 76 76 76 76 77 77 77 77 77 77 77 77 77 77 77 77 76 39 2 76 39 2 75 39 2 75 39 2 75 39 2 75 39 3 105 54 2 105 54 2 105 54 2 105 54 2 106 54 2 106 54 2 106 55 2 106 55 2 106 55 2 106 55 2 85 44 2 86 44 2 86 45 2 87 45 2 87 45 2 88 45 2 88 46 2 104 54 2 105 54 2 143 111 78 83 83 83 83 83 83 83 83 83 83 83 83 83 83 83 83 83 83 83 83 83 83 83 83 83 83 83 83 83 83 83 83 83 83 83 83 83 83 83 83 83 83 151 9 9 185 61 61 218 108 108 212 112 112 181 88 88 145 59 59 132 49 48 111 32 31 98 22 21 91 15 14 78 2 2 79 0 0 87 0 0 82 82 82 82 82 82 82 82 82 82 82 82 81 81 81 81 81 81 81 81 81 81 81 81 81 81 81 80 80 80 80 80 80 80 80 80 80 80 80 80 80 80 32 20 6 32 20 7 33 20 7 33 21 8 33 21 8 33 21 8 87 45 2 86 45 2 86 44 2 85 44 2 85 44 2 84 44 2 84 43 2 83 43 2 83 43 2 82 43 2 102 53 2 102 53 2 102 52 2 101 52 2 101 52 2 101 52 2 73 73 73 73 73 73 73 73 73 72 72 72 72 72 72 72 72 72 71 71 71 71 71 71 71 71 71 71 71 71 70 70 70 70 70 70 70 70 70 69 69 69 69 69 69 69 69 69 68 68 68 68 68 68 68 68 68 67 67 67 67 67 67 67 67 67 66 66 66 66 66 66 66 66 66 66 66 66 65 65 65 65 65 65 65 65 65 64 64 64 64 64 64 64 64 64 63 63 63 63 63 63 63 63 63 62 62 62 62 62 62 62 62 62 62 62 62 61 61 61 61 61 61 61 61 61 60 60 60 60 60 60 60 60 60 60 60 60 59 59 59 59 59 59 59 59 59 58 58 58 58 58 58 58 58 58 58 58 58 57 57 57 57 57 57 57 57 57 56 56 56 
60 60 60 60 60 60 60 60 60 61 61 61 61 61 61 61 61 61 61 61 61 62 62 62 62 62 62 62 62 62 63 63 63 63 63 63 63 63 63 63 63 63 64 64 64 64 64 64 64 64 64 65 65 65 65 65 65 65 65 65 66 66 66 66 66 66 66 66 66 66 66 66 67 67 67 67 67 67 67 67 67 68 68 68 68 68 68 68 68 68 69 69 69 69 69 69 69 69 69 69 69 69 70 70 70 70 70 70 70 70 70 71 71 71 71 71 71 71 71 71 71 71 71 72 72 72 72 72 72 72 72 72 73 73 73 73 73 73 73 73 73 73 73 73 74 74 74 74 74 74 74 74 74 74 74 74 75 75 75 75 75 75 77 40 2 76 40 2 76 40 2 76 40 2 76 40 2 76 40 3 106 55 2 106 55 2 106 55 2 106 55 2 106 55 2 106 55 2 106 55 2 106 55 2 106 55 2 106 55 2 85 44 2 86 44 2 86 45 2 87 45 2 103 53 2 103 53 2 104 54 2 104 54 2 105 54 2 105 54 2 144 112 78 80 80 80 80 80 80 80 80 80 80 80 80 80 80 80 80 80 80 80 80 80 80 80 80 80 80 80 80 80 80 80 80 80 80 80 80 80 80 80 80 80 80 80 80 80 165 12 12 194 55 55 216 88 88 208 87 87 179 65 65 149 38 38 127 17 17 116 5 5 116 0 0 80 80 80 80 80 80 79 79 79 79 79 79 79 79 79 79 79 79 79 79 79 79 79 79 79 79 79 78 78 78 78 78 78 78 78 78 78 78 78 78 78 78 77 77 77 77 77 77 33 21 7 33 21 7 34 21 8 34 22 8 34 22 9 34 22 9 87 45 2 87 45 2 86 45 2 86 44 2 85 44 2 85 44 2 84 44 2 84 43 2 83 43 2 103 53 2 103 53 2 103 53 2 102 53 2 102 53 2 102 52 2 101 52 2 71 71 71 71 71 71 71 71 71 70 70 70 70 70 70 70 70 70 70 70 70 69 69 69 69 69 69 69 69 69 68 68 68 68 68 68 68 68 68 67 67 67 67 67 67 67 67 67 67 67 67 66 66 66 66 66 66 66 66 66 65 65 65 65 65 65 65 65 65 64 64 64 64 64 64 64 64 64 64 64 64 63 63 63 63 63 63 63 63 63 62 62 62 62 62 62 62 62 62 62 62 62 61 61 61 61 61 61 61 61 61 60 60 60 60 60 60 60 60 60 60 60 60 59 59 59 59 59 59 59 59 59 58 58 58 58 58 58 58 58 58 58 58 58 57 57 57 57 57 57 57 57 57 57 57 57 56 56 56 56 56 56 56 56 56 55 55 55 55 55 55 
58 58 58 58 58 58 59 59 59 59 59 59 59 59 59 59 59 59 60 60 60 60 60 60 60 60 60 61 61 61 61 61 61 61 61 61 61 61 61 62 62 62 62 62 62 62 62 62 63 63 63 63 63 63 63 63 63 63 63 63 64 64 64 64 64 64 64 64 64 65 65 65 65 65 65 65 65 65 65 65 65 66 66 66 66 66 66 66 66 66 67 67 67 67 67 67 67 67 67 67 67 67 68 68 68 68 68 68 68 68 68 69 69 69 69 69 69 69 69 69 69 69 69 70 70 70 70 70 70 70 70 70 70 70 70 71 71 71 71 71 71 71 71 71 71 71 71 72 72 72 72 72 72 72 72 72 72 72 72 73 73 73 73 73 73 77 40 2 77 40 2 76 40 2 76 40 3 76 40 3 106 55 2 106 55 2 106 55 2 107 55 2 107 55 2 107 55 2 107 55 2 107 55 2 107 55 2 107 55 2 107 55 2 86 45 2 102 53 2 102 53 2 103 53 2 103 53 2 104 54 2 105 54 2 105 54 2 106 55 2 106 55 2 77 77 77 77 77 77 77 77 77 78 78 78 78 78 78 78 78 78 78 78 78 78 78 78 78 78 78 78 78 78 78 78 78 78 78 78 78 78 78 78 78 78 78 78 78 78 78 78 78 78 78 78 78 78 181 3 3 170 1 1 171 2 2 77 77 77 77 77 77 77 77 77 77 77 77 77 77 77 77 77 77 77 77 77 77 77 77 76 76 76 76 76 76 76 76 76 76 76 76 76 76 76 76 76 76 76 76 76 75 75 75 75 75 75 75 75 75 34 21 7 34 22 8 34 22 8 35 22 9 35 23 9 35 23 10 35 23 10 88 45 2 87 45 2 87 45 2 86 45 2 86 44 2 85 44 2 85 44 2 84 43 2 84 43 2 104 53 2 103 53 2 103 53 2 103 53 2 103 53 2 102 53 2 70 70 70 69 69 69 69 69 69 69 69 69 68 68 68 68 68 68 68 68 68 68 68 68 67 67 67 67 67 67 67 67 67 67 67 67 66 66 66 66 66 66 66 66 66 65 65 65 65 65 65 65 65 65 65 65 65 64 64 64 64 64 64 64 64 64 63 63 63 63 63 63 63 63 63 63 63 63 62 62 62 62 62 62 62 62 62 61 61 61 61 61 61 61 61 61 61 61 61 60 60 60 60 60 60 60 60 60 59 59 59 59 59 59 59 59 59 59 59 59 58 58 58 58 58 58 58 58 58 58 58 58 57 57 57 57 57 57 57 57 57 57 57 57 56 56 56 56 56 56 56 56 56 55 55 55 55 55 55 55 55 55 55 55 55 54 54 54 54 54 54 54 54 54 
57 57 57 57 57 57 57 57 57 57 57 57 58 58 58 58 58 58 58 58 58 58 58 58 59 59 59 59 59 59 59 59 59 60 60 60 60 60 60 60 60 60 60 60 60 61 61 61 61 61 61 61 61 61 61 61 61 62 62 62 62 62 62 62 62 62 62 62 62 63 63 63 63 63 63 63 63 63 64 64 64 64 64 64 64 64 64 64 64 64 65 65 65 65 65 65 65 65 65 65 65 65 66 66 66 66 66 66 66 66 66 66 66 66 67 67 67 67 67 67 67 67 67 68 68 68 68 68 68 68 68 68 68 68 68 69 69 69 69 69 69 69 69 69 69 69 69 69 69 69 70 70 70 70 70 70 70 70 70 70 70 70 71 71 71 78 40 2 77 40 2 77 40 2 77 40 3 77 41 3 107 55 2 107 55 2 107 55 2 107 55 2 107 55 2 107 55 2 107 55 2 107 55 2 108 55 2 108 55 2 93 48 2 101 52 2 102 53 2 103 53 2 103 53 2 104 54 2 104 54 2 105 54 2 105 54 2 106 55 2 107 55 2 107 55 2 75 75 75 75 75 75 75 75 75 75 75 75 75 75 75 75 75 75 75 75 75 75 75 75 75 75 75 75 75 75 75 75 75 75 75 75 75 75 75 75 75 75 75 75 75 75 75 75 75 75 75 75 75 75 75 75 75 75 75 75 75 75 75 75 75 75 75 75 75 75 75 75 74 74 74 74 74 74 74 74 74 74 74 74 74 74 74 74 74 74 74 74 74 74 74 74 73 73 73 73 73 73 73 73 73 73 73 73 73 73 73 73 73 73 35 22 8 35 23 9 36 23 9 36 23 10 36 24 10 36 24 11 37 25 11 88 46 2 88 45 2 87 45 2 87 45 2 86 45 2 86 44 2 85 44 2 84 44 2 84 43 2 104 54 2 104 54 2 104 54 2 103 53 2 103 53 2 103 53 2 68 68 68 67 67 67 67 67 67 67 67 67 67 67 67 66 66 66 66 66 66 66 66 66 65 65 65 65 65 65 65 65 65 65 65 65 64 64 64 64 64 64 64 64 64 64 64 64 63 63 63 63 63 63 63 63 63 63 63 63 62 62 62 62 62 62 62 62 62 61 61 61 61 61 61 61 61 61 61 61 61 60 60 60 60 60 60 60 60 60 60 60 60 59 59 59 59 59 59 59 59 59 58 58 58 58 58 58 58 58 58 58 58 58 57 57 57 57 57 57 57 57 57 57 57 57 56 56 56 56 56 56 56 56 56 56 56 56 55 55 55 55 55 55 55 55 55 55 55 55 54 54 54 54 54 54 54 54 54 54 54 54 53 53 53 53 53 53 53 53 53 53 53 53 
55 55 55 55 55 55 56 56 56 56 56 56 56 56 56 56 56 56 57 57 57 57 57 57 57 57 57 57 57 57 58 58 58 58 58 58 58 58 58 58 58 58 59 59 59 59 59 59 59 59 59 59 59 59 60 60 60 60 60 60 60 60 60 60 60 60 61 61 61 61 61 61 61 61 61 61 61 61 62 62 62 62 62 62 62 62 62 62 62 62 63 63 63 63 63 63 63 63 63 63 63 63 64 64 64 64 64 64 64 64 64 64 64 64 65 65 65 65 65 65 65 65 65 65 65 65 66 66 66 66 66 66 66 66 66 66 66 66 67 67 67 67 67 67 67 67 67 67 67 67 68 68 68 68 68 68 68 68 68 68 68 68 68 68 68 78 41 2 78 41 2 78 41 2 78 41 3 77 41 3 77 41 4 107 55 2 108 56 2 108 56 2 108 56 2 108 56 2 108 56 2 108 56 2 93 48 2 93 48 2 93 48 2 93 48 2 102 53 2 103 53 2 103 53 2 104 54 2 105 54 2 105 54 2 106 55 2 106 55 2 107 55 2 107 55 2 108 56 2 72 72 72 72 72 72 73 73 73 73 73 73 73 73 73 73 73 73 73 73 73 73 73 73 73 73 73 73 73 73 73 73 73 73 73 73 73 73 73 73 73 73 73 73 73 73 73 73 72 72 72 72 72 72 72 72 72 72 72 72 72 72 72 72 72 72 72 72 72 72 72 72 72 72 72 72 72 72 72 72 72 72 72 72 71 71 71 71 71 71 71 71 71 71 71 71 71 71 71 71 71 71 71 71 71 70 70 70 67 35 1 66 34 1 66 34 1 65 34 1 64 33 1 64 33 2 63 33 2 105 54 2 104 54 2 88 46 2 88 45 2 87 45 2 87 45 2 86 44 2 85 44 2 85 44 2 84 44 2 105 54 2 105 54 2 104 54 2 104 54 2 104 54 2 103 53 2 66 66 66 65 65 65 65 65 65 65 65 65 65 65 65 64 64 64 64 64 64 64 64 64 64 64 64 63 63 63 63 63 63 63 63 63 63 63 63 62 62 62 62 62 62 62 62 62 62 62 62 61 61 61 61 61 61 61 61 61 61 61 61 60 60 60 60 60 60 60 60 60 60 60 60 59 59 59 59 59 59 59 59 59 59 59 59 58 58 58 58 58 58 58 58 58 57 57 57 57 57 57 57 57 57 57 57 57 56 56 56 56 56 56 56 56 56 56 56 56 56 56 56 55 55 55 55 55 55 55 55 55 55 55 55 54 54 54 54 54 54 54 54 54 54 54 54 53 53 53 53 53 53 53 53 53 53 53 53 52 52 52 52 52 52 52 52 52 52 52 52 52 52 52 
54 54 54 54 54 54 54 54 54 54 54 54 55 55 55 55 55 55 55 55 55 55 55 55 56 56 56 56 56 56 56 56 56 56 56 56 56 56 56 57 57 57 57 57 57 57 57 57 57 57 57 58 58 58 58 58 58 58 58 58 58 58 58 59 59 59 59 59 59 59 59 59 59 59 59 60 60 60 60 60 60 60 60 60 60 60 60 61 61 61 61 61 61 61 61 61 61 61 61 62 62 62 62 62 62 62 62 62 62 62 62 62 62 62 63 63 63 63 63 63 63 63 63 63 63 63 64 64 64 64 64 64 64 64 64 64 64 64 65 65 65 65 65 65 65 65 65 65 65 65 65 65 65 66 66 66 66 66 66 66 66 66 66 66 66 79 41 2 79 41 2 78 41 2 78 41 3 78 41 3 78 42 4 108 56 2 108 56 2 108 56 2 108 56 2 108 56 2 93 48 2 94 48 2 94 48 2 94 48 2 94 49 2 94 49 2 94 49 2 103 53 2 104 53 2 104 54 2 105 54 2 105 54 2 106 55 2 107 55 2 107 55 2 108 56 2 108 56 2 168 137 105 70 70 70 70 70 70 70 70 70 70 70 70 70 70 70 70 70 70 70 70 70 70 70 70 70 70 70 70 70 70 70 70 70 70 70 70 70 70 70 70 70 70 70 70 70 70 70 70 70 70 70 70 70 70 70 70 70 70 70 70 70 70 70 70 70 70 70 70 70 69 69 69 69 69 69 69 69 69 69 69 69 69 69 69 69 69 69 69 69 69 69 69 69 69 69 69 68 68 68 68 68 68 68 35 1 67 35 1 66 35 1 66 34 2 65 34 2 64 34 2 64 33 2 106 54 2 105 54 2 104 54 2 104 54 2 103 53 2 87 45 2 87 45 2 86 45 2 86 44 2 85 44 2 85 44 2 106 54 2 105 54 2 105 54 2 105 54 2 104 54 2 104 54 2 64 64 64 63 63 63 63 63 63 63 63 63 63 63 63 62 62 62 62 62 62 62 62 62 62 62 62 62 62 62 61 61 61 61 61 61 61 61 61 61 61 61 60 60 60 60 60 60 60 60 60 60 60 60 59 59 59 59 59 59 59 59 59 59 59 59 58 58 58 58 58 58 58 58 58 58 58 58 57 57 57 57 57 57 57 57 57 57 57 57 56 56 56 56 56 56 56 56 56 56 56 56 56 56 56 55 55 55 55 55 55 55 55 55 55 55 55 54 54 54 54 54 54 54 54 54 54 54 54 53 53 53 53 53 53 53 53 53 53 53 53 52 52 52 52 52 52 52 52 52 52 52 52 52 52 52 51 51 51 51 51 51 51 51 51 51 51 51 50 50 50 50 50 50 
52 52 52 52 52 52 53 53 53 53 53 53 53 53 53 53 53 53 54 54 54 54 54 54 54 54 54 54 54 54 54 54 54 55 55 55 55 55 55 55 55 55 55 55 55 56 56 56 56 56 56 56 56 56 56 56 56 56 56 56 57 57 57 57 57 57 57 57 57 57 57 57 58 58 58 58 58 58 58 58 58 58 58 58 59 59 59 59 59 59 59 59 59 59 59 59 59 59 59 60 60 60 60 60 60 60 60 60 60 60 60 61 61 61 61 61 61 61 61 61 61 61 61 61 61 61 62 62 62 62 62 62 62 62 62 62 62 62 62 62 62 63 63 63 63 63 63 63 63 63 63 63 63 63 63 63 64 64 64 64 64 64 64 64 64 80 41 2 79 41 2 79 41 3 79 42 3 79 42 3 79 42 4 109 56 2 109 56 2 109 56 2 94 48 2 94 49 2 94 49 2 94 49 2 94 49 2 94 49 2 95 49 2 95 49 2 95 49 2 95 49 2 104 54 2 104 54 2 105 54 2 106 54 2 106 55 2 107 55 2 107 55 2 108 56 2 109 56 2 109 56 2 170 138 105 68 68 68 68 68 68 68 68 68 68 68 68 68 68 68 68 68 68 68 68 68 68 68 68 68 68 68 68 68 68 68 68 68 68 68 68 68 68 68 68 68 68 68 68 68 68 68 68 68 68 68 68 68 68 67 67 67 67 67 67 67 67 67 67 67 67 67 67 67 67 67 67 67 67 67 67 67 67 67 67 67 67 67 67 67 67 67 66 66 66 66 66 66 66 66 66 69 36 2 68 35 2 67 35 2 67 35 2 66 35 2 65 34 2 65 34 2 107 55 2 106 55 2 105 54 2 105 54 2 104 54 2 104 54 2 103 53 2 103 53 2 87 45 2 86 45 2 86 44 2 85 44 2 106 55 2 106 55 2 106 55 2 105 54 2 105 54 2 105 54 2 62 62 62 61 61 61 61 61 61 61 61 61 61 61 61 61 61 61 60 60 60 60 60 60 60 60 60 60 60 60 59 59 59 59 59 59 59 59 59 59 59 59 59 59 59 58 58 58 58 58 58 58 58 58 58 58 58 57 57 57 57 57 57 57 57 57 57 57 57 57 57 57 56 56 56 56 56 56 56 56 56 56 56 56 55 55 55 55 55 55 55 55 55 55 55 55 54 54 54 54 54 54 54 54 54 54 54 54 54 54 54 53 53 53 53 53 53 53 53 53 53 53 53 52 52 52 52 52 52 52 52 52 52 52 52 52 52 52 51 51 51 51 51 51 51 51 51 51 51 51 51 51 51 50 50 50 50 50 50 50 50 50 50 50 50 49 49 49 49 49 49 49 49 49 
51 51 51 51 51 51 51 51 51 51 51 51 52 52 52 52 52 52 52 52 52 52 52 52 52 52 52 53 53 53 53 53 53 53 53 53 53 53 53 54 54 54 54 54 54 54 54 54 54 54 54 54 54 54 55 55 55 55 55 55 55 55 55 55 55 55 55 55 55 56 56 56 56 56 56 56 56 56 56 56 56 57 57 57 57 57 57 57 57 57 57 57 57 57 57 57 58 58 58 58 58 58 58 58 58 58 58 58 58 58 58 59 59 59 59 59 59 59 59 59 59 59 59 59 59 59 60 60 60 60 60 60 60 60 60 60 60 60 60 60 60 61 61 61 61 61 61 61 61 61 61 61 61 61 61 61 62 62 62 62 62 62 62 62 62 62 62 62 80 42 2 80 42 3 80 42 3 79 42 4 79 42 4 109 56 2 94 49 2 94 49 2 94 49 2 95 49 2 95 49 2 95 49 2 95 49 2 95 49 2 95 49 2 95 49 2 95 49 2 95 49 2 95 49 2 105 54 2 105 54 2 106 55 2 106 55 2 107 55 2 108 56 2 108 56 2 109 56 2 109 56 2 110 57 2 172 139 106 65 65 65 65 65 65 65 65 65 65 65 65 65 65 65 65 65 65 65 65 65 65 65 65 65 65 65 65 65 65 65 65 65 65 65 65 65 65 65 65 65 65 65 65 65 65 65 65 65 65 65 65 65 65 65 65 65 65 65 65 65 65 65 65 65 65 65 65 65 65 65 65 65 65 65 65 65 65 64 64 64 64 64 64 64 64 64 64 64 64 70 36 2 69 36 2 68 36 2 68 35 2 67 35 2 66 35 2 66 35 3 108 56 2 107 55 2 106 55 2 106 55 2 105 54 2 105 54 2 104 54 2 104 53 2 103 53 2 102 53 2 102 53 2 86 45 2 107 55 2 107 55 2 107 55 2 106 55 2 106 55 2 106 55 2 105 54 2 60 60 60 60 60 60 59 59 59 59 59 59 59 59 59 59 59 59 59 59 59 58 58 58 58 58 58 58 58 58 58 58 58 58 58 58 57 57 57 57 57 57 57 57 57 57 57 57 56 56 56 56 56 56 56 56 56 56 56 56 56 56 56 55 55 55 55 55 55 55 55 55 55 55 55 55 55 55 54 54 54 54 54 54 54 54 54 54 54 54 53 53 53 53 53 53 53 53 53 53 53 53 53 53 53 52 52 52 52 52 52 52 52 52 52 52 52 52 52 52 51 51 51 51 51 51 51 51 51 51 51 51 50 50 50 50 50 50 50 50 50 50 50 50 50 50 50 49 49 49 49 49 49 49 49 49 49 49 49 49 49 49 48 48 48 48 48 48 48 48 48 48 48 48 
49 49 49 50 50 50 50 50 50 50 50 50 50 50 50 50 50 50 51 51 51 51 51 51 51 51 51 51 51 51 51 51 51 52 52 52 52 52 52 52 52 52 52 52 52 52 52 52 53 53 53 53 53 53 53 53 53 53 53 53 53 53 53 54 54 54 54 54 54 54 54 54 54 54 54 54 54 54 55 55 55 55 55 55 55 55 55 55 55 55 55 55 55 56 56 56 56 56 56 56 56 56 56 56 56 56 56 56 57 57 57 57 57 57 57 57 57 57 57 57 57 57 57 58 58 58 58 58 58 58 58 58 58 58 58 58 58 58 58 58 58 59 59 59 59 59 59 59 59 59 59 59 59 59 59 59 59 59 59 60 60 60 60 60 60 60 60 60 81 42 2 80 42 3 80 42 3 80 42 4 80 43 4 74 55 34 95 49 2 95 49 2 95 49 2 95 49 2 95 49 2 95 49 2 96 49 2 96 49 2 96 49 2 96 50 2 96 50 2 96 50 2 96 50 2 96 50 2 105 54 2 106 55 2 107 55 2 107 55 2 108 56 2 108 56 2 109 56 2 110 57 2 110 57 2 111 57 2 173 140 106 63 63 63 63 63 63 63 63 63 63 63 63 63 63 63 63 63 63 63 63 63 63 63 63 63 63 63 63 63 63 63 63 63 63 63 63 63 63 63 63 63 63 63 63 63 63 63 63 63 63 63 63 63 63 63 63 63 63 63 63 63 63 63 63 63 63 62 62 62 62 62 62 62 62 62 62 62 62 62 62 62 62 62 62 71 37 2 70 37 2 69 36 2 69 36 3 68 36 3 68 36 3 67 36 3 109 56 2 108 56 2 107 55 2 107 55 2 106 55 2 106 55 2 105 54 2 105 54 2 104 54 2 103 53 2 103 53 2 102 53 2 102 52 2 93 48 2 107 55 2 107 55 2 107 55 2 107 55 2 106 55 2 58 58 58 58 58 58 58 58 58 58 58 58 57 57 57 57 57 57 57 57 57 57 57 57 57 57 57 56 56 56 56 56 56 56 56 56 56 56 56 56 56 56 55 55 55 55 55 55 55 55 55 55 55 55 55 55 55 54 54 54 54 54 54 54 54 54 54 54 54 54 54 54 53 53 53 53 53 53 53 53 53 53 53 53 53 53 53 52 52 52 52 52 52 52 52 52 52 52 52 52 52 52 51 51 51 51 51 51 51 51 51 51 51 51 51 51 51 50 50 50 50 50 50 50 50 50 50 50 50 50 50 50 49 49 49 49 49 49 49 49 49 49 49 49 49 49 49 48 48 48 48 48 48 48 48 48 48 48 48 48 48 48 47 47 47 47 47 47 47 47 47 47 47 47 47 47 47 
48 48 48 48 48 48 48 48 48 49 49 49 49 49 49 49 49 49 49 49 49 49 49 49 49 49 49 50 50 50 50 50 50 50 50 50 50 50 50 50 50 50 51 51 51 51 51 51 51 51 51 51 51 51 51 51 51 52 52 52 52 52 52 52 52 52 52 52 52 52 52 52 53 53 53 53 53 53 53 53 53 53 53 53 53 53 53 53 53 53 54 54 54 54 54 54 54 54 54 54 54 54 54 54 54 55 55 55 55 55 55 55 55 55 55 55 55 55 55 55 56 56 56 56 56 56 56 56 56 56 56 56 56 56 56 56 56 56 57 57 57 57 57 57 57 57 57 57 57 57 57 57 57 57 57 57 58 58 58 58 58 58 58 58 58 58 58 58 81 42 2 81 43 3 81 43 3 72 52 31 73 53 32 75 55 34 76 56 35 95 49 2 96 49 2 96 49 2 96 50 2 96 50 2 96 50 2 96 50 2 96 50 2 96 50 2 97 50 2 97 50 2 97 50 2 97 50 2 97 50 2 106 55 2 107 55 2 107 55 2 108 56 2 109 56 2 109 56 2 110 57 2 110 57 2 111 57 2 112 58 2 174 141 106 61 61 61 61 61 61 61 61 61 61 61 61 61 61 61 61 61 61 61 61 61 61 61 61 61 61 61 61 61 61 61 61 61 61 61 61 61 61 61 61 61 61 61 61 61 61 61 61 61 61 61 61 61 61 61 61 61 60 60 60 60 60 60 60 60 60 60 60 60 60 60 60 60 60 60 60 60 60 72 38 2 71 37 3 70 37 3 70 37 3 69 37 3 69 37 3 68 37 4 110 57 2 109 56 2 108 56 2 108 56 2 107 55 2 107 55 2 106 55 2 106 54 2 105 54 2 104 54 2 104 54 2 103 53 2 103 53 2 94 48 2 93 48 2 93 48 2 108 56 2 108 55 2 107 55 2 107 55 2 56 56 56 56 56 56 56 56 56 56 56 56 56 56 56 55 55 55 55 55 55 55 55 55 55 55 55 55 55 55 54 54 54 54 54 54 54 54 54 54 54 54 54 54 54 54 54 54 53 53 53 53 53 53 53 53 53 53 53 53 53 53 53 52 52 52 52 52 52 52 52 52 52 52 52 52 52 52 51 51 51 51 51 51 51 51 51 51 51 51 51 51 51 50 50 50 50 50 50 50 50 50 50 50 50 50 50 50 49 49 49 49 49 49 49 49 49 49 49 49 49 49 49 49 49 49 48 48 48 48 48 48 48 48 48 48 48 48 48 48 48 47 47 47 47 47 47 47 47 47 47 47 47 47 47 47 46 46 46 46 46 46 46 46 46 46 46 46 46 46 46 46 46 46 45 45 45 
47 47 47 47 47 47 47 47 47 47 47 47 47 47 47 47 47 47 48 48 48 48 48 48 48 48 48 48 48 48 48 48 48 49 49 49 49 49 49 49 49 49 49 49 49 49 49 49 49 49 49 50 50 50 50 50 50 50 50 50 50 50 50 50 50 50 51 51 51 51 51 51 51 51 51 51 51 51 51 51 51 51 51 51 52 52 52 52 52 52 52 52 52 52 52 52 52 52 52 53 53 53 53 53 53 53 53 53 53 53 53 53 53 53 53 53 53 54 54 54 54 54 54 54 54 54 54 54 54 54 54 54 54 54 54 55 55 55 55 55 55 55 55 55 55 55 55 55 55 55 55 55 55 55 55 55 56 56 56 56 56 56 56 56 56 56 56 56 82 43 2 82 43 3 71 51 29 72 52 31 74 54 32 75 55 34 77 57 36 78 58 37 96 50 2 96 50 2 97 50 2 97 50 2 97 50 2 97 50 2 97 50 2 97 50 2 97 50 2 97 50 2 97 50 2 97 50 2 97 50 2 97 50 2 107 55 2 108 56 2 108 56 2 109 56 2 109 56 2 110 57 2 111 57 2 111 57 2 112 58 2 112 58 2 176 141 106 59 59 59 59 59 59 59 59 59 59 59 59 59 59 59 59 59 59 59 59 59 59 59 59 59 59 59 59 59 59 59 59 59 59 59 59 59 59 59 59 59 59 59 59 59 59 59 59 58 58 58 58 58 58 58 58 58 58 58 58 58 58 58 58 58 58 58 58 58 58 58 58 73 38 3 72 38 3 72 38 3 71 38 4 70 38 4 70 38 4 69 37 4 111 57 2 110 57 2 109 56 2 109 56 2 108 56 2 108 56 2 107 55 2 107 55 2 106 55 2 105 54 2 105 54 2 104 54 2 103 53 2 94 49 2 94 49 2 94 49 2 94 48 2 93 48 2 108 56 2 108 56 2 108 56 2 54 54 54 54 54 54 54 54 54 54 54 54 54 54 54 54 54 54 53 53 53 53 53 53 53 53 53 53 53 53 53 53 53 53 53 53 52 52 52 52 52 52 52 52 52 52 52 52 52 52 52 52 52 52 51 51 51 51 51 51 51 51 51 51 51 51 51 51 51 50 50 50 50 50 50 50 50 50 50 50 50 50 50 50 50 50 50 49 49 49 49 49 49 49 49 49 49 49 49 49 49 49 48 48 48 48 48 48 48 48 48 48 48 48 48 48 48 48 48 48 47 47 47 47 47 47 47 47 47 47 47 47 47 47 47 46 46 46 46 46 46 46 46 46 46 46 46 46 46 46 46 46 46 45 45 45 45 45 45 45 45 45 45 45 45 45 45 45 45 45 45 44 44 44 44 44 44 
45 45 45 45 45 45 46 46 46 46 46 46 46 46 46 46 46 46 46 46 46 46 46 46 47 47 47 47 47 47 47 47 47 47 47 47 47 47 47 47 47 47 48 48 48 48 48 48 48 48 48 48 48 48 48 48 48 48 48 48 49 49 49 49 49 49 49 49 49 49 49 49 49 49 49 49 49 49 50 50 50 50 50 50 50 50 50 50 50 50 50 50 50 50 50 50 51 51 51 51 51 51 51 51 51 51 51 51 51 51 51 51 51 51 52 52 52 52 52 52 52 52 52 52 52 52 52 52 52 52 52 52 53 53 53 53 53 53 53 53 53 53 53 53 53 53 53 53 53 53 53 53 53 54 54 54 54 54 54 54 54 54 54 54 54 54 54 54 83 43 3 70 49 28 71 51 29 73 52 31 74 54 32 76 55 34 77 57 36 78 58 37 80 60 39 97 50 2 97 50 2 97 50 2 97 50 2 98 50 2 98 50 2 98 50 2 98 51 2 98 51 2 98 51 2 98 51 2 98 51 2 98 51 2 98 51 2 108 56 2 108 56 2 109 56 2 110 57 2 110 57 2 111 57 2 111 57 2 112 58 2 113 58 2 113 58 2 177 133 87 174 129 82 171 124 76 57 57 57 57 57 57 57 57 57 57 57 57 57 57 57 57 57 57 57 57 57 57 57 57 57 57 57 57 57 57 57 57 57 56 56 56 56 56 56 56 56 56 56 56 56 56 56 56 56 56 56 56 56 56 56 56 56 56 56 56 74 39 3 73 39 4 73 39 4 72 39 4 72 39 4 71 39 5 71 38 5 112 58 2 111 57 2 110 57 2 110 57 2 109 56 2 109 56 2 108 56 2 107 55 2 107 55 2 106 55 2 106 55 2 105 54 2 104 54 2 95 49 2 95 49 2 95 49 2 95 49 2 94 49 2 94 49 2 94 48 2 109 56 2 108 56 2 53 53 53 53 53 53 52 52 52 52 52 52 52 52 52 52 52 52 52 52 52 52 52 52 51 51 51 51 51 51 51 51 51 51 51 51 51 51 51 51 51 51 50 50 50 50 50 50 50 50 50 50 50 50 50 50 50 50 50 50 49 49 49 49 49 49 49 49 49 49 49 49 49 49 49 49 49 49 48 48 48 48 48 48 48 48 48 48 48 48 48 48 48 48 48 48 47 47 47 47 47 47 47 47 47 47 47 47 47 47 47 47 47 47 46 46 46 46 46 46 46 46 46 46 46 46 46 46 46 46 46 46 45 45 45 45 45 45 45 45 45 45 45 45 45 45 45 45 45 45 44 44 44 44 44 44 44 44 44 44 44 44 44 44 44 44 44 44 43 43 43 43 43 43 43 43 43 
44 44 44 44 44 44 44 44 44 44 44 44 45 45 45 45 45 45 45 45 45 45 45 45 45 45 45 45 45 45 45 45 45 46 46 46 46 46 46 46 46 46 46 46 46 46 46 46 46 46 46 47 47 47 47 47 47 47 47 47 47 47 47 47 47 47 47 47 47 48 48 48 48 48 48 48 48 48 48 48 48 48 48 48 48 48 48 49 49 49 49 49 49 49 49 49 49 49 49 49 49 49 49 49 49 49 49 49 50 50 50 50 50 50 50 50 50 50 50 50 50 50 50 50 50 50 50 50 50 51 51 51 51 51 51 51 51 51 51 51 51 51 51 51 51 51 51 51 51 51 52 52 52 52 52 52 52 52 52 52 52 52 52 52 52 52 52 52 52 52 52 70 49 27 72 51 29 73 53 31 75 54 32 76 56 34 78 57 36 79 59 37 80 60 39 98 50 2 98 51 2 98 51 2 98 51 2 98 51 2 98 51 2 98 51 2 98 51 2 99 51 2 99 51 2 99 51 2 99 51 2 99 51 2 99 51 2 108 56 2 109 56 2 109 56 2 110 57 2 110 57 2 111 57 2 112 58 2 112 58 2 113 58 2 114 59 2 124 64 3 124 64 3 124 64 3 178 133 87 175 129 81 171 124 75 55 55 55 55 55 55 55 55 55 55 55 55 55 55 55 55 55 55 55 55 55 55 55 55 54 54 54 54 54 54 54 54 54 54 54 54 54 54 54 54 54 54 112 64 15 111 64 15 110 63 15 109 63 15 108 62 15 74 40 5 73 40 5 73 40 6 72 40 6 113 58 2 112 58 2 111 57 2 111 57 2 110 57 2 110 57 2 109 56 2 108 56 2 108 56 2 107 55 2 107 55 2 106 55 2 105 54 2 96 50 2 96 50 2 96 49 2 96 49 2 95 49 2 95 49 2 95 49 2 94 49 2 94 49 2 109 56 2 51 51 51 51 51 51 51 51 51 51 51 51 50 50 50 50 50 50 50 50 50 50 50 50 50 50 50 50 50 50 49 49 49 49 49 49 49 49 49 49 49 49 49 49 49 49 49 49 49 49 49 48 48 48 48 48 48 48 48 48 48 48 48 48 48 48 48 48 48 47 47 47 47 47 47 47 47 47 47 47 47 47 47 47 47 47 47 46 46 46 46 46 46 46 46 46 46 46 46 46 46 46 46 46 46 46 46 46 45 45 45 45 45 45 45 45 45 45 45 45 45 45 45 45 45 45 44 44 44 44 44 44 44 44 44 44 44 44 44 44 44 44 44 44 43 43 43 43 43 43 43 43 43 43 43 43 43 43 43 43 43 43 42 42 42 42 42 42 42 42 42 42 42 42 42 42 42 
43 43 43 43 43 43 43 43 43 43 43 43 43 43 43 43 43 43 43 43 43 44 44 44 44 44 44 44 44 44 44 44 44 44 44 44 44 44 44 45 45 45 45 45 45 45 45 45 45 45 45 45 45 45 45 45 45 45 45 45 46 46 46 46 46 46 46 46 46 46 46 46 46 46 46 46 46 46 46 46 46 47 47 47 47 47 47 47 47 47 47 47 47 47 47 47 47 47 47 48 48 48 48 48 48 48 48 48 48 48 48 48 48 48 48 48 48 48 48 48 48 48 48 49 49 49 49 49 49 49 49 49 49 49 49 49 49 49 49 49 49 49 49 49 50 50 50 50 50 50 50 50 50 50 50 50 50 50 50 50 50 50 50 50 50 50 50 50 50 50 50 51 51 51 72 51 29 74 53 31 75 54 32 77 56 34 78 57 36 80 59 37 81 60 39 82 62 40 98 51 2 99 51 2 99 51 2 99 51 2 99 51 2 99 51 2 99 51 2 99 51 2 99 51 2 99 51 2 99 51 2 99 51 2 99 51 2 99 51 2 109 56 2 109 56 2 110 57 2 111 57 2 111 57 2 112 58 2 112 58 2 113 58 2 123 64 3 124 64 3 124 64 3 124 64 3 125 64 3 125 64 3 125 65 3 178 133 86 175 128 80 171 123 74 53 53 53 53 53 53 53 53 53 53 53 53 53 53 53 53 53 53 118 69 20 117 69 20 116 69 20 116 68 20 115 68 20 114 68 20 113 67 20 112 67 20 112 66 20 111 66 20 110 65 20 109 65 19 108 64 19 113 58 2 113 58 2 112 58 2 112 58 2 111 57 2 111 57 2 110 57 2 109 56 2 109 56 2 108 56 2 108 56 2 107 55 2 106 55 2 97 50 2 97 50 2 97 50 2 96 50 2 96 50 2 96 50 2 96 49 2 95 49 2 95 49 2 95 49 2 49 49 49 49 49 49 49 49 49 49 49 49 49 49 49 49 49 49 49 49 49 48 48 48 48 48 48 48 48 48 48 48 48 48 48 48 48 48 48 48 48 48 47 47 47 47 47 47 47 47 47 47 47 47 47 47 47 47 47 47 47 47 47 46 46 46 46 46 46 46 46 46 46 46 46 46 46 46 46 46 46 46 46 46 45 45 45 45 45 45 45 45 45 45 45 45 45 45 45 45 45 45 44 44 44 44 44 44 44 44 44 44 44 44 44 44 44 44 44 44 44 44 44 43 43 43 43 43 43 43 43 43 43 43 43 43 43 43 43 43 43 42 42 42 42 42 42 42 42 42 42 42 42 42 42 42 42 42 42 42 42 42 41 41 41 41 41 41 41 41 41 41 41 41 41 41 41 41 41 41 
41 41 41 41 41 41 42 42 42 42 42 42 42 42 42 42 42 42 42 42 42 42 42 42 42 42 42 43 43 43 43 43 43 43 43 43 43 43 43 43 43 43 43 43 43 43 43 43 44 44 44 44 44 44 44 44 44 44 44 44 44 44 44 44 44 44 44 44 44 45 45 45 45 45 45 45 45 45 45 45 45 45 45 45 45 45 45 45 45 45 46 46 46 46 46 46 46 46 46 46 46 46 46 46 46 46 46 46 46 46 46 46 46 46 47 47 47 47 47 47 47 47 47 47 47 47 47 47 47 47 47 47 47 47 47 47 47 47 48 48 48 48 48 48 48 48 48 48 48 48 48 48 48 48 48 48 48 48 48 48 48 48 48 48 48 49 49 49 49 49 49 49 49 49 49 49 49 74 53 30 76 55 32 77 56 34 79 58 36 80 59 37 82 61 39 83 62 40 84 64 42 99 51 2 99 51 2 99 51 2 100 51 2 100 51 2 100 51 2 100 52 2 100 52 2 100 52 2 100 52 2 100 52 2 100 52 2 100 52 2 100 52 2 109 56 2 110 57 2 111 57 2 111 57 2 112 58 2 113 58 2 123 63 3 123 64 3 124 64 3 124 64 3 125 64 3 125 64 3 125 64 3 126 65 3 126 65 3 126 65 3 126 65 3 177 132 84 174 127 78 170 121 72 123 74 25 122 74 25 121 74 25 121 73 25 120 73 25 119 73 25 118 72 25 118 72 25 117 71 25 116 71 25 115 71 25 125 65 3 125 64 3 125 64 3 124 64 3 124 64 3 123 64 3 113 58 2 113 58 2 112 58 2 112 58 2 111 57 2 110 57 2 110 57 2 109 56 2 109 56 2 108 56 2 107 55 2 98 51 2 98 50 2 98 50 2 97 50 2 97 50 2 97 50 2 97 50 2 96 50 2 96 50 2 96 49 2 65 45 24 48 48 48 48 48 48 47 47 47 47 47 47 47 47 47 47 47 47 47 47 47 47 47 47 47 47 47 47 47 47 46 46 46 46 46 46 46 46 46 46 46 46 46 46 46 46 46 46 46 46 46 46 46 46 45 45 45 45 45 45 45 45 45 45 45 45 45 45 45 45 45 45 45 45 45 44 44 44 44 44 44 44 44 44 44 44 44 44 44 44 44 44 44 44 44 44 43 43 43 43 43 43 43 43 43 43 43 43 43 43 43 43 43 43 43 43 43 42 42 42 42 42 42 42 42 42 42 42 42 42 42 42 42 42 42 42 42 42 41 41 41 41 41 41 41 41 41 41 41 41 41 41 41 41 41 41 41 41 41 40 40 40 40 40 40 40 40 40 40 40 40 40 40 40 40 40 40 40 40 40 
40 40 40 40 40 40 40 40 40 40 40 40 41 41 41 41 41 41 41 41 41 41 41 41 41 41 41 41 41 41 41 41 41 41 41 41 42 42 42 42 42 42 42 42 42 42 42 42 42 42 42 42 42 42 42 42 42 43 43 43 43 43 43 43 43 43 43 43 43 43 43 43 43 43 43 43 43 43 43 43 43 44 44 44 44 44 44 44 44 44 44 44 44 44 44 44 44 44 44 44 44 44 45 45 45 45 45 45 45 45 45 45 45 45 45 45 45 45 45 45 45 45 45 45 45 45 45 45 45 46 46 46 46 46 46 46 46 46 46 46 46 46 46 46 46 46 46 46 46 46 46 46 46 46 46 46 47 47 47 47 47 47 47 47 47 47 47 47 47 47 47 47 47 47 47 47 47 47 47 47 76 55 32 78 56 34 79 58 36 81 60 37 82 61 39 83 63 41 85 64 42 86 65 44 100 52 2 100 52 2 100 52 2 100 52 2 100 52 2 100 52 2 101 52 2 101 52 2 101 52 2 101 52 2 101 52 2 101 52 2 101 52 2 101 52 2 110 57 2 111 57 2 112 58 2 112 58 2 113 58 2 123 63 3 123 64 3 124 64 3 124 64 3 125 64 3 125 64 3 125 65 3 126 65 3 126 65 3 126 65 3 126 65 3 127 65 3 127 65 3 180 135 88 176 130 82 125 78 30 124 78 30 124 77 30 123 77 30 122 77 30 121 76 30 127 65 3 126 65 3 126 65 3 126 65 3 125 65 3 125 64 3 125 64 3 124 64 3 124 64 3 124 64 3 123 63 3 113 58 2 112 58 2 112 58 2 111 57 2 111 57 2 110 57 2 109 56 2 109 56 2 108 56 2 99 51 2 99 51 2 98 51 2 98 51 2 98 51 2 98 50 2 98 50 2 97 50 2 97 50 2 97 50 2 96 50 2 60 39 18 46 46 46 46 46 46 46 46 46 46 46 46 46 46 46 46 46 46 45 45 45 45 45 45 45 45 45 45 45 45 45 45 45 45 45 45 45 45 45 45 45 45 44 44 44 44 44 44 44 44 44 44 44 44 44 44 44 44 44 44 44 44 44 44 44 44 43 43 43 43 43 43 43 43 43 43 43 43 43 43 43 43 43 43 43 43 43 42 42 42 42 42 42 42 42 42 42 42 42 42 42 42 42 42 42 42 42 42 42 42 42 41 41 41 41 41 41 41 41 41 41 41 41 41 41 41 41 41 41 41 41 41 40 40 40 40 40 40 40 40 40 40 40 40 40 40 40 40 40 40 40 40 40 39 39 39 39 39 39 39 39 39 39 39 39 39 39 39 39 39 39 39 39 39 39 39 39 38 38 38 
39 39 39 39 39 39 39 39 39 39 39 39 39 39 39 39 39 39 40 40 40 40 40 40 40 40 40 40 40 40 40 40 40 40 40 40 40 40 40 40 40 40 41 41 41 41 41 41 41 41 41 41 41 41 41 41 41 41 41 41 41 41 41 41 41 41 42 42 42 42 42 42 42 42 42 42 42 42 42 42 42 42 42 42 42 42 42 42 42 42 43 43 43 43 43 43 43 43 43 43 43 43 43 43 43 43 43 43 43 43 43 43 43 43 43 43 43 44 44 44 44 44 44 44 44 44 44 44 44 44 44 44 44 44 44 44 44 44 44 44 44 44 44 44 45 45 45 45 45 45 45 45 45 45 45 45 45 45 45 45 45 45 45 45 45 45 45 45 45 45 45 45 45 45 45 45 45 46 46 46 46 46 46 78 57 34 80 58 35 81 60 37 83 61 39 84 63 41 85 64 42 87 66 44 88 67 45 101 52 2 101 52 2 101 52 2 101 52 2 101 52 2 101 52 2 101 52 2 101 52 2 101 52 2 101 52 2 101 52 2 101 52 2 101 52 2 101 52 2 111 57 2 112 58 2 112 58 2 123 63 3 123 63 3 123 64 3 124 64 3 124 64 3 125 64 3 125 64 3 125 65 3 126 65 3 126 65 3 126 65 3 127 65 3 127 65 3 127 65 3 127 66 3 127 66 3 128 66 3 128 66 3 128 66 3 127 66 3 127 66 3 127 65 3 127 65 3 127 65 3 126 65 3 126 65 3 126 65 3 125 65 3 125 64 3 125 64 3 124 64 3 124 64 3 123 64 3 123 63 3 113 58 2 112 58 2 112 58 2 111 57 2 110 57 2 110 57 2 109 56 2 99 51 2 99 51 2 99 51 2 99 51 2 99 51 2 99 51 2 98 51 2 98 51 2 98 51 2 98 50 2 97 50 2 63 43 21 45 45 45 44 44 44 44 44 44 44 44 44 44 44 44 44 44 44 44 44 44 44 44 44 44 44 44 44 44 44 44 44 44 43 43 43 43 43 43 43 43 43 43 43 43 43 43 43 43 43 43 43 43 43 43 43 43 42 42 42 42 42 42 42 42 42 42 42 42 42 42 42 42 42 42 42 42 42 42 42 42 41 41 41 41 41 41 41 41 41 41 41 41 41 41 41 41 41 41 41 41 41 41 41 41 40 40 40 40 40 40 40 40 40 40 40 40 40 40 40 40 40 40 40 40 40 40 40 40 39 39 39 39 39 39 39 39 39 39 39 39 39 39 39 39 39 39 39 39 39 39 39 39 38 38 38 38 38 38 38 38 38 38 38 38 38 38 38 38 38 38 38 38 38 38 38 38 37 37 37 37 37 37 
38 38 38 38 38 38 38 38 38 38 38 38 38 38 38 38 38 38 38 38 38 38 38 38 38 38 38 39 39 39 39 39 39 39 39 39 39 39 39 39 39 39 39 39 39 39 39 39 39 39 39 40 40 40 40 40 40 40 40 40 40 40 40 40 40 40 40 40 40 40 40 40 40 40 40 40 40 40 41 41 41 41 41 41 41 41 41 41 41 41 41 41 41 41 41 41 41 41 41 41 41 41 42 42 42 42 42 42 42 42 42 42 42 42 42 42 42 42 42 42 42 42 42 42 42 42 42 42 42 42 42 42 43 43 43 43 43 43 43 43 43 43 43 43 43 43 43 43 43 43 43 43 43 43 43 43 43 43 43 43 43 43 43 43 43 44 44 44 44 44 44 44 44 44 44 44 44 44 44 44 44 44 44 44 44 44 80 58 35 82 60 37 83 62 39 85 63 41 86 65 42 87 66 44 89 68 45 90 69 47 101 52 2 102 52 2 102 52 2 102 53 2 102 53 2 102 53 2 102 53 2 102 53 2 102 53 2 102 53 2 102 53 2 102 53 2 102 53 2 102 53 2 112 58 2 112 58 2 123 63 3 123 63 3 123 64 3 124 64 3 124 64 3 125 64 3 125 64 3 125 65 3 126 65 3 126 65 3 126 65 3 127 65 3 127 65 3 127 65 3 127 66 3 128 66 3 128 66 3 128 66 3 128 66 3 128 66 3 127 66 3 127 65 3 127 65 3 127 65 3 126 65 3 126 65 3 126 65 3 125 65 3 125 64 3 125 64 3 124 64 3 124 64 3 124 64 3 123 63 3 113 58 2 112 58 2 112 58 2 111 57 2 111 57 2 110 57 2 100 52 2 100 52 2 100 52 2 100 52 2 100 52 2 100 51 2 99 51 2 99 51 2 99 51 2 99 51 2 98 51 2 67 47 25 43 43 43 43 43 43 43 43 43 43 43 43 43 43 43 43 43 43 43 43 43 42 42 42 42 42 42 42 42 42 42 42 42 42 42 42 42 42 42 42 42 42 42 42 42 42 42 42 41 41 41 41 41 41 41 41 41 41 41 41 41 41 41 41 41 41 41 41 41 41 41 41 41 41 41 40 40 40 40 40 40 40 40 40 40 40 40 40 40 40 40 40 40 40 40 40 40 40 40 40 40 40 39 39 39 39 39 39 39 39 39 39 39 39 39 39 39 39 39 39 39 39 39 39 39 39 38 38 38 38 38 38 38 38 38 38 38 38 38 38 38 38 38 38 38 38 38 38 38 38 38 38 38 37 37 37 37 37 37 37 37 37 37 37 37 37 37 37 37 37 37 37 37 37 37 37 37 36 36 36 36 36 36 36 36 36 
36 36 36 36 36 36 37 37 37 37 37 37 37 37 37 37 37 37 37 37 37 37 37 37 37 37 37 37 37 37 37 37 37 38 38 38 38 38 38 38 38 38 38 38 38 38 38 38 38 38 38 38 38 38 38 38 38 38 38 38 39 39 39 39 39 39 39 39 39 39 39 39 39 39 39 39 39 39 39 39 39 39 39 39 39 39 39 40 40 40 40 40 40 40 40 40 40 40 40 40 40 40 40 40 40 40 40 40 40 40 40 40 40 40 40 40 40 41 41 41 41 41 41 41 41 41 41 41 41 41 41 41 41 41 41 41 41 41 41 41 41 41 41 41 41 41 41 41 41 41 42 42 42 42 42 42 42 42 42 42 42 42 42 42 42 42 42 42 42 42 42 42 42 42 42 42 42 42 42 42 42 42 42 42 42 42 42 42 42 82 60 37 84 62 39 85 63 40 87 65 42 88 66 44 89 68 45 91 69 47 92 71 48 102 53 2 102 53 2 102 53 2 102 53 2 103 53 2 103 53 2 103 53 2 103 53 2 103 53 2 103 53 2 103 53 2 103 53 2 103 53 2 103 53 2 122 63 3 122 63 3 123 63 3 123 64 3 124 64 3 124 64 3 125 64 3 125 64 3 125 65 3 126 65 3 126 65 3 126 65 3 127 65 3 127 65 3 127 65 3 127 66 3 128 66 3 128 66 3 128 66 3 128 66 3 128 66 3 127 66 3 127 66 3 127 65 3 127 65 3 126 65 3 126 65 3 126 65 3 126 65 3 125 65 3 125 64 3 124 64 3 124 64 3 124 64 3 123 64 3 123 63 3 113 58 2 112 58 2 112 58 2 111 57 2 101 52 2 101 52 2 101 52 2 101 52 2 101 52 2 100 52 2 100 52 2 100 52 2 100 52 2 100 51 2 99 51 2 71 51 29 62 40 18 42 42 42 42 42 42 41 41 41 41 41 41 41 41 41 41 41 41 41 41 41 41 41 41 41 41 41 41 41 41 41 41 41 41 41 41 40 40 40 40 40 40 40 40 40 40 40 40 40 40 40 40 40 40 40 40 40 40 40 40 40 40 40 40 40 40 39 39 39 39 39 39 39 39 39 39 39 39 39 39 39 39 39 39 39 39 39 39 39 39 39 39 39 38 38 38 38 38 38 38 38 38 38 38 38 38 38 38 38 38 38 38 38 38 38 38 38 38 38 38 37 37 37 37 37 37 37 37 37 37 37 37 37 37 37 37 37 37 37 37 37 37 37 37 37 37 37 36 36 36 36 36 36 36 36 36 36 36 36 36 36 36 36 36 36 36 36 36 36 36 36 36 36 36 35 35 35 35 35 35 35 35 35 35 35 35 
35 35 35 35 35 35 35 35 35 35 35 35 36 36 36 36 36 36 36 36 36 36 36 36 36 36 36 36 36 36 36 36 36 36 36 36 36 36 36 37 37 37 37 37 37 37 37 37 37 37 37 37 37 37 37 37 37 37 37 37 37 37 37 37 37 37 37 37 37 38 38 38 38 38 38 38 38 38 38 38 38 38 38 38 38 38 38 38 38 38 38 38 38 38 38 38 38 38 38 39 39 39 39 39 39 39 39 39 39 39 39 39 39 39 39 39 39 39 39 39 39 39 39 39 39 39 39 39 39 39 39 39 40 40 40 40 40 40 40 40 40 40 40 40 40 40 40 40 40 40 40 40 40 40 40 40 40 40 40 40 40 40 40 40 40 40 40 40 41 41 41 41 41 41 41 41 41 41 41 41 41 41 41 41 41 41 41 41 41 41 41 41 84 62 39 86 64 40 87 65 42 89 67 44 90 68 45 91 70 47 92 71 49 94 72 50 103 53 2 103 53 2 103 53 2 103 53 2 103 53 2 103 53 2 103 53 2 103 53 2 103 53 2 103 53 2 103 53 2 103 53 2 103 53 2 94 48 2 94 48 2 123 63 3 123 64 3 124 64 3 124 64 3 124 64 3 125 64 3 125 65 3 126 65 3 126 65 3 126 65 3 127 65 3 127 65 3 127 65 3 127 66 3 128 66 3 128 66 3 128 66 3 128 66 3 128 66 3 128 66 3 127 66 3 127 65 3 127 65 3 127 65 3 126 65 3 126 65 3 126 65 3 125 65 3 125 64 3 125 64 3 124 64 3 124 64 3 123 64 3 123 63 3 123 63 3 112 58 2 112 58 2 102 53 2 102 53 2 102 52 2 102 52 2 101 52 2 101 52 2 101 52 2 101 52 2 101 52 2 100 52 2 100 52 2 76 55 33 65 44 22 40 40 40 40 40 40 40 40 40 40 40 40 40 40 40 40 40 40 40 40 40 40 40 40 40 40 40 39 39 39 39 39 39 39 39 39 39 39 39 39 39 39 39 39 39 39 39 39 39 39 39 39 39 39 39 39 39 39 39 39 38 38 38 38 38 38 38 38 38 38 38 38 38 38 38 38 38 38 38 38 38 38 38 38 38 38 38 38 38 38 37 37 37 37 37 37 37 37 37 37 37 37 37 37 37 37 37 37 37 37 37 37 37 37 37 37 37 36 36 36 36 36 36 36 36 36 36 36 36 36 36 36 36 36 36 36 36 36 36 36 36 36 36 36 36 36 36 35 35 35 35 35 35 35 35 35 35 35 35 35 35 35 35 35 35 35 35 35 35 35 35 35 35 35 34 34 34 34 34 34 34 34 34 34 34 34 34 34 34 
34 34 34 34 34 34 34 34 34 34 34 34 34 34 34 35 35 35 35 35 35 35 35 35 35 35 35 35 35 35 35 35 35 35 35 35 35 35 35 35 35 35 35 35 35 35 35 35 36 36 36 36 36 36 36 36 36 36 36 36 36 36 36 36 36 36 36 36 36 36 36 36 36 36 36 36 36 36 37 37 37 37 37 37 37 37 37 37 37 37 37 37 37 37 37 37 37 37 37 37 37 37 37 37 37 37 37 37 37 37 37 38 38 38 38 38 38 38 38 38 38 38 38 38 38 38 38 38 38 38 38 38 38 38 38 38 38 38 38 38 38 38 38 38 38 38 38 39 39 39 39 39 39 39 39 39 39 39 39 39 39 39 39 39 39 39 39 39 39 39 39 39 39 39 39 39 39 39 39 39 39 39 39 39 39 39 39 39 39 39 39 39 40 40 40 86 64 40 88 65 42 89 67 44 91 69 45 92 70 47 93 71 49 94 73 50 95 74 52 104 54 2 104 54 2 104 54 2 104 54 2 104 54 2 104 54 2 104 54 2 104 54 2 104 54 2 104 54 2 104 54 2 94 49 2 94 49 2 94 49 2 95 49 2 95 49 2 95 49 2 124 64 3 124 64 3 125 64 3 125 64 3 126 65 3 126 65 3 126 65 3 126 65 3 127 65 3 127 65 3 127 66 3 127 66 3 128 66 3 128 66 3 128 66 3 128 66 3 128 66 3 127 66 3 127 65 3 127 65 3 127 65 3 126 65 3 126 65 3 126 65 3 125 65 3 125 64 3 125 64 3 124 64 3 124 64 3 123 64 3 123 63 3 123 63 3 122 63 3 112 58 2 102 53 2 102 53 2 102 53 2 102 53 2 102 53 2 102 53 2 102 53 2 102 52 2 101 52 2 101 52 2 81 60 37 70 48 25 39 39 39 39 39 39 39 39 39 39 39 39 39 39 39 38 38 38 38 38 38 38 38 38 38 38 38 38 38 38 38 38 38 38 38 38 38 38 38 38 38 38 38 38 38 38 38 38 38 38 38 37 37 37 37 37 37 37 37 37 37 37 37 37 37 37 37 37 37 37 37 37 37 37 37 37 37 37 37 37 37 37 37 37 36 36 36 36 36 36 36 36 36 36 36 36 36 36 36 36 36 36 36 36 36 36 36 36 36 36 36 36 36 36 35 35 35 35 35 35 35 35 35 35 35 35 35 35 35 35 35 35 35 35 35 35 35 35 35 35 35 35 35 35 34 34 34 34 34 34 34 34 34 34 34 34 34 34 34 34 34 34 34 34 34 34 34 34 34 34 34 34 34 34 33 33 33 33 33 33 33 33 33 33 33 33 33 33 33 33 33 33 
33 33 33 33 33 33 33 33 33 33 33 33 33 33 33 33 33 33 33 33 33 34 34 34 34 34 34 34 34 34 34 34 34 34 34 34 34 34 34 34 34 34 34 34 34 34 34 34 34 34 34 34 34 34 35 35 35 35 35 35 35 35 35 35 35 35 35 35 35 35 35 35 35 35 35 35 35 35 35 35 35 35 35 35 35 35 35 36 36 36 36 36 36 36 36 36 36 36 36 36 36 36 36 36 36 36 36 36 36 36 36 36 36 36 36 36 36 36 36 36 36 36 36 36 36 36 37 37 37 37 37 37 37 37 37 37 37 37 37 37 37 37 37 37 37 37 37 37 37 37 37 37 37 37 37 37 37 37 37 37 37 37 37 37 37 37 37 37 38 38 38 38 38 38 38 38 38 38 38 38 38 38 38 38 38 38 38 38 38 38 38 38 38 38 38 87 64 40 88 66 42 90 67 44 91 69 45 92 70 47 94 72 49 95 73 50 96 75 52 97 76 53 104 54 2 105 54 2 105 54 2 105 54 2 105 54 2 105 54 2 105 54 2 105 54 2 105 54 2 95 49 2 95 49 2 95 49 2 95 49 2 95 49 2 95 49 2 95 49 2 95 49 2 95 49 2 96 49 2 125 64 3 125 65 3 126 65 3 126 65 3 126 65 3 127 65 3 127 65 3 127 66 3 127 66 3 128 66 3 128 66 3 128 66 3 128 66 3 128 66 3 127 66 3 127 65 3 127 65 3 127 65 3 126 65 3 126 65 3 126 65 3 125 65 3 125 64 3 125 64 3 124 64 3 124 64 3 124 64 3 123 63 3 94 49 2 94 48 2 103 53 2 103 53 2 103 53 2 103 53 2 103 53 2 103 53 2 103 53 2 102 53 2 102 53 2 102 53 2 85 64 42 74 52 30 37 37 37 37 37 37 37 37 37 37 37 37 37 37 37 37 37 37 37 37 37 37 37 37 37 37 37 37 37 37 37 37 37 37 37 37 37 37 37 37 37 37 36 36 36 36 36 36 36 36 36 36 36 36 36 36 36 36 36 36 36 36 36 36 36 36 36 36 36 36 36 36 36 36 36 36 36 36 35 35 35 35 35 35 35 35 35 35 35 35 35 35 35 35 35 35 35 35 35 35 35 35 35 35 35 35 35 35 35 35 35 34 34 34 34 34 34 34 34 34 34 34 34 34 34 34 34 34 34 34 34 34 34 34 34 34 34 34 34 34 34 34 34 34 33 33 33 33 33 33 33 33 33 33 33 33 33 33 33 33 33 33 33 33 33 33 33 33 33 33 33 33 33 33 33 33 33 32 32 32 32 32 32 32 32 32 32 32 32 32 32 32 32 32 32 
32 32 32 32 32 32 32 32 32 32 32 32 32 32 32 32 32 32 32 32 32 32 32 32 32 32 32 33 33 33 33 33 33 33 33 33 33 33 33 33 33 33 33 33 33 33 33 33 33 33 33 33 33 33 33 33 33 33 33 33 33 33 33 34 34 34 34 34 34 34 34 34 34 34 34 34 34 34 34 34 34 34 34 34 34 34 34 34 34 34 34 34 34 34 34 34 34 34 34 35 35 35 35 35 35 35 35 35 35 35 35 35 35 35 35 35 35 35 35 35 35 35 35 35 35 35 35 35 35 35 35 35 35 35 35 35 35 35 35 35 35 36 36 36 36 36 36 36 36 36 36 36 36 36 36 36 36 36 36 36 36 36 36 36 36 36 36 36 36 36 36 36 36 36 36 36 36 36 36 36 36 36 36 36 36 36 36 36 36 37 37 37 37 37 37 37 37 37 89 66 42 90 68 44 92 69 45 93 71 47 94 72 49 96 74 50 97 75 52 98 76 53 105 54 2 105 54 2 105 54 2 105 54 2 105 54 2 105 54 2 105 54 2 105 54 2 105 54 2 96 49 2 96 49 2 96 49 2 96 50 2 96 50 2 96 50 2 96 50 2 96 50 2 96 50 2 96 50 2 96 50 2 96 50 2 96 50 2 126 65 3 126 65 3 127 65 3 127 65 3 127 65 3 127 66 3 128 66 3 128 66 3 128 66 3 128 66 3 128 66 3 127 66 3 127 65 3 127 65 3 127 65 3 126 65 3 126 65 3 126 65 3 125 65 3 125 64 3 125 64 3 95 49 2 95 49 2 95 49 2 95 49 2 95 49 2 94 49 2 94 49 2 104 54 2 104 54 2 104 54 2 104 53 2 104 53 2 103 53 2 103 53 2 103 53 2 90 69 47 79 57 34 36 36 36 36 36 36 36 36 36 36 36 36 36 36 36 36 36 36 36 36 36 36 36 36 36 36 36 36 36 36 35 35 35 35 35 35 35 35 35 35 35 35 35 35 35 35 35 35 35 35 35 35 35 35 35 35 35 35 35 35 35 35 35 35 35 35 35 35 35 35 35 35 34 34 34 34 34 34 34 34 34 34 34 34 34 34 34 34 34 34 34 34 34 34 34 34 34 34 34 34 34 34 34 34 34 34 34 34 33 33 33 33 33 33 33 33 33 33 33 33 33 33 33 33 33 33 33 33 33 33 33 33 33 33 33 33 33 33 33 33 33 33 33 33 32 32 32 32 32 32 32 32 32 32 32 32 32 32 32 32 32 32 32 32 32 32 32 32 32 32 32 32 32 32 32 32 32 31 31 31 31 31 31 31 31 31 31 31 31 31 31 31 31 31 31 31 31 31 
31 31 31 31 31 31 31 31 31 31 31 31 31 31 31 31 31 31 31 31 31 31 31 31 31 31 31 31 31 31 31 31 31 32 32 32 32 32 32 32 32 32 32 32 32 32 32 32 32 32 32 32 32 32 32 32 32 32 32 32 32 32 32 32 32 32 32 32 32 33 33 33 33 33 33 33 33 33 33 33 33 33 33 33 33 33 33 33 33 33 33 33 33 33 33 33 33 33 33 33 33 33 33 33 33 33 33 33 33 33 33 34 34 34 34 34 34 34 34 34 34 34 34 34 34 34 34 34 34 34 34 34 34 34 34 34 34 34 34 34 34 34 34 34 34 34 34 34 34 34 34 34 34 34 34 34 35 35 35 35 35 35 35 35 35 35 35 35 35 35 35 35 35 35 35 35 35 35 35 35 35 35 35 35 35 35 35 35 35 35 35 35 35 35 35 35 35 35 35 35 35 91 68 43 92 69 45 94 71 47 95 72 49 96 74 50 97 75 52 99 77 53 100 78 55 106 55 2 106 55 2 106 55 2 106 55 2 106 55 2 106 55 2 106 55 2 96 50 2 96 50 2 96 50 2 96 50 2 97 50 2 97 50 2 97 50 2 97 50 2 97 50 2 97 50 2 97 50 2 97 50 2 97 50 2 97 50 2 97 50 2 97 50 2 97 50 2 127 65 3 127 65 3 127 66 3 127 66 3 128 66 3 128 66 3 128 66 3 128 66 3 127 66 3 127 65 3 127 65 3 127 65 3 126 65 3 96 50 2 96 50 2 96 50 2 96 50 2 96 50 2 96 50 2 96 50 2 96 49 2 96 49 2 95 49 2 95 49 2 95 49 2 105 54 2 105 54 2 104 54 2 104 54 2 104 54 2 104 54 2 104 54 2 96 74 52 84 62 39 35 35 35 35 35 35 35 35 35 35 35 35 35 35 35 35 35 35 34 34 34 34 34 34 34 34 34 34 34 34 34 34 34 34 34 34 34 34 34 34 34 34 34 34 34 34 34 34 34 34 34 34 34 34 34 34 34 34 34 34 34 34 34 33 33 33 33 33 33 33 33 33 33 33 33 33 33 33 33 33 33 33 33 33 33 33 33 33 33 33 33 33 33 33 33 33 33 33 33 33 33 33 33 33 33 32 32 32 32 32 32 32 32 32 32 32 32 32 32 32 32 32 32 32 32 32 32 32 32 32 32 32 32 32 32 32 32 32 32 32 32 31 31 31 31 31 31 31 31 31 31 31 31 31 31 31 31 31 31 31 31 31 31 31 31 31 31 31 31 31 31 31 31 31 31 31 31 31 31 31 30 30 30 30 30 30 30 30 30 30 30 30 30 30 30 30 30 30 30 30 30 
30 30 30 30 30 30 30 30 30 30 30 30 30 30 30 30 30 30 30 30 30 30 30 30 30 30 30 30 30 30 30 30 30 30 30 30 31 31 31 31 31 31 31 31 31 31 31 31 31 31 31 31 31 31 31 31 31 31 31 31 31 31 31 31 31 31 31 31 31 31 31 31 31 31 31 31 31 31 32 32 32 32 32 32 32 32 32 32 32 32 32 32 32 32 32 32 32 32 32 32 32 32 32 32 32 32 32 32 32 32 32 32 32 32 32 32 32 32 32 32 32 32 32 33 33 33 33 33 33 33 33 33 33 33 33 33 33 33 33 33 33 33 33 33 33 33 33 33 33 33 33 33 33 33 33 33 33 33 33 33 33 33 33 33 33 33 33 33 33 33 33 33 33 33 34 34 34 34 34 34 34 34 34 34 34 34 34 34 34 34 34 34 34 34 34 34 34 34 34 34 34 34 34 34 93 70 45 94 71 47 96 73 49 97 74 50 98 76 52 99 77 53 100 78 55 101 79 56 107 55 2 107 55 2 107 55 2 107 55 2 107 55 2 97 50 2 97 50 2 97 50 2 97 50 2 97 50 2 97 50 2 97 50 2 97 50 2 98 50 2 98 50 2 98 50 2 98 50 2 98 50 2 98 50 2 98 50 2 98 50 2 98 50 2 98 50 2 98 50 2 97 50 2 97 50 2 127 66 3 128 66 3 128 66 3 128 66 3 127 66 3 127 66 3 97 50 2 97 50 2 97 50 2 97 50 2 97 50 2 97 50 2 97 50 2 97 50 2 97 50 2 97 50 2 97 50 2 96 50 2 96 50 2 96 50 2 96 50 2 96 49 2 105 54 2 105 54 2 105 54 2 105 54 2 105 54 2 105 54 2 105 54 2 89 67 43 34 34 34 33 33 33 33 33 33 33 33 33 33 33 33 33 33 33 33 33 33 33 33 33 33 33 33 33 33 33 33 33 33 33 33 33 33 33 33 33 33 33 33 33 33 33 33 33 33 33 33 33 33 33 33 33 33 32 32 32 32 32 32 32 32 32 32 32 32 32 32 32 32 32 32 32 32 32 32 32 32 32 32 32 32 32 32 32 32 32 32 32 32 32 32 32 32 32 32 31 31 31 31 31 31 31 31 31 31 31 31 31 31 31 31 31 31 31 31 31 31 31 31 31 31 31 31 31 31 31 31 31 31 31 31 31 31 31 31 31 31 30 30 30 30 30 30 30 30 30 30 30 30 30 30 30 30 30 30 30 30 30 30 30 30 30 30 30 30 30 30 30 30 30 30 30 30 30 30 30 29 29 29 29 29 29 29 29 29 29 29 29 29 29 29 29 29 29 29 29 29 29 29 29 
29 29 29 29 29 29 29 29 29 29 29 29 29 29 29 29 29 29 29 29 29 29 29 29 29 29 29 29 29 29 29 29 29 29 29 29 29 29 29 29 29 29 30 30 30 30 30 30 30 30 30 30 30 30 30 30 30 30 30 30 30 30 30 30 30 30 30 30 30 30 30 30 30 30 30 30 30 30 30 30 30 30 30 30 31 31 31 31 31 31 31 31 31 31 31 31 31 31 31 31 31 31 31 31 31 31 31 31 31 31 31 31 31 31 31 31 31 31 31 31 31 31 31 31 31 31 31 31 31 31 31 31 31 31 31 32 32 32 32 32 32 32 32 32 32 32 32 32 32 32 32 32 32 32 32 32 32 32 32 32 32 32 32 32 32 32 32 32 32 32 32 32 32 32 32 32 32 32 32 32 32 32 32 32 32 32 32 32 32 32 32 32 32 32 32 32 32 32 33 33 33 33 33 33 33 33 33 95 71 47 96 73 48 97 74 50 99 76 52 100 77 53 101 79 55 102 80 56 103 81 58 107 55 2 107 55 2 107 55 2 107 55 2 97 50 2 98 50 2 98 50 2 98 51 2 98 51 2 98 51 2 98 51 2 98 51 2 98 51 2 98 51 2 98 51 2 98 51 2 98 51 2 98 51 2 98 51 2 98 51 2 98 51 2 98 51 2 98 51 2 98 51 2 98 51 2 98 51 2 98 51 2 98 50 2 98 50 2 98 51 2 98 51 2 98 51 2 98 51 2 98 51 2 98 51 2 98 51 2 98 51 2 98 50 2 98 50 2 98 50 2 97 50 2 97 50 2 97 50 2 97 50 2 97 50 2 97 50 2 96 50 2 96 50 2 106 55 2 106 55 2 106 55 2 106 54 2 105 54 2 94 72 48 32 32 32 32 32 32 32 32 32 32 32 32 32 32 32 32 32 32 32 32 32 32 32 32 32 32 32 32 32 32 32 32 32 32 32 32 32 32 32 32 32 32 32 32 32 32 32 32 31 31 31 31 31 31 31 31 31 31 31 31 31 31 31 31 31 31 31 31 31 31 31 31 31 31 31 31 31 31 31 31 31 31 31 31 31 31 31 31 31 31 31 31 31 31 31 31 30 30 30 30 30 30 30 30 30 30 30 30 30 30 30 30 30 30 30 30 30 30 30 30 30 30 30 30 30 30 30 30 30 30 30 30 30 30 30 30 30 30 30 30 30 29 29 29 29 29 29 29 29 29 29 29 29 29 29 29 29 29 29 29 29 29 29 29 29 29 29 29 29 29 29 29 29 29 29 29 29 29 29 29 29 29 29 28 28 28 28 28 28 28 28 28 28 28 28 28 28 28 28 28 28 28 28 28 28 28 28 
28 28 28 28 28 28 28 28 28 28 28 28 28 28 28 28 28 28 28 28 28 28 28 28 28 28 28 28 28 28 28 28 28 28 28 28 28 28 28 28 28 28 28 28 28 29 29 29 29 29 29 29 29 29 29 29 29 29 29 29 29 29 29 29 29 29 29 29 29 29 29 29 29 29 29 29 29 29 29 29 29 29 29 29 29 29 29 29 29 29 29 29 29 30 30 30 30 30 30 30 30 30 30 30 30 30 30 30 30 30 30 30 30 30 30 30 30 30 30 30 30 30 30 30 30 30 30 30 30 30 30 30 30 30 30 30 30 30 30 30 30 30 30 30 30 30 30 31 31 31 31 31 31 31 31 31 31 31 31 31 31 31 31 31 31 31 31 31 31 31 31 31 31 31 31 31 31 31 31 31 31 31 31 31 31 31 31 31 31 31 31 31 31 31 31 31 31 31 31 31 31 31 31 31 31 31 31 31 31 31 97 73 48 98 75 50 99 76 52 101 77 53 102 79 55 103 80 56 104 81 58 105 82 59 108 56 2 108 56 2 98 51 2 98 51 2 98 51 2 98 51 2 99 51 2 99 51 2 99 51 2 99 51 2 99 51 2 99 51 2 99 51 2 99 51 2 99 51 2 99 51 2 99 51 2 99 51 2 99 51 2 99 51 2 99 51 2 99 51 2 99 51 2 99 51 2 99 51 2 99 51 2 98 51 2 99 51 2 99 51 2 99 51 2 99 51 2 99 51 2 99 51 2 99 51 2 99 51 2 99 51 2 98 51 2 98 51 2 98 51 2 98 51 2 98 51 2 98 51 2 98 50 2 98 50 2 97 50 2 97 50 2 97 50 2 107 55 2 107 55 2 106 55 2 106 55 2 100 77 54 31 31 31 31 31 31 31 31 31 31 31 31 31 31 31 31 31 31 31 31 31 31 31 31 31 31 31 31 31 31 31 31 31 31 31 31 31 31 31 30 30 30 30 30 30 30 30 30 30 30 30 30 30 30 30 30 30 30 30 30 30 30 30 30 30 30 30 30 30 30 30 30 30 30 30 30 30 30 30 30 30 30 30 30 30 30 30 30 30 30 30 30 30 29 29 29 29 29 29 29 29 29 29 29 29 29 29 29 29 29 29 29 29 29 29 29 29 29 29 29 29 29 29 29 29 29 29 29 29 29 29 29 29 29 29 29 29 29 29 29 29 28 28 28 28 28 28 28 28 28 28 28 28 28 28 28 28 28 28 28 28 28 28 28 28 28 28 28 28 28 28 28 28 28 28 28 28 28 28 28 28 28 28 28 28 28 27 27 27 27 27 27 27 27 27 27 27 27 27 27 27 27 27 27 27 27 27 27 27 27 
27 27 27 27 27 27 27 27 27 27 27 27 27 27 27 27 27 27 27 27 27 27 27 27 27 27 27 27 27 27 27 27 27 27 27 27 27 27 27 27 27 27 27 27 27 27 27 27 28 28 28 28 28 28 28 28 28 28 28 28 28 28 28 28 28 28 28 28 28 28 28 28 28 28 28 28 28 28 28 28 28 28 28 28 28 28 28 28 28 28 28 28 28 28 28 28 28 28 28 29 29 29 29 29 29 29 29 29 29 29 29 29 29 29 29 29 29 29 29 29 29 29 29 29 29 29 29 29 29 29 29 29 29 29 29 29 29 29 29 29 29 29 29 29 29 29 29 29 29 29 29 29 29 29 29 29 29 29 29 29 29 29 30 30 30 30 30 30 30 30 30 30 30 30 30 30 30 30 30 30 30 30 30 30 30 30 30 30 30 30 30 30 30 30 30 30 30 30 30 30 30 30 30 30 30 30 30 30 30 30 30 30 30 99 75 50 100 76 52 101 78 53 102 79 55 103 80 56 104 82 58 105 83 59 106 84 60 98 51 2 99 51 2 99 51 2 99 51 2 99 51 2 99 51 2 99 51 2 99 51 2 100 51 2 100 51 2 100 52 2 100 52 2 100 52 2 100 52 2 100 52 2 100 52 2 100 52 2 100 52 2 100 52 2 100 52 2 100 51 2 100 51 2 100 51 2 99 51 2 99 51 2 99 51 2 99 51 2 99 51 2 99 51 2 99 51 2 99 51 2 99 51 2 99 51 2 99 51 2 99 51 2 99 51 2 99 51 2 99 51 2 99 51 2 99 51 2 99 51 2 98 51 2 98 51 2 98 51 2 98 50 2 98 50 2 107 55 2 107 55 2 107 55 2 105 83 59 92 69 44 30 30 30 30 30 30 30 30 30 30 30 30 30 30 30 30 30 30 30 30 30 30 30 30 29 29 29 29 29 29 29 29 29 29 29 29 29 29 29 29 29 29 29 29 29 29 29 29 29 29 29 29 29 29 29 29 29 29 29 29 29 29 29 29 29 29 29 29 29 29 29 29 29 29 29 29 29 29 29 29 29 29 29 29 29 29 29 28 28 28 28 28 28 28 28 28 28 28 28 28 28 28 28 28 28 28 28 28 28 28 28 28 28 28 28 28 28 28 28 28 28 28 28 28 28 28 28 28 28 28 28 28 28 28 28 28 28 28 27 27 27 27 27 27 27 27 27 27 27 27 27 27 27 27 27 27 27 27 27 27 27 27 27 27 27 27 27 27 27 27 27 27 27 27 27 27 27 27 27 27 27 27 27 27 27 27 27 27 27 26 26 26 26 26 26 26 26 26 26 26 26 26 26 26 26 26 26 26 26 26 
26 26 26 26 26 26 26 26 26 26 26 26 26 26 26 26 26 26 26 26 26 26 26 26 26 26 26 26 26 26 26 26 26 26 26 26 26 26 26 26 26 26 26 26 26 26 26 26 26 26 26 27 27 27 27 27 27 27 27 27 27 27 27 27 27 27 27 27 27 27 27 27 27 27 27 27 27 27 27 27 27 27 27 27 27 27 27 27 27 27 27 27 27 27 27 27 27 27 27 27 27 27 27 27 27 27 27 27 28 28 28 28 28 28 28 28 28 28 28 28 28 28 28 28 28 28 28 28 28 28 28 28 28 28 28 28 28 28 28 28 28 28 28 28 28 28 28 28 28 28 28 28 28 28 28 28 28 28 28 28 28 28 28 28 28 28 28 28 28 28 28 28 28 28 28 28 28 28 28 28 29 29 29 29 29 29 29 29 29 29 29 29 29 29 29 29 29 29 29 29 29 29 29 29 29 29 29 29 29 29 29 29 29 29 29 29 100 77 51 102 78 53 103 79 55 104 81 56 105 82 58 106 83 59 153 142 130 154 143 131 154 143 132 155 144 132 100 51 2 100 52 2 100 52 2 100 52 2 100 52 2 100 52 2 100 52 2 100 52 2 101 52 2 101 52 2 101 52 2 101 52 2 101 52 2 101 52 2 101 52 2 101 52 2 101 52 2 100 52 2 100 52 2 100 52 2 100 52 2 100 52 2 100 52 2 100 52 2 100 52 2 100 52 2 100 52 2 100 52 2 100 52 2 100 52 2 100 52 2 100 52 2 100 52 2 100 52 2 100 52 2 100 51 2 100 51 2 99 51 2 99 51 2 99 51 2 99 51 2 98 51 2 98 51 2 98 51 2 108 56 2 111 88 64 98 74 50 29 29 29 29 29 29 29 29 29 29 29 29 28 28 28 28 28 28 28 28 28 28 28 28 28 28 28 28 28 28 28 28 28 28 28 28 28 28 28 28 28 28 28 28 28 28 28 28 28 28 28 28 28 28 28 28 28 28 28 28 28 28 28 28 28 28 28 28 28 28 28 28 28 28 28 28 28 28 28 28 28 28 28 28 27 27 27 27 27 27 27 27 27 27 27 27 27 27 27 27 27 27 27 27 27 27 27 27 27 27 27 27 27 27 27 27 27 27 27 27 27 27 27 27 27 27 27 27 27 27 27 27 27 27 27 27 27 27 27 27 27 26 26 26 26 26 26 26 26 26 26 26 26 26 26 26 26 26 26 26 26 26 26 26 26 26 26 26 26 26 26 26 26 26 26 26 26 26 26 26 26 26 26 26 26 26 26 26 26 26 26 26 25 25 25 25 25 25 25 25 25 25 25 25 25 25 25 25 25 25 25 25 25 
25 25 25 25 25 25 25 25 25 25 25 25 25 25 25 25 25 25 25 25 25 25 25 25 25 25 25 25 25 25 25 25 25 25 25 25 25 25 25 25 25 25 25 25 25 25 25 25 25 25 25 26 26 26 26 26 26 26 26 26 26 26 26 26 26 26 26 26 26 26 26 26 26 26 26 26 26 26 26 26 26 26 26 26 26 26 26 26 26 26 26 26 26 26 26 26 26 26 26 26 26 26 26 26 26 26 26 26 26 26 26 26 26 26 27 27 27 27 27 27 27 27 27 27 27 27 27 27 27 27 27 27 27 27 27 27 27 27 27 27 27 27 27 27 27 27 27 27 27 27 27 27 27 27 27 27 27 27 27 27 27 27 27 27 27 27 27 27 27 27 27 27 27 27 27 27 27 27 27 27 27 27 27 27 27 27 27 27 27 27 27 27 27 27 27 27 27 27 28 28 28 28 28 28 28 28 28 28 28 28 28 28 28 28 28 28 28 28 28 102 78 53 104 80 54 105 81 56 106 82 58 107 83 59 153 143 130 154 143 131 155 144 132 155 145 132 156 145 133 156 145 133 157 146 134 101 52 2 101 52 2 101 52 2 101 52 2 101 52 2 101 52 2 101 52 2 101 52 2 101 52 2 101 52 2 101 52 2 101 52 2 101 52 2 101 52 2 101 52 2 101 52 2 101 52 2 101 52 2 101 52 2 101 52 2 101 52 2 101 52 2 101 52 2 101 52 2 101 52 2 101 52 2 101 52 2 101 52 2 101 52 2 101 52 2 101 52 2 101 52 2 100 52 2 100 52 2 100 52 2 100 52 2 100 51 2 99 51 2 99 51 2 99 51 2 99 51 2 116 94 70 104 80 55 27 27 27 27 27 27 27 27 27 27 27 27 27 27 27 27 27 27 27 27 27 27 27 27 27 27 27 27 27 27 27 27 27 27 27 27 27 27 27 27 27 27 27 27 27 27 27 27 27 27 27 27 27 27 27 27 27 27 27 27 27 27 27 27 27 27 27 27 27 27 27 27 27 27 27 27 27 27 27 27 27 26 26 26 26 26 26 26 26 26 26 26 26 26 26 26 26 26 26 26 26 26 26 26 26 26 26 26 26 26 26 26 26 26 26 26 26 26 26 26 26 26 26 26 26 26 26 26 26 26 26 26 26 26 26 26 26 26 26 26 26 26 26 26 25 25 25 25 25 25 25 25 25 25 25 25 25 25 25 25 25 25 25 25 25 25 25 25 25 25 25 25 25 25 25 25 25 25 25 25 25 25 25 25 25 25 25 25 25 25 25 25 25 25 25 25 25 25 24 24 24 24 24 24 24 24 24 24 24 24 24 24 24 24 24 24 
24 24 24 24 24 24 24 24 24 24 24 24 24 24 24 24 24 24 24 24 24 24 24 24 24 24 24 24 24 24 24 24 24 24 24 24 24 24 24 24 24 24 24 24 24 24 24 24 24 24 24 25 25 25 25 25 25 25 25 25 25 25 25 25 25 25 25 25 25 25 25 25 25 25 25 25 25 25 25 25 25 25 25 25 25 25 25 25 25 25 25 25 25 25 25 25 25 25 25 25 25 25 25 25 25 25 25 25 25 25 25 25 25 25 25 25 25 25 25 25 26 26 26 26 26 26 26 26 26 26 26 26 26 26 26 26 26 26 26 26 26 26 26 26 26 26 26 26 26 26 26 26 26 26 26 26 26 26 26 26 26 26 26 26 26 26 26 26 26 26 26 26 26 26 26 26 26 26 26 26 26 26 26 26 26 26 26 26 26 26 26 26 26 26 26 26 26 26 26 26 26 26 26 26 26 26 26 26 26 26 26 26 26 26 26 26 26 26 26 27 27 27 104 80 54 105 81 56 106 82 57 153 142 130 154 143 131 155 144 131 156 144 132 156 145 133 157 146 133 157 146 134 157 146 134 157 146 134 158 147 134 158 147 134 102 53 2 102 53 2 102 53 2 102 53 2 102 53 2 102 53 2 102 53 2 102 53 2 102 53 2 102 53 2 102 53 2 102 53 2 102 53 2 102 53 2 102 52 2 102 52 2 101 52 2 102 52 2 102 52 2 102 52 2 102 53 2 102 53 2 102 53 2 102 52 2 102 52 2 102 52 2 102 52 2 101 52 2 101 52 2 101 52 2 101 52 2 101 52 2 101 52 2 100 52 2 106 95 83 101 91 79 97 86 74 93 82 70 109 86 61 26 26 26 26 26 26 26 26 26 26 26 26 26 26 26 26 26 26 26 26 26 26 26 26 26 26 26 26 26 26 26 26 26 26 26 26 26 26 26 26 26 26 26 26 26 26 26 26 26 26 26 26 26 26 26 26 26 26 26 26 26 26 26 26 26 26 26 26 26 26 26 26 26 26 26 26 26 26 25 25 25 25 25 25 25 25 25 25 25 25 25 25 25 25 25 25 25 25 25 25 25 25 25 25 25 25 25 25 25 25 25 25 25 25 25 25 25 25 25 25 25 25 25 25 25 25 25 25 25 25 25 25 25 25 25 25 25 25 25 25 25 25 25 25 25 25 25 24 24 24 24 24 24 24 24 24 24 24 24 24 24 24 24 24 24 24 24 24 24 24 24 24 24 24 24 24 24 24 24 24 24 24 24 24 24 24 24 24 24 24 24 24 24 24 24 24 24 24 24 24 24 24 24 24 24 24 24 23 23 23 23 23 23 23 23 23 23 23 23 
23 23 23 23 23 23 23 23 23 23 23 23 23 23 23 23 23 23 23 23 23 23 23 23 23 23 23 23 23 23 23 23 23 23 23 23 23 23 23 23 23 23 23 23 23 23 23 23 23 23 23 24 24 24 24 24 24 24 24 24 24 24 24 24 24 24 24 24 24 24 24 24 24 24 24 24 24 24 24 24 24 24 24 24 24 24 24 24 24 24 24 24 24 24 24 24 24 24 24 24 24 24 24 24 24 24 24 24 24 24 24 24 24 24 24 24 24 24 24 24 24 24 24 24 24 24 25 25 25 25 25 25 25 25 25 25 25 25 25 25 25 25 25 25 25 25 25 25 25 25 25 25 25 25 25 25 25 25 25 25 25 25 25 25 25 25 25 25 25 25 25 25 25 25 25 25 25 25 25 25 25 25 25 25 25 25 25 25 25 25 25 25 25 25 25 25 25 25 25 25 25 25 25 25 25 25 25 25 25 25 25 25 25 25 25 25 25 25 25 25 25 25 105 80 54 106 81 56 153 141 129 154 142 130 155 143 131 156 144 131 156 145 132 157 145 133 157 146 133 158 146 134 158 147 134 158 147 135 158 147 135 158 147 135 158 147 135 158 147 135 158 147 134 103 53 2 103 53 2 103 53 2 103 53 2 103 53 2 103 53 2 103 53 2 103 53 2 103 53 2 103 53 2 103 53 2 102 53 2 102 53 2 102 53 2 102 53 2 102 53 2 102 53 2 102 53 2 102 53 2 102 53 2 102 53 2 102 53 2 102 53 2 102 53 2 102 53 2 102 53 2 102 53 2 102 53 2 115 104 92 111 100 88 107 96 84 103 92 79 98 87 75 94 83 71 115 92 67 25 25 25 25 25 25 25 25 25 25 25 25 25 25 25 25 25 25 25 25 25 25 25 25 25 25 25 25 25 25 25 25 25 25 25 25 25 25 25 25 25 25 25 25 25 25 25 25 25 25 25 25 25 25 25 25 25 25 25 25 25 25 25 25 25 25 25 25 25 25 25 25 25 25 25 25 25 25 24 24 24 24 24 24 24 24 24 24 24 24 24 24 24 24 24 24 24 24 24 24 24 24 24 24 24 24 24 24 24 24 24 24 24 24 24 24 24 24 24 24 24 24 24 24 24 24 24 24 24 24 24 24 24 24 24 24 24 24 24 24 24 24 24 24 24 24 24 24 24 24 24 24 24 23 23 23 23 23 23 23 23 23 23 23 23 23 23 23 23 23 23 23 23 23 23 23 23 23 23 23 23 23 23 23 23 23 23 23 23 23 23 23 23 23 23 23 23 23 23 23 23 23 23 23 23 23 23 23 23 23 23 23 23 23 23 23 22 22 22 22 22 22 
22 22 22 22 22 22 22 22 22 22 22 22 22 22 22 22 22 22 22 22 22 22 22 22 22 22 22 22 22 22 22 22 22 22 22 22 22 22 22 22 22 22 22 22 22 22 22 22 23 23 23 23 23 23 23 23 23 23 23 23 23 23 23 23 23 23 23 23 23 23 23 23 23 23 23 23 23 23 23 23 23 23 23 23 23 23 23 23 23 23 23 23 23 23 23 23 23 23 23 23 23 23 23 23 23 23 23 23 23 23 23 23 23 23 23 23 23 23 23 23 23 23 23 23 23 23 23 23 23 24 24 24 24 24 24 24 24 24 24 24 24 24 24 24 24 24 24 24 24 24 24 24 24 24 24 24 24 24 24 24 24 24 24 24 24 24 24 24 24 24 24 24 24 24 24 24 24 24 24 24 24 24 24 24 24 24 24 24 24 24 24 24 24 24 24 24 24 24 24 24 24 24 24 24 24 24 24 24 24 24 24 24 24 24 24 24 24 24 24 24 24 24 24 24 24 24 24 24 153 142 129 154 143 130 155 144 131 156 144 132 157 145 132 157 146 133 158 146 134 158 147 134 159 147 134 159 147 135 159 148 135 159 148 135 159 147 135 159 147 135 158 147 135 158 147 134 158 146 134 157 146 133 104 54 2 104 53 2 104 53 2 104 53 2 104 53 2 103 53 2 103 53 2 103 53 2 103 53 2 103 53 2 103 53 2 103 53 2 103 53 2 103 53 2 103 53 2 103 53 2 103 53 2 103 53 2 103 53 2 103 53 2 103 53 2 129 118 106 125 114 102 121 110 97 117 106 93 112 101 89 108 97 84 104 92 80 99 88 76 95 84 71 90 79 66 24 24 24 24 24 24 24 24 24 24 24 24 24 24 24 24 24 24 24 24 24 24 24 24 24 24 24 24 24 24 24 24 24 24 24 24 24 24 24 24 24 24 24 24 24 24 24 24 24 24 24 24 24 24 24 24 24 24 24 24 24 24 24 24 24 24 24 24 24 24 24 24 24 24 24 24 24 24 23 23 23 23 23 23 23 23 23 23 23 23 23 23 23 23 23 23 23 23 23 23 23 23 23 23 23 23 23 23 23 23 23 23 23 23 23 23 23 23 23 23 23 23 23 23 23 23 23 23 23 23 23 23 23 23 23 23 23 23 23 23 23 23 23 23 23 23 23 23 23 23 23 23 23 23 23 23 23 23 23 22 22 22 22 22 22 22 22 22 22 22 22 22 22 22 22 22 22 22 22 22 22 22 22 22 22 22 22 22 22 22 22 22 22 22 22 22 22 22 22 22 22 22 22 22 22 22 22 22 22 22 22 22 22 22 22 22 22 22 22 22 22 22 22 22 22 
21 21 21 21 21 21 21 21 21 21 21 21 21 21 21 21 21 21 21 21 21 21 21 21 21 21 21 21 21 21 21 21 21 21 21 21 21 21 21 21 21 21 22 22 22 22 22 22 22 22 22 22 22 22 22 22 22 22 22 22 22 22 22 22 22 22 22 22 22 22 22 22 22 22 22 22 22 22 22 22 22 22 22 22 22 22 22 22 22 22 22 22 22 22 22 22 22 22 22 22 22 22 22 22 22 22 22 22 22 22 22 22 22 22 22 22 22 22 22 22 22 22 22 22 22 22 22 22 22 23 23 23 23 23 23 23 23 23 23 23 23 23 23 23 23 23 23 23 23 23 23 23 23 23 23 23 23 23 23 23 23 23 23 23 23 23 23 23 23 23 23 23 23 23 23 23 23 23 23 23 23 23 23 23 23 23 23 23 23 23 23 23 23 23 23 23 23 23 23 23 23 23 23 23 23 23 23 23 23 23 23 23 23 23 23 23 23 23 23 23 23 23 23 23 23 23 23 23 23 23 23 23 23 23 23 23 23 157 145 132 157 146 132 158 146 133 159 147 134 159 147 134 159 148 135 159 148 135 160 148 135 160 148 135 159 148 135 159 148 135 159 147 135 159 147 134 158 147 134 157 146 134 157 145 133 156 145 132 155 144 132 104 54 2 104 54 2 104 54 2 104 54 2 104 54 2 104 54 2 104 54 2 104 54 2 104 54 2 104 54 2 104 54 2 104 54 2 104 54 2 104 54 2 142 131 119 139 127 115 135 123 111 131 119 107 127 115 103 122 111 98 118 107 94 114 102 90 109 98 85 105 93 81 100 89 76 96 84 71 91 79 67 23 23 23 23 23 23 23 23 23 23 23 23 23 23 23 23 23 23 23 23 23 23 23 23 23 23 23 23 23 23 23 23 23 23 23 23 23 23 23 23 23 23 23 23 23 23 23 23 23 23 23 23 23 23 23 23 23 23 23 23 23 23 23 23 23 23 23 23 23 23 23 23 23 23 23 23 23 23 23 23 23 22 22 22 22 22 22 22 22 22 22 22 22 22 22 22 22 22 22 22 22 22 22 22 22 22 22 22 22 22 22 22 22 22 22 22 22 22 22 22 22 22 22 22 22 22 22 22 22 22 22 22 22 22 22 22 22 22 22 22 22 22 22 22 22 22 22 22 22 22 22 22 22 22 22 22 22 22 22 22 22 22 22 22 22 22 22 22 21 21 21 21 21 21 21 21 21 21 21 21 21 21 21 21 21 21 21 21 21 21 21 21 21 21 21 21 21 21 21 21 21 21 21 21 21 21 21 21 21 21 21 21 21 21 21 21 21 21 21 21 21 21 21 21 21 21 21 21 
20 20 20 20 20 20 20 20 20 20 20 20 20 20 20 20 20 20 20 20 20 20 20 20 20 20 20 20 20 20 20 20 20 21 21 21 21 21 21 21 21 21 21 21 21 21 21 21 21 21 21 21 21 21 21 21 21 21 21 21 21 21 21 21 21 21 21 21 21 21 21 21 21 21 21 21 21 21 21 21 21 21 21 21 21 21 21 21 21 21 21 21 21 21 21 21 21 21 21 21 21 21 21 21 21 21 21 21 21 21 21 21 21 21 21 21 21 21 21 21 21 21 21 21 21 21 21 21 21 22 22 22 22 22 22 22 22 22 22 22 22 22 22 22 22 22 22 22 22 22 22 22 22 22 22 22 22 22 22 22 22 22 22 22 22 22 22 22 22 22 22 22 22 22 22 22 22 22 22 22 22 22 22 22 22 22 22 22 22 22 22 22 22 22 22 22 22 22 22 22 22 22 22 22 22 22 22 22 22 22 22 22 22 22 22 22 22 22 22 22 22 22 22 22 22 22 22 22 22 22 22 22 22 22 22 22 22 22 22 22 22 22 22 22 22 22 22 22 22 160 148 134 160 148 135 160 148 135 160 148 135 160 148 135 160 148 135 160 148 135 159 148 135 159 147 134 159 147 134 158 146 134 157 146 133 156 145 132 156 144 131 155 143 131 154 142 130 153 141 129 151 140 128 105 54 2 105 54 2 104 54 2 105 54 2 105 54 2 105 54 2 154 143 131 151 140 127 148 136 124 144 133 120 140 129 116 137 125 112 132 121 108 128 117 104 124 112 99 120 108 95 115 103 90 111 99 86 106 94 81 101 89 76 22 22 22 22 22 22 22 22 22 22 22 22 22 22 22 22 22 22 22 22 22 22 22 22 22 22 22 22 22 22 22 22 22 22 22 22 22 22 22 22 22 22 22 22 22 22 22 22 22 22 22 22 22 22 22 22 22 22 22 22 22 22 22 22 22 22 22 22 22 22 22 22 22 22 22 22 22 22 22 22 22 22 22 22 22 22 22 22 22 22 22 22 22 21 21 21 21 21 21 21 21 21 21 21 21 21 21 21 21 21 21 21 21 21 21 21 21 21 21 21 21 21 21 21 21 21 21 21 21 21 21 21 21 21 21 21 21 21 21 21 21 21 21 21 21 21 21 21 21 21 21 21 21 21 21 21 21 21 21 21 21 21 21 21 21 21 21 21 21 21 21 21 21 21 21 21 21 21 21 21 21 21 21 21 21 21 20 20 20 20 20 20 20 20 20 20 20 20 20 20 20 20 20 20 20 20 20 20 20 20 20 20 20 20 20 20 20 20 20 20 20 20 20 20 20 20 20 20 20 20 20 20 20 20 20 20 20 
19 19 19 19 19 19 19 19 19 19 19 19 19 19 19 19 19 19 19 19 19 19 19 19 20 20 20 20 20 20 20 20 20 20 20 20 20 20 20 20 20 20 20 20 20 20 20 20 20 20 20 20 20 20 20 20 20 20 20 20 20 20 20 20 20 20 20 20 20 20 20 20 20 20 20 20 20 20 20 20 20 20 20 20 20 20 20 20 20 20 20 20 20 20 20 20 20 20 20 20 20 20 20 20 20 20 20 20 20 20 20 20 20 20 20 20 20 20 20 20 20 20 20 21 21 21 21 21 21 21 21 21 21 21 21 21 21 21 21 21 21 21 21 21 21 21 21 21 21 21 21 21 21 21 21 21 21 21 21 21 21 21 21 21 21 21 21 21 21 21 21 21 21 21 21 21 21 21 21 21 21 21 21 21 21 21 21 21 21 21 21 21 21 21 21 21 21 21 21 21 21 21 21 21 21 21 21 21 21 21 21 21 21 21 21 21 21 21 21 21 21 21 21 21 21 21 21 21 21 21 21 21 21 21 21 21 21 21 21 21 21 21 21 21 21 21 21 21 21 21 21 21 21 21 21 21 21 21 161 149 135 161 149 135 161 148 135 160 148 135 160 148 135 160 148 134 159 147 134 158 146 133 158 146 133 157 145 132 156 144 131 155 143 130 154 142 129 153 141 128 151 140 127 150 139 126 149 138 125 166 154 142 163 151 139 160 148 136 157 145 132 153 142 129 150 138 125 146 134 122 142 131 118 138 127 114 134 122 109 130 118 105 126 114 100 121 109 96 116 104 91 112 100 86 21 21 21 21 21 21 21 21 21 21 21 21 21 21 21 21 21 21 21 21 21 21 21 21 21 21 21 21 21 21 21 21 21 21 21 21 21 21 21 21 21 21 21 21 21 21 21 21 21 21 21 21 21 21 21 21 21 21 21 21 21 21 21 21 21 21 21 21 21 21 21 21 21 21 21 21 21 21 21 21 21 21 21 21 21 21 21 21 21 21 21 21 21 21 21 21 21 21 21 21 21 21 21 21 21 21 21 21 20 20 20 20 20 20 20 20 20 20 20 20 20 20 20 20 20 20 20 20 20 20 20 20 20 20 20 20 20 20 20 20 20 20 20 20 20 20 20 20 20 20 20 20 20 20 20 20 20 20 20 20 20 20 20 20 20 20 20 20 20 20 20 20 20 20 20 20 20 20 20 20 20 20 20 20 20 20 20 20 20 20 20 20 20 20 20 20 20 20 20 20 20 20 20 20 20 20 20 19 19 19 19 19 19 19 19 19 19 19 19 19 19 19 19 19 19 19 19 19 19 19 19 19 19 19 19 19 19 19 19 19 19 19 19 19 19 19 
18 18 18 18 18 18 18 18 18 19 19 19 19 19 19 19 19 19 19 19 19 19 19 19 19 19 19 19 19 19 19 19 19 19 19 19 19 19 19 19 19 19 19 19 19 19 19 19 19 19 19 19 19 19 19 19 19 19 19 19 19 19 19 19 19 19 19 19 19 19 19 19 19 19 19 19 19 19 19 19 19 19 19 19 19 19 19 19 19 19 19 19 19 19 19 19 19 19 19 19 19 19 19 19 19 19 19 19 19 19 19 19 19 19 19 19 19 20 20 20 20 20 20 20 20 20 20 20 20 20 20 20 20 20 20 20 20 20 20 20 20 20 20 20 20 20 20 20 20 20 20 20 20 20 20 20 20 20 20 20 20 20 20 20 20 20 20 20 20 20 20 20 20 20 20 20 20 20 20 20 20 20 20 20 20 20 20 20 20 20 20 20 20 20 20 20 20 20 20 20 20 20 20 20 20 20 20 20 20 20 20 20 20 20 20 20 20 20 20 20 20 20 20 20 20 20 20 20 20 20 20 20 20 20 20 20 20 20 20 20 20 20 20 20 20 20 20 20 20 20 20 20 20 20 20 20 20 20 20 20 20 20 20 20 20 20 20 161 148 135 160 148 135 160 148 134 159 147 134 159 147 133 158 146 133 157 145 132 156 144 131 155 143 130 154 142 129 153 141 128 151 140 127 150 139 126 149 137 124 165 153 140 162 150 137 159 147 134 155 144 130 152 140 127 148 136 123 144 132 119 140 128 115 136 124 110 132 119 106 127 115 101 20 20 20 20 20 20 20 20 20 20 20 20 20 20 20 20 20 20 20 20 20 20 20 20 20 20 20 20 20 20 20 20 20 20 20 20 20 20 20 20 20 20 20 20 20 20 20 20 20 20 20 20 20 20 20 20 20 20 20 20 20 20 20 20 20 20 20 20 20 20 20 20 20 20 20 20 20 20 20 20 20 20 20 20 20 20 20 20 20 20 20 20 20 20 20 20 20 20 20 20 20 20 20 20 20 20 20 20 20 20 20 20 20 20 20 20 20 20 20 20 20 20 20 20 20 20 20 20 20 19 19 19 19 19 19 19 19 19 19 19 19 19 19 19 19 19 19 19 19 19 19 19 19 19 19 19 19 19 19 19 19 19 19 19 19 19 19 19 19 19 19 19 19 19 19 19 19 19 19 19 19 19 19 19 19 19 19 19 19 19 19 19 19 19 19 19 19 19 19 19 19 19 19 19 19 19 19 19 19 19 19 19 19 19 19 19 19 19 19 19 19 19 19 19 19 19 19 19 19 19 19 19 19 19 18 18 18 18 18 18 18 18 18 18 18 18 18 18 18 18 18 18 18 18 18 18 18 18 
18 18 18 18 18 18 18 18 18 18 18 18 18 18 18 18 18 18 18 18 18 18 18 18 18 18 18 18 18 18 18 18 18 18 18 18 18 18 18 18 18 18 18 18 18 18 18 18 18 18 18 18 18 18 18 18 18 18 18 18 18 18 18 18 18 18 18 18 18 18 18 18 18 18 18 18 18 18 18 18 18 18 18 18 18 18 18 18 18 18 18 18 18 18 18 18 18 18 18 18 18 18 19 19 19 19 19 19 19 19 19 19 19 19 19 19 19 19 19 19 19 19 19 19 19 19 19 19 19 19 19 19 19 19 19 19 19 19 19 19 19 19 19 19 19 19 19 19 19 19 19 19 19 19 19 19 19 19 19 19 19 19 19 19 19 19 19 19 19 19 19 19 19 19 19 19 19 19 19 19 19 19 19 19 19 19 19 19 19 19 19 19 19 19 19 19 19 19 19 19 19 19 19 19 19 19 19 19 19 19 19 19 19 19 19 19 19 19 19 19 19 19 19 19 19 19 19 19 19 19 19 19 19 19 19 19 19 19 19 19 19 19 19 19 19 19 19 19 19 19 19 19 19 19 19 19 19 19 19 19 19 19 19 19 19 19 19 19 19 19 19 19 19 19 19 19 160 147 133 159 147 133 158 146 132 157 145 131 156 144 131 155 143 130 154 142 129 153 141 127 151 139 126 150 138 125 167 155 142 164 152 139 161 149 136 157 145 132 154 142 128 150 138 124 146 134 120 142 130 116 19 19 19 19 19 19 19 19 19 19 19 19 19 19 19 19 19 19 19 19 19 19 19 19 19 19 19 19 19 19 19 19 19 19 19 19 19 19 19 19 19 19 19 19 19 19 19 19 19 19 19 19 19 19 19 19 19 19 19 19 19 19 19 19 19 19 19 19 19 19 19 19 19 19 19 19 19 19 19 19 19 19 19 19 19 19 19 19 19 19 19 19 19 19 19 19 19 19 19 19 19 19 19 19 19 19 19 19 19 19 19 19 19 19 19 19 19 19 19 19 19 19 19 19 19 19 19 19 19 19 19 19 19 19 19 19 19 19 19 19 19 19 19 19 19 19 19 19 19 19 19 19 19 18 18 18 18 18 18 18 18 18 18 18 18 18 18 18 18 18 18 18 18 18 18 18 18 18 18 18 18 18 18 18 18 18 18 18 18 18 18 18 18 18 18 18 18 18 18 18 18 18 18 18 18 18 18 18 18 18 18 18 18 18 18 18 18 18 18 18 18 18 18 18 18 18 18 18 18 18 18 18 18 18 18 18 18 18 18 18 18 18 18 18 18 18 18 18 18 18 18 18 18 18 18 18 18 18 18 18 18 18 18 18 18 18 18 17 17 17 
17 17 17 17 17 17 17 17 17 17 17 17 17 17 17 17 17 17 17 17 17 17 17 17 17 17 17 17 17 17 17 17 17 17 17 17 17 17 17 17 17 17 17 17 17 17 17 17 17 17 17 17 17 17 17 17 17 17 17 17 17 17 17 17 17 17 17 17 17 17 17 17 17 17 17 17 17 17 17 17 17 17 17 17 17 17 17 18 18 18 18 18 18 18 18 18 18 18 18 18 18 18 18 18 18 18 18 18 18 18 18 18 18 18 18 18 18 18 18 18 18 18 18 18 18 18 18 18 18 18 18 18 18 18 18 18 18 18 18 18 18 18 18 18 18 18 18 18 18 18 18 18 18 18 18 18 18 18 18 18 18 18 18 18 18 18 18 18 18 18 18 18 18 18 18 18 18 18 18 18 18 18 18 18 18 18 18 18 18 18 18 18 18 18 18 18 18 18 18 18 18 18 18 18 18 18 18 18 18 18 18 18 18 18 18 18 18 18 18 18 18 18 18 18 18 18 18 18 18 18 18 18 18 18 18 18 18 18 18 18 18 18 18 18 18 18 18 18 18 18 18 18 18 18 18 18 18 18 18 18 18 18 18 18 18 18 18 18 18 18 18 18 18 18 18 18 18 18 18 18 18 18 18 18 18 157 145 131 156 144 130 155 143 129 154 142 128 153 140 127 151 139 126 150 138 124 166 154 140 163 151 137 160 147 133 156 143 130 18 18 18 18 18 18 18 18 18 18 18 18 18 18 18 18 18 18 18 18 18 18 18 18 18 18 18 18 18 18 18 18 18 18 18 18 18 18 18 18 18 18 18 18 18 18 18 18 18 18 18 18 18 18 18 18 18 18 18 18 18 18 18 18 18 18 18 18 18 18 18 18 18 18 18 18 18 18 18 18 18 18 18 18 18 18 18 18 18 18 18 18 18 18 18 18 18 18 18 18 18 18 18 18 18 18 18 18 18 18 18 18 18 18 18 18 18 18 18 18 18 18 18 18 18 18 18 18 18 18 18 18 18 18 18 18 18 18 18 18 18 18 18 18 18 18 18 18 18 18 18 18 18 18 18 18 18 18 18 18 18 18 18 18 18 18 18 18 18 18 18 18 18 18 18 18 18 18 18 18 18 18 18 17 17 17 17 17 17 17 17 17 17 17 17 17 17 17 17 17 17 17 17 17 17 17 17 17 17 17 17 17 17 17 17 17 17 17 17 17 17 17 17 17 17 17 17 17 17 17 17 17 17 17 17 17 17 17 17 17 17 17 17 17 17 17 17 17 17 17 17 17 17 17 17 17 17 17 17 17 17 17 17 17 17 17 17 17 17 17 17 17 17 17 17 17 17 17 17 17 17 17 
16 16 16 16 16 16 16 16 16 16 16 16 16 16 16 16 16 16 16 16 16 16 16 16 16 16 16 16 16 16 16 16 16 16 16 16 16 16 16 16 16 16 16 16 16 16 16 16 16 16 16 16 16 16 16 16 16 16 16 16 16 16 16 17 17 17 17 17 17 17 17 17 17 17 17 17 17 17 17 17 17 17 17 17 17 17 17 17 17 17 17 17 17 17 17 17 17 17 17 17 17 17 17 17 17 17 17 17 17 17 17 17 17 17 17 17 17 17 17 17 17 17 17 17 17 17 17 17 17 17 17 17 17 17 17 17 17 17 17 17 17 17 17 17 17 17 17 17 17 17 17 17 17 17 17 17 17 17 17 17 17 17 17 17 17 17 17 17 17 17 17 17 17 17 17 17 17 17 17 17 17 17 17 17 17 17 17 17 17 17 17 17 17 17 17 17 17 17 17 17 17 17 17 17 17 17 17 17 17 17 17 17 17 17 17 17 17 17 17 17 17 17 17 17 17 17 17 17 17 17 17 17 17 17 17 17 17 17 17 17 17 17 17 17 17 17 17 17 17 17 17 17 17 17 17 17 17 17 17 17 17 17 17 17 17 17 17 17 17 17 17 17 17 17 17 17 17 17 17 17 17 17 17 17 17 17 17 17 17 17 17 17 17 17 17 17 17 152 140 126 151 138 125 168 156 142 165 152 139 17 17 17 17 17 17 17 17 17 17 17 17 17 17 17 17 17 17 17 17 17 17 17 17 17 17 17 17 17 17 17 17 17 17 17 17 17 17 17 17 17 17 17 17 17 17 17 17 17 17 17 17 17 17 17 17 17 17 17 17 17 17 17 17 17 17 17 17 17 17 17 17 17 17 17 17 17 17 17 17 17 17 17 17 17 17 17 17 17 17 17 17 17 17 17 17 17 17 17 17 17 17 17 17 17 17 17 17 17 17 17 17 17 17 17 17 17 17 17 17 17 17 17 17 17 17 17 17 17 17 17 17 17 17 17 17 17 17 17 17 17 17 17 17 17 17 17 17 17 17 17 17 17 17 17 17 17 17 17 17 17 17 17 17 17 17 17 17 17 17 17 17 17 17 17 17 17 17 17 17 17 17 17 17 17 17 17 17 17 17 17 17 17 17 17 17 17 17 17 17 17 17 17 17 17 17 17 17 17 17 17 17 17 17 17 17 16 16 16 16 16 16 16 16 16 16 16 16 16 16 16 16 16 16 16 16 16 16 16 16 16 16 16 16 16 16 16 16 16 16 16 16 16 16 16 16 16 16 16 16 16 16 16 16 16 16 16 16 16 16 16 16 16 16 16 16 16 16 16 16 16 16 16 16 16 16 16 16 16 16 16 
15 15 15 15 15 15 15 15 15 15 15 15 15 15 15 15 15 15 15 15 15 15 15 15 15 15 15 15 15 15 15 15 15 16 16 16 16 16 16 16 16 16 16 16 16 16 16 16 16 16 16 16 16 16 16 16 16 16 16 16 16 16 16 16 16 16 16 16 16 16 16 16 16 16 16 16 16 16 16 16 16 16 16 16 16 16 16 16 16 16 16 16 16 16 16 16 16 16 16 16 16 16 16 16 16 16 16 16 16 16 16 16 16 16 16 16 16 16 16 16 16 16 16 16 16 16 16 16 16 16 16 16 16 16 16 16 16 16 16 16 16 16 16 16 16 16 16 16 16 16 16 16 16 16 16 16 16 16 16 16 16 16 16 16 16 16 16 16 16 16 16 16 16 16 16 16 16 16 16 16 16 16 16 16 16 16 16 16 16 16 16 16 16 16 16 16 16 16 16 16 16 16 16 16 16 16 16 16 16 16 16 16 16 16 16 16 16 16 16 16 16 16 16 16 16 16 16 16 16 16 16 16 16 16 16 16 16 16 16 16 16 16 16 16 16 16 16 16 16 16 16 16 16 16 16 17 17 17 17 17 17 17 17 17 17 17 17 17 17 17 17 17 17 17 17 17 17 17 17 17 17 17 17 17 17 17 17 17 17 17 17 17 17 17 17 17 17 17 17 17 17 17 17 17 17 17 17 17 17 17 17 17 17 17 17 17 17 17 17 17 17 17 17 17 17 17 17 17 17 17 17 17 17 16 16 16 16 16 16 16 16 16 16 16 16 16 16 16 16 16 16 16 16 16 16 16 16 16 16 16 16 16 16 16 16 16 16 16 16 16 16 16 16 16 16 16 16 16 16 16 16 16 16 16 16 16 16 16 16 16 16 16 16 16 16 16 16 16 16 16 16 16 16 16 16 16 16 16 16 16 16 16 16 16 16 16 16 16 16 16 16 16 16 16 16 16 16 16 16 16 16 16 16 16 16 16 16 16 16 16 16 16 16 16 16 16 16 16 16 16 16 16 16 16 16 16 16 16 16 16 16 16 16 16 16 16 16 16 16 16 16 16 16 16 16 16 16 16 16 16 16 16 16 16 16 16 16 16 16 16 16 16 16 16 16 16 16 16 16 16 16 16 16 16 16 16 16 16 16 16 16 16 16 16 16 16 16 16 16 16 16 16 16 16 16 16 16 16 16 16 16 16 16 16 16 16 16 16 16 16 16 16 16 16 16 16 16 16 16 16 16 16 16 16 16 16 16 16 15 15 15 15 15 15 15 15 15 15 15 15 15 15 15 15 15 15 15 15 15 15 15 15 15 15 15 15 15 15 15 15 15 15 15 15 15 15 15 15 15 15 
15 15 15 15 15 15 15 15 15 15 15 15 15 15 15 15 15 15 15 15 15 15 15 15 15 15 15 15 15 15 15 15 15 15 15 15 15 15 15 15 15 15 15 15 15 15 15 15 15 15 15 15 15 15 15 15 15 15 15 15 15 15 15 15 15 15 15 15 15 15 15 15 15 15 15 15 15 15 15 15 15 15 15 15 15 15 15 15 15 15 15 15 15 15 15 15 15 15 15 15 15 15 15 15 15 15 15 15 15 15 15 15 15 15 15 15 15 15 15 15 15 15 15 15 15 15 15 15 15 15 15 15 15 15 15 15 15 15 15 15 15 15 15 15 15 15 15 15 15 15 15 15 15 15 15 15 15 15 15 15 15 15 15 15 15 15 15 15 15 15 15 15 15 15 15 15 15 15 15 15 15 15 15 15 15 15 15 15 15 15 15 15 15 15 15 16 16 16 16 16 16 16 16 16 16 16 16 16 16 16 16 16 16 16 16 16 16 16 16 16 16 16 16 16 16 16 16 16 16 16 16 16 16 16 16 16 16 16 16 16 16 16 16 16 16 16 16 16 16 16 16 16 16 16 16 16 16 16 16 16 16 16 16 16 16 16 16 16 16 16 16 16 16 16 16 16 16 16 16 16 16 16 16 16 16 16 16 16 16 16 16 16 16 16 16 16 16 16 16 16 16 16 16 16 16 16 16 16 16 16 16 16 16 16 16 16 16 16 16 16 16 16 16 16 16 16 16 16 16 16 16 16 16 16 16 16 16 16 16 16 16 16 16 16 16 16 16 16 16 16 16 16 16 16 16 16 16 16 16 16 16 16 16 16 16 16 16 16 16 16 16 16 16 16 16 16 16 16 16 16 16 16 16 16 16 16 16 16 16 16 16 16 16 16 16 16 15 15 15 15 15 15 15 15 15 15 15 15 15 15 15 15 15 15 15 15 15 15 15 15 15 15 15 15 15 15 15 15 15 15 15 15 15 15 15 15 15 15 15 15 15 15 15 15 15 15 15 15 15 15 15 15 15 15 15 15 15 15 15 15 15 15 15 15 15 15 15 15 15 15 15 15 15 15 15 15 15 15 15 15 15 15 15 15 15 15 15 15 15 15 15 15 15 15 15 15 15 15 15 15 15 15 15 15 15 15 15 15 15 15 15 15 15 15 15 15 15 15 15 15 15 15 15 15 15 15 15 15 15 15 15 15 15 15 15 15 15 15 15 15 15 15 15 15 15 15 15 15 15 15 15 15 15 15 15 15 15 15 15 15 15 15 15 15 15 15 15 15 15 15 15 15 15 15 15 15 15 15 15 15 15 15 15 15 15 15 15 15 15 15 15 15 15 15 15 15 15 14 14 14 
14 14 14 14 14 14 14 14 14 14 14 14 14 14 14 14 14 14 14 14 14 14 14 14 14 14 14 14 14 14 14 14 14 14 14 14 14 14 14 14 14 14 14 14 14 14 14 14 14 14 14 14 14 14 14 14 14 14 14 14 14 14 14 14 14 14 14 14 14 14 14 14 14 14 14 14 14 14 14 14 14 14 14 14 14 14 14 14 14 14 14 14 14 14 14 14 14 14 14 14 14 14 14 14 14 14 14 14 14 14 14 14 14 14 14 14 14 14 14 14 14 14 14 14 14 14 14 14 14 14 14 14 14 14 14 14 14 14 14 14 14 14 14 14 15 15 15 15 15 15 15 15 15 15 15 15 15 15 15 15 15 15 15 15 15 15 15 15 15 15 15 15 15 15 15 15 15 15 15 15 15 15 15 15 15 15 15 15 15 15 15 15 15 15 15 15 15 15 15 15 15 15 15 15 15 15 15 15 15 15 15 15 15 15 15 15 15 15 15 15 15 15 15 15 15 15 15 15 15 15 15 15 15 15 15 15 15 15 15 15 15 15 15 15 15 15 15 15 15 15 15 15 15 15 15 15 15 15 15 15 15 15 15 15 15 15 15 15 15 15 15 15 15 15 15 15 15 15 15 15 15 15 15 15 15 15 15 15 15 15 15 15 15 15 15 15 15 15 15 15 15 15 15 15 15 15 15 15 15 15 15 15 15 15 15 15 15 15 15 15 15 15 15 15 15 15 15 15 15 15 15 15 15 15 15 15 15 15 15 15 15 15 15 15 15 15 15 15 15 15 15 15 15 15 15 15 15 15 15 15 15 15 15 15 15 15 15 15 15 15 15 15 15 15 15 15 15 15 15 15 15 15 15 15 15 15 15 15 15 15 15 15 15 15 15 15 15 15 15 15 15 15 15 15 15 15 15 15 15 15 15 15 15 15 15 15 15 15 15 15 15 15 15 15 15 15 15 15 15 15 15 15 15 15 15 15 15 15 15 15 15 15 15 15 15 15 15 14 14 14 14 14 14 14 14 14 14 14 14 14 14 14 14 14 14 14 14 14 14 14 14 14 14 14 14 14 14 14 14 14 14 14 14 14 14 14 14 14 14 14 14 14 14 14 14 14 14 14 14 14 14 14 14 14 14 14 14 14 14 14 14 14 14 14 14 14 14 14 14 14 14 14 14 14 14 14 14 14 14 14 14 14 14 14 14 14 14 14 14 14 14 14 14 14 14 14 14 14 14 14 14 14 14 14 14 14 14 14 14 14 14 14 14 14 14 14 14 14 14 14 14 14 14 14 14 14 14 14 14 14 14 14 14 14 14 14 14 14 14 14 14 14 14 14 14 14 14 14 14 14 
13 13 13 13 13 13 13 13 13 13 13 13 13 13 13 13 13 13 13 13 13 13 13 13 13 13 13 13 13 13 13 13 13 13 13 13 13 13 13 13 13 13 13 13 13 13 13 13 13 13 13 13 13 13 13 13 13 13 13 13 13 13 13 13 13 13 13 13 13 13 13 13 13 13 13 13 13 13 13 13 13 13 13 13 13 13 13 13 13 13 14 14 14 14 14 14 14 14 14 14 14 14 14 14 14 14 14 14 14 14 14 14 14 14 14 14 14 14 14 14 14 14 14 14 14 14 14 14 14 14 14 14 14 14 14 14 14 14 14 14 14 14 14 14 14 14 14 14 14 14 14 14 14 14 14 14 14 14 14 14 14 14 14 14 14 14 14 14 14 14 14 14 14 14 14 14 14 14 14 14 14 14 14 14 14 14 14 14 14 14 14 14 14 14 14 14 14 14 14 14 14 14 14 14 14 14 14 14 14 14 14 14 14 14 14 14 14 14 14 14 14 14 14 14 14 14 14 14 14 14 14 14 14 14 14 14 14 14 14 14 14 14 14 14 14 14 14 14 14 14 14 14 14 14 14 14 14 14 14 14 14 14 14 14 14 14 14 14 14 14 14 14 14 14 14 14 14 14 14 14 14 14 14 14 14 14 14 14 14 14 14 14 14 14 14 14 14 14 14 14 14 14 14 14 14 14 14 14 14 14 14 14 14 14 14 14 14 14 14 14 14 14 14 14 14 14 14 14 14 14 14 14 14 14 14 14 14 14 14 14 14 14 14 14 14 14 14 14 14 14 14 14 14 14 14 14 14 14 14 14 14 14 14 14 14 14 14 14 14 14 14 14 14 14 14 14 14 14 14 14 14 14 14 14 14 14 14 14 14 14 14 14 14 14 14 14 14 14 14 14 14 14 14 14 14 14 14 14 14 14 14 14 14 14 14 14 14 14 14 14 14 14 14 14 14 14 14 14 14 14 14 14 14 14 14 14 14 14 14 14 14 14 14 14 14 14 14 14 14 14 14 14 14 14 14 14 14 14 14 14 14 14 14 14 14 14 14 14 14 14 14 14 14 14 14 14 14 14 14 14 14 14 14 14 14 14 14 14 14 14 14 14 14 14 14 14 14 14 14 14 14 14 14 14 13 13 13 13 13 13 13 13 13 13 13 13 13 13 13 13 13 13 13 13 13 13 13 13 13 13 13 13 13 13 13 13 13 13 13 13 13 13 13 13 13 13 13 13 13 13 13 13 13 13 13 13 13 13 13 13 13 13 13 13 13 13 13 13 13 13 13 13 13 13 13 13 13 13 13 13 13 13 13 13 13 13 13 13 13 13 13 13 13 13 13 13 13 13 13 13 
12 12 12 12 12 12 12 12 12 12 12 12 12 12 12 12 12 12 12 12 12 12 12 12 12 12 12 13 13 13 13 13 13 13 13 13 13 13 13 13 13 13 13 13 13 13 13 13 13 13 13 13 13 13 13 13 13 13 13 13 13 13 13 13 13 13 13 13 13 13 13 13 13 13 13 13 13 13 13 13 13 13 13 13 13 13 13 13 13 13 13 13 13 13 13 13 13 13 13 13 13 13 13 13 13 13 13 13 13 13 13 13 13 13 13 13 13 13 13 13 13 13 13 13 13 13 13 13 13 13 13 13 13 13 13 13 13 13 13 13 13 13 13 13 13 13 13 13 13 13 13 13 13 13 13 13 13 13 13 13 13 13 13 13 13 13 13 13 13 13 13 13 13 13 13 13 13 13 13 13 13 13 13 13 13 13 13 13 13 13 13 13 13 13 13 13 13 13 13 13 13 13 13 13 13 13 13 13 13 13 13 13 13 13 13 13 13 13 13 13 13 13 13 13 13 13 13 13 13 13 13 13 13 13 13 13 13 13 13 13 13 13 13 13 13 13 13 13 13 13 13 13 13 13 13 13 13 13 13 13 13 13 13 13 13 13 13 13 13 13 13 13 13 13 13 13 13 13 13 13 13 13 13 13 13 13 13 13 13 13 13 13 13 13 13 13 13 13 13 13 13 13 13 13 13 13 13 13 13 13 13 13 13 13 13 13 13 13 13 13 13 13 13 13 13 13 13 13 13 13 13 13 13 13 13 13 13 13 13 13 13 13 13 13 13 13 13 13 13 13 13 13 13 13 13 13 13 13 13 13 13 13 13 13 13 13 13 13 13 13 13 13 13 13 13 13 13 13 13 13 13 13 13 13 13 13 13 13 13 13 13 13 13 13 13 13 13 13 13 13 13 13 13 13 13 13 13 13 13 13 13 13 13 13 13 13 13 13 13 13 13 13 13 13 13 13 13 13 13 13 13 13 13 13 13 13 13 13 13 13 13 13 13 13 13 13 13 13 13 13 13 13 13 13 13 13 13 13 13 13 13 13 13 13 13 13 13 13 13 13 13 13 13 13 13 13 13 13 13 13 13 13 13 13 13 13 13 13 13 13 13 13 13 13 13 13 13 13 13 13 13 13 13 13 13 13 13 13 13 13 13 13 13 13 13 13 13 13 13 13 13 13 13 13 13 13 13 13 13 13 13 13 13 13 13 13 13 13 13 13 13 13 13 13 13 13 13 13 13 13 13 13 13 13 13 13 13 13 13 13 13 13 13 13 13 13 13 12 12 12 12 12 12 12 12 12 12 12 12 12 12 12 12 12 12 12 12 12 12 12 12 12 12 12 12 12 12 12 12 12 
12 12 12 12 12 12 12 12 12 12 12 12 12 12 12 12 12 12 12 12 12 12 12 12 12 12 12 12 12 12 12 12 12 12 12 12 12 12 12 12 12 12 12 12 12 12 12 12 12 12 12 12 12 12 12 12 12 12 12 12 12 12 12 12 12 12 12 12 12 12 12 12 12 12 12 12 12 12 12 12 12 12 12 12 12 12 12 12 12 12 12 12 12 12 12 12 12 12 12 12 12 12 12 12 12 12 12 12 12 12 12 12 12 12 12 12 12 12 12 12 12 12 12 12 12 12 12 12 12 12 12 12 12 12 12 12 12 12 12 12 12 12 12 12 12 12 12 12 12 12 12 12 12 12 12 12 12 12 12 12 12 12 12 12 12 12 12 12 12 12 12 12 12 12 12 12 12 12 12 12 12 12 12 12 12 12 12 12 12 12 12 12 12 12 12 12 12 12 12 12 12 12 12 12 12 12 12 12 12 12 12 12 12 12 12 12 12 12 12 12 12 12 12 12 12 12 12 12 12 12 12 12 12 12 12 12 12 12 12 12 12 12 12 12 12 12 12 12 12 12 12 12 12 12 12 12 12 12 12 12 12 12 12 12 12 12 12 12 12 12 12 12 12 12 12 12 12 12 12 12 12 12 12 12 12 12 12 12 12 12 12 12 12 12 12 12 12 12 12 12 12 12 12 12 12 12 12 12 12 12 12 12 12 12 12 12 12 12 12 12 12 12 12 12 12 12 12 12 12 12 12 12 12 12 12 12 12 12 12 12 12 12 12 12 12 12 12 12 12 12 12 12 12 12 12 12 12 12 12 12 12 12 12 12 12 12 12 12 12 12 12 12 12 12 12 12 12 12 12 12 12 12 12 12 12 12 12 12 12 12 12 12 12 12 12 12 12 12 12 12 12 12 12 12 12 12 12 12 12 12 12 12 12 12 12 12 12 12 12 12 12 12 12 12 12 12 12 12 12 12 12 12 12 12 12 12 12 12 12 12 12 12 12 12 12 12 12 12 12 12 12 12 12 12 12 12 12 12 12 12 12 12 12 12 12 12 12 12 12 12 12 12 12 12 12 12 12 12 12 12 12 12 12 12 12 12 12 12 12 12 12 12 12 12 12 12 12 12 12 12 12 12 12 12 12 12 12 12 12 12 12 12 12 12 12 12 12 12 12 12 12 12 12 12 12 12 12 12 12 12 12 12 12 12 12 12 12 12 12 12 12 12 12 12 12 12 12 12 12 12 12 12 12 12 12 12 12 12 12 12 12 12 12 12 12 12 12 12 12 12 12 12 12 12 12 12 12 12 12 12 12 12 12 12 12 12 12 12 12 12 12 12 12 12 12 12 12 12 12 12 
11 11 11 11 11 11 11 11 11 11 11 11 11 11 11 11 11 11 11 11 11 11 11 11 11 11 11 11 11 11 11 11 11 11 11 11 11 11 11 11 11 11 11 11 11 11 11 11 11 11 11 11 11 11 11 11 11 11 11 11 11 11 11 11 11 11 11 11 11 11 11 11 11 11 11 11 11 11 11 11 11 11 11 11 11 11 11 11 11 11 11 11 11 11 11 11 11 11 11 11 11 11 11 11 11 11 11 11 11 11 11 11 11 11 11 11 11 11 11 11 11 11 11 11 11 11 11 11 11 11 11 11 11 11 11 11 11 11 11 11 11 11 11 11 11 11 11 11 11 11 11 11 11 11 11 11 11 11 11 11 11 11 11 11 11 11 11 11 11 11 11 11 11 11 11 11 11 11 11 11 11 11 11 12 12 12 12 12 12 12 12 12 12 12 12 12 12 12 12 12 12 12 12 12 12 12 12 12 12 12 12 12 12 12 12 12 12 12 12 12 12 12 12 12 12 12 12 12 12 12 12 12 12 12 12 12 12 12 12 12 12 12 12 12 12 12 12 12 12 12 12 12 12 12 12 12 12 12 12 12 12 12 12 12 12 12 12 12 12 12 12 12 12 12 12 12 12 12 12 12 12 12 12 12 12 12 12 12 12 12 12 12 12 12 12 12 12 12 12 12 12 12 12 12 12 12 12 12 12 12 12 12 12 12 12 12 12 12 12 12 12 12 12 12 12 12 12 12 12 12 12 12 12 12 12 12 12 12 12 12 12 12 12 12 12 12 12 12 12 12 12 12 12 12 12 12 12 12 12 12 12 12 12 12 12 12 12 12 12 12 12 12 12 12 12 12 12 12 12 12 12 12 12 12 12 12 12 12 12 12 12 12 12 12 12 12 12 12 12 12 12 12 12 12 12 12 12 12 12 12 12 12 12 12 11 11 11 11 11 11 11 11 11 11 11 11 11 11 11 11 11 11 11 11 11 11 11 11 11 11 11 11 11 11 11 11 11 11 11 11 11 11 11 11 11 11 11 11 11 11 11 11 11 11 11 11 11 11 11 11 11 11 11 11 11 11 11 11 11 11 11 11 11 11 11 11 11 11 11 11 11 11 11 11 11 11 11 11 11 11 11 11 11 11 11 11 11 11 11 11 11 11 11 11 11 11 11 11 11 11 11 11 11 11 11 11 11 11 11 11 11 11 11 11 11 11 11 11 11 11 11 11 11 11 11 11 11 11 11 11 11 11 11 11 11 11 11 11 11 11 11 11 11 11 11 11 11 11 11 11 11 11 11 11 11 11 11 11 11 11 11 11 11 11 11 11 11 11 11 11 11 11 11 11 11 11 11 11 11 11 
10 10 10 10 10 10 10 10 10 10 10 10 10 10 10 10 10 10 10 10 10 10 10 10 10 10 10 10 10 10 10 10 10 10 10 10 10 10 10 10 10 10 10 10 10 10 10 10 11 11 11 11 11 11 11 11 11 11 11 11 11 11 11 11 11 11 11 11 11 11 11 11 11 11 11 11 11 11 11 11 11 11 11 11 11 11 11 11 11 11 11 11 11 11 11 11 11 11 11 11 11 11 11 11 11 11 11 11 11 11 11 11 11 11 11 11 11 11 11 11 11 11 11 11 11 11 11 11 11 11 11 11 11 11 11 11 11 11 11 11 11 11 11 11 11 11 11 11 11 11 11 11 11 11 11 11 11 11 11 11 11 11 11 11 11 11 11 11 11 11 11 11 11 11 11 11 11 11 11 11 11 11 11 11 11 11 11 11 11 11 11 11 11 11 11 11 11 11 11 11 11 11 11 11 11 11 11 11 11 11 11 11 11 11 11 11 11 11 11 11 11 11 11 11 11 11 11 11 11 11 11 11 11 11 11 11 11 11 11 11 11 11 11 11 11 11 11 11 11 11 11 11 11 11 11 11 11 11 11 11 11 11 11 11 11 11 11 11 11 11 11 11 11 11 11 11 11 11 11 11 11 11 11 11 11 11 11 11 11 11 11 11 11 11 11 11 11 11 11 11 11 11 11 11 11 11 11 11 11 11 11 11 11 11 11 11 11 11 11 11 11 11 11 11 11 11 11 11 11 11 11 11 11 11 11 11 11 11 11 11 11 11 11 11 11 11 11 11 11 11 11 11 11 11 11 11 11 11 11 11 11 11 11 11 11 11 11 11 11 11 11 11 11 11 11 11 11 11 11 11 11 11 11 11 11 11 11 11 11 11 11 11 11 11 11 11 11 11 11 11 11 11 11 11 11 11 11 11 11 11 11 11 11 11 11 11 11 11 11 11 11 11 11 11 11 11 11 11 11 11 11 11 11 11 11 11 11 11 11 11 11 11 11 11 11 11 11 11 11 11 11 11 11 11 11 11 11 11 11 11 11 11 11 11 11 11 11 11 11 11 11 11 11 11 11 11 11 11 11 11 11 11 11 11 11 11 11 11 11 11 11 11 11 11 11 11 11 11 11 11 11 11 11 11 11 11 11 11 11 11 11 11 11 11 11 11 11 11 11 11 11 11 11 11 11 11 11 11 11 11 11 11 11 11 11 11 11 11 11 11 11 11 11 11 11 11 11 11 11 10 10 10 10 10 10 10 10 10 10 10 10 10 10 10 10 10 10 10 10 10 10 10 10 10 10 10 10 10 10 10 10 10 10 10 10 10 10 10 10 10 10 10 10 10 10 10 10 10 10 10 
10 10 10 10 10 10 10 10 10 10 10 10 10 10 10 10 10 10 10 10 10 10 10 10 10 10 10 10 10 10 10 10 10 10 10 10 10 10 10 10 10 10 10 10 10 10 10 10 10 10 10 10 10 10 10 10 10 10 10 10 10 10 10 10 10 10 10 10 10 10 10 10 10 10 10 10 10 10 10 10 10 10 10 10 10 10 10 10 10 10 10 10 10 10 10 10 10 10 10 10 10 10 10 10 10 10 10 10 10 10 10 10 10 10 10 10 10 10 10 10 10 10 10 10 10 10 10 10 10 10 10 10 10 10 10 10 10 10 10 10 10 10 10 10 10 10 10 10 10 10 10 10 10 10 10 10 10 10 10 10 10 10 10 10 10 10 10 10 10 10 10 10 10 10 10 10 10 10 10 10 10 10 10 10 10 10 10 10 10 10 10 10 10 10 10 10 10 10 10 10 10 10 10 10 10 10 10 10 10 10 10 10 10 10 10 10 10 10 10 10 10 10 10 10 10 10 10 10 10 10 10 10 10 10 10 10 10 10 10 10 10 10 10 10 10 10 10 10 10 10 10 10 10 10 10 10 10 10 10 10 10 10 10 10 10 10 10 10 10 10 10 10 10 10 10 10 10 10 10 10 10 10 10 10 10 10 10 10 10 10 10 10 10 10 10 10 10 10 10 10 10 10 10 10 10 10 10 10 10 10 10 10 10 10 10 10 10 10 10 10 10 10 10 10 10 10 10 10 10 10 10 10 10 10 10 10 10 10 10 10 10 10 10 10 10 10 10 10 10 10 10 10 10 10 10 10 10 10 10 10 10 10 10 10 10 10 10 10 10 10 10 10 10 10 10 10 10 10 10 10 10 10 10 10 10 10 10 10 10 10 10 10 10 10 10 10 10 10 10 10 10 10 10 10 10 10 10 10 10 10 10 10 10 10 10 10 10 10 10 10 10 10 10 10 10 10 10 10 10 10 10 10 10 10 10 10 10 10 10 10 10 10 10 10 10 10 10 10 10 10 10 10 10 10 10 10 10 10 10 10 10 10 10 10 10 10 10 10 10 10 10 10 10 10 10 10 10 10 10 10 10 10 10 10 10 10 10 10 10 10 10 10 10 10 10 10 10 10 10 10 10 10 10 10 10 10 10 10 10 10 10 10 10 10 10 10 10 10 10 10 10 10 10 10 10 10 10 10 10 10 10 10 10 10 10 10 10 10 10 10 10 10 10 10 10 10 10 10 10 10 10 10 10 10 10 10 10 10 10 10 10 10 10 10 10 10 10 10 10 10 10 10 10 10 10 10 10 10 10 10 10 10 10 10 10 10 10 10 10 10 10 10 10 10 10 10 10 10 10 10 
9 9 9 9 9 9 9 9 9 9 9 9 9 9 9 9 9 9 9 9 9 9 9 9 9 9 9 9 9 9 9 9 9 9 9 9 9 9 9 9 9 9 9 9 9 9 9 9 9 9 9 9 9 9 9 9 9 9 9 9 9 9 9 9 9 9 9 9 9 9 9 9 9 9 9 9 9 9 9 9 9 9 9 9 9 9 9 9 9 9 9 9 9 9 9 9 9 9 9 9 9 9 9 9 9 9 9 9 9 9 9 9 9 9 9 9 9 9 9 9 9 9 9 9 9 9 9 9 9 9 9 9 9 9 9 9 9 9 9 9 9 9 9 9 9 9 9 9 9 9 9 9 9 9 9 9 9 9 9 9 9 9 9 9 9 9 9 9 9 9 9 9 9 9 9 9 9 9 9 9 9 9 9 9 9 9 9 9 9 9 9 9 9 9 9 9 9 9 9 9 9 9 9 9 9 9 9 9 9 9 9 9 9 9 9 9 9 9 9 9 9 9 9 9 9 9 9 9 9 9 9 9 9 9 9 9 9 9 9 9 9 9 9 9 9 9 9 9 9 9 9 9 9 9 9 9 9 9 9 9 9 9 9 9 9 9 9 9 9 9 9 9 9 9 9 9 9 9 9 9 9 9 9 9 9 9 9 9 9 9 9 9 9 9 9 9 9 9 9 9 9 9 9 9 9 9 9 9 9 9 9 9 9 9 9 9 9 9 9 9 9 9 9 9 9 9 9 9 9 9 9 9 9 9 9 9 9 9 9 9 9 9 9 9 9 9 9 9 9 9 9 9 9 9 9 9 9 9 9 9 9 9 9 9 9 9 9 9 9 9 9 9 9 9 9 9 9 9 9 9 9 9 9 9 9 9 9 9 9 9 9 9 9 9 9 9 9 9 9 9 9 9 9 9 9 9 9 9 9 9 9 9 9 9 9 9 9 9 9 9 9 9 9 9 9 9 9 9 9 9 9 9 9 9 9 9 9 9 9 9 9 9 9 9 9 9 9 9 9 9 9 9 9 9 9 9 9 9 9 9 9 9 9 9 9 9 9 9 9 9 9 9 9 9 9 9 9 9 9 9 9 9 9 9 9 9 9 9 9 9 9 9 9 9 9 9 9 9 9 9 9 9 9 9 9 9 9 9 9 9 9 9 9 9 9 9 9 9 9 9 9 9 9 9 9 9 9 9 9 9 9 9 9 9 9 9 9 9 9 9 9 9 9 9 9 9 9 9 9 9 9 9 9 9 9 9 9 9 9 9 9 9 9 9 9 9 9 9 9 9 9 9 9 9 9 9 9 9 9 9 9 9 9 9 9 9 9 9 9 9 9 9 9 9 9 9 9 9 9 9 
8 8 8 8 8 8 8 8 8 8 8 8 8 8 8 9 9 9 9 9 9 9 9 9 9 9 9 9 9 9 9 9 9 9 9 9 9 9 9 9 9 9 9 9 9 9 9 9 9 9 9 9 9 9 9 9 9 9 9 9 9 9 9 9 9 9 9 9 9 9 9 9 9 9 9 9 9 9 9 9 9 9 9 9 9 9 9 9 9 9 9 9 9 9 9 9 9 9 9 9 9 9 9 9 9 9 9 9 9 9 9 9 9 9 9 9 9 9 9 9 9 9 9 9 9 9 9 9 9 9 9 9 9 9 9 9 9 9 9 9 9 9 9 9 9 9 9 9 9 9 9 9 9 9 9 9 9 9 9 9 9 9 9 9 9 9 9 9 9 9 9 9 9 9 9 9 9 9 9 9 9 9 9 9 9 9 9 9 9 9 9 9 9 9 9 9 9 9 9 9 9 9 9 9 9 9 9 9 9 9 9 9 9 9 9 9 9 9 9 9 9 9 9 9 9 9 9 9 9 9 9 9 9 9 9 9 9 9 9 9 9 9 9 9 9 9 9 9 9 9 9 9 9 9 9 9 9 9 9 9 9 9 9 9 9 9 9 9 9 9 9 9 9 9 9 9 9 9 9 9 9 9 9 9 9 9 9 9 9 9 9 9 9 9 9 9 9 9 9 9 9 9 9 9 9 9 9 9 9 9 9 9 9 9 9 9 9 9 9 9 9 9 9 9 9 9 9 9 9 9 9 9 9 9 9 9 9 9 9 9 9 9 9 9 9 9 9 9 9 9 9 9 9 9 9 9 9 9 9 9 9 9 9 9 9 9 9 9 9 9 9 9 9 9 9 9 9 9 9 9 9 9 9 9 9 9 9 9 9 9 9 9 9 9 9 9 9 9 9 9 9 9 9 9 9 9 9 9 9 9 9 9 9 9 9 9 9 9 9 9 9 9 9 9 9 9 9 9 9 9 9 9 9 9 9 9 9 9 9 9 9 9 9 9 9 9 9 9 9 9 9 9 9 9 9 9 9 9 9 9 9 9 9 9 9 9 9 9 9 9 9 9 9 9 9 9 9 9 9 9 9 9 9 9 9 9 9 9 9 9 9 9 9 9 9 9 9 9 9 9 9 9 9 9 9 9 9 9 9 9 9 9 9 9 9 9 9 9 9 9 9 9 9 9 9 9 9 9 9 9 9 9 9 9 9 9 9 9 9 9 9 9 9 9 9 9 9 9 9 9 9 9 9 9 9 9 9 9 9 9 9 9 9 9 9 9 9 9 9 9 9 9 9 9 9 9 9 9 9 9 9 9 9 9 9 8 8 8 8 8 8 8 8 8 8 8 8 8 8 8 
8 8 8 8 8 8 8 8 8 8 8 8 8 8 8 8 8 8 8 8 8 8 8 8 8 8 8 8 8 8 8 8 8 8 8 8 8 8 8 8 8 8 8 8 8 8 8 8 8 8 8 8 8 8 8 8 8 8 8 8 8 8 8 8 8 8 8 8 8 8 8 8 8 8 8 8 8 8 8 8 8 8 8 8 8 8 8 8 8 8 8 8 8 8 8 8 8 8 8 8 8 8 8 8 8 8 8 8 8 8 8 8 8 8 8 8 8 8 8 8 8 8 8 8 8 8 8 8 8 8 8 8 8 8 8 8 8 8 8 8 8 8 8 8 8 8 8 8 8 8 8 8 8 8 8 8 8 8 8 8 8 8 8 8 8 8 8 8 8 8 8 8 8 8 8 8 8 8 8 8 8 8 8 8 8 8 8 8 8 8 8 8 8 8 8 8 8 8 8 8 8 8 8 8 8 8 8 8 8 8 8 8 8 8 8 8 8 8 8 8 8 8 8 8 8 8 8 8 8 8 8 8 8 8 8 8 8 8 8 8 8 8 8 8 8 8 8 8 8 8 8 8 8 8 8 8 8 8 8 8 8 8 8 8 8 8 8 8 8 8 8 8 8 8 8 8 8 8 8 8 8 8 8 8 8 8 8 8 8 8 8 8 8 8 8 8 8 8 8 8 8 8 8 8 8 8 8 8 8 8 8 8 8 8 8 8 8 8 8 8 8 8 8 8 8 8 8 8 8 8 8 8 8 8 8 8 8 8 8 8 8 8 8 8 8 8 8 8 8 8 8 8 8 8 8 8 8 8 8 8 8 8 8 8 8 8 8 8 8 8 8 8 8 8 8 8 8 8 8 8 8 8 8 8 8 8 8 8 8 8 8 8 8 8 8 8 8 8 8 8 8 8 8 8 8 8 8 8 8 8 8 8 8 8 8 8 8 8 8 8 8 8 8 8 8 8 8 8 8 8 8 8 8 8 8 8 8 8 8 8 8 8 8 8 8 8 8 8 8 8 8 8 8 8 8 8 8 8 8 8 8 8 8 8 8 8 8 8 8 8 8 8 8 8 8 8 8 8 8 8 8 8 8 8 8 8 8 8 8 8 8 8 8 8 8 8 8 8 8 8 8 8 8 8 8 8 8 8 8 8 8 8 8 8 8 8 8 8 8 8 8 8 8 8 8 8 8 8 8 8 8 8 8 8 8 8 8 8 8 8 8 8 8 8 8 8 8 8 8 8 8 8 8 8 8 8 8 8 8 8 8 8 8 8 8 8 8 8 8 8 8 8 8 8 8 8 8 8 8 8 8 8 8 8 8 8 8 8 8 8 8 8 8 8 8 8 8 8 8 8 
7 7 7 7 7 7 7 7 7 7 7 7 7 7 7 7 7 7 7 7 7 7 7 7 7 7 7 7 7 7 7 7 7 7 7 7 7 7 7 7 7 7 7 7 7 7 7 7 7 7 7 7 7 7 7 7 7 7 7 7 7 7 7 7 7 7 7 7 7 7 7 7 7 7 7 7 7 7 7 7 7 7 7 7 7 7 7 7 7 7 7 7 7 7 7 7 7 7 7 7 7 7 7 7 7 7 7 7 7 7 7 7 7 7 7 7 7 7 7 7 7 7 7 7 7 7 7 7 7 7 7 7 7 7 7 7 7 7 7 7 7 7 7 7 7 7 7 7 7 7 7 7 7 7 7 7 7 7 7 7 7 7 7 7 7 7 7 7 7 7 7 7 7 7 7 7 7 7 7 7 7 7 7 7 7 7 7 7 7 7 7 7 7 7 7 7 7 7 7 7 7 7 7 7 7 7 7 7 7 7 7 7 7 7 7 7 7 7 7 7 7 7 7 7 7 7 7 7 7 7 7 7 7 7 7 7 7 7 7 7 7 7 7 7 7 7 7 7 7 7 7 7 7 7 7 7 7 7 7 7 7 7 7 7 7 7 7 7 7 7 7 7 7 7 7 7 7 7 7 7 7 7 7 7 7 7 7 7 7 7 7 7 7 7 7 7 7 7 7 7 7 7 7 7 7 7 7 7 7 7 7 7 7 7 7 7 7 7 7 7 7 7 7 7 7 7 7 7 7 7 7 7 7 7 7 7 7 7 7 7 7 7 7 7 7 7 7 7 7 7 7 7 7 7 7 7 7 7 7 7 7 7 7 7 7 7 7 7 7 7 7 7 7 7 7 7 7 7 7 7 7 7 7 7 7 7 7 7 7 7 7 7 7 7 7 7 7 7 7 7 7 7 7 7 7 7 7 7 7 7 7 7 7 7 7 7 7 7 7 7 7 7 7 7 7 7 7 7 7 7 7 7 7 7 7 7 7 7 7 7 7 7 7 7 7 7 7 7 7 7 7 7 7 7 7 7 7 7 7 7 7 7 7 7 7 7 7 7 7 7 7 7 7 7 7 7 7 7 7 7 7 7 7 7 7 7 7 7 7 7 7 7 7 7 7 7 7 7 7 7 7 7 7 7 7 7 7 7 7 7 7 7 7 7 7 7 7 7 7 7 7 7 7 7 7 7 7 7 7 7 7 7 7 7 7 7 7 7 7 7 7 7 7 7 7 7 7 7 7 7 7 7 7 7 7 7 7 7 7 7 7 7 7 7 7 7 7 7 7 7 7 7 7 7 7 7 7 7 7 7 7 7 7 7 7 7 7 7 7 7 7 7 7 7 7 7 7 7 7 7 
7 7 7 7 7 7 7 7 7 7 7 7 7 7 7 7 7 7 7 7 7 7 7 7 7 7 7 7 7 7 7 7 7 7 7 7 7 7 7 7 7 7 7 7 7 7 7 7 7 7 7 7 7 7 7 7 7 7 7 7 7 7 7 7 7 7 7 7 7 7 7 7 7 7 7 7 7 7 7 7 7 7 7 7 7 7 7 7 7 7 7 7 7 7 7 7 7 7 7 7 7 7 7 7 7 7 7 7 7 7 7 7 7 7 7 7 7 7 7 7 7 7 7 7 7 7 7 7 7 7 7 7 7 7 7 7 7 7 7 7 7 7 7 7 7 7 7 7 7 7 7 7 7 7 7 7 7 7 7 7 7 7 7 7 7 7 7 7 7 7 7 7 7 7 7 7 7 7 7 7 7 7 7 7 7 7 7 7 7 7 7 7 7 7 7 7 7 7 7 7 7 7 7 7 7 7 7 7 7 7 7 7 7 7 7 7 7 7 7 7 7 7 7 7 7 7 7 7 7 7 7 7 7 7 7 7 7 7 7 7 7 7 7 7 7 7 7 7 7 7 7 7 7 7 7 7 7 7 7 7 7 7 7 7 7 7 7 7 7 7 7 7 7 7 7 7 7 7 7 7 7 7 7 7 7 7 7 7 7 7 7 7 7 7 7 7 7 7 7 7 7 7 7 7 7 7 7 7 7 7 7 7 7 7 7 7 7 7 7 7 7 7 7 7 7 7 7 7 7 7 7 7 7 7 7 7 7 7 7 7 7 7 7 7 7 7 7 7 7 7 7 7 7 7 7 7 7 7 7 7 7 7 7 7 7 7 7 7 7 7 7 7 7 7 7 7 7 7 7 7 7 7 7 7 7 7 7 7 7 7 7 7 7 7 7 7 7 7 7 7 7 7 7 7 7 7 7 7 7 7 7 7 7 7 7 7 7 7 7 7 7 7 7 7 7 7 7 7 7 7 7 7 7 7 7 7 7 7 7 7 7 7 7 7 7 7 7 7 7 7 7 7 7 7 7 7 7 7 7 7 7 7 7 7 7 7 7 7 7 7 7 7 7 7 7 7 7 7 7 7 7 7 7 7 7 7 7 7 7 7 7 7 7 7 7 7 7 7 7 7 7 7 7 7 7 7 7 7 7 7 7 7 7 7 7 7 7 7 7 7 7 7 7 7 7 7 7 7 7 7 7 7 7 7 7 7 7 7 7 7 7 7 7 7 7 7 7 7 7 7 7 7 7 7 7 7 7 7 7 7 7 7 7 7 7 7 7 7 7 7 7 7 7 7 7 7 7 7 7 7 7 7 7 7 7 7 7 7 7 7 7 7 7 7 7 7 7 7 7 7 
0 0 0 0 0 0 0 0 0 0 0 0 0 0 0 0 0 0 0 0 0 0 0 0 0 0 0 0 0 0 0 0 0 0 0 0 0 0 0 0 0 0 0 0 0 0 0 0 0 0 0 0 0 0 0 0 0 0 0 0 0 0 0 0 0 0 0 0 0 0 0 0 0 0 0 0 0 0 0 0 0 0 0 0 0 0 0 0 0 0 0 0 0 0 0 0 0 0 0 0 0 0 0 0 0 0 0 0 0 0 0 0 0 0 0 0 0 0 0 0 0 0 0 0 0 0 0 0 0 0 0 0 0 0 0 0 0 0 0 0 0 0 0 0 0 0 0 0 0 0 0 0 0 0 0 0 0 0 0 0 0 0 0 0 0 0 0 0 0 0 0 0 0 0 0 0 0 0 0 0 0 0 0 0 0 0 0 0 0 0 0 0 0 0 0 0 0 0 0 0 0 0 0 0 0 0 0 0 0 0 0 0 0 0 0 0 0 0 0 0 0 0 0 0 0 0 0 0 0 0 0 0 0 0 0 0 0 0 0 0 0 0 0 0 0 0 0 0 0 0 0 0 0 0 0 0 0 0 0 0 0 0 0 0 0 0 0 0 0 0 0 0 0 0 0 0 0 0 0 0 0 0 0 0 0 0 0 0 0 0 0 0 0 0 0 0 0 0 0 0 0 0 0 0 0 0 0 0 0 0 0 0 0 0 0 0 0 0 0 0 0 0 0 0 0 0 0 0 0 0 0 0 0 0 0 0 0 0 0 0 0 0 0 0 0 0 0 0 0 0 0 0 0 0 0 0 0 0 0 0 0 0 0 0 0 0 0 0 0 0 0 0 0 0 0 0 0 0 0 0 0 0 0 0 0 0 0 0 0 0 0 0 0 0 0 0 0 0 0 0 0 0 0 0 0 0 0 0 0 0 0 0 0 0 0 0 0 0 0 0 0 0 0 0 0 0 0 0 0 0 0 0 0 0 0 0 0 0 0 0 0 0 0 0 0 0 0 0 0 0 0 0 0 0 0 0 0 0 0 0 0 0 0 0 0 0 0 0 0 0 0 0 0 0 0 0 0 0 0 0 0 0 0 0 0 0 0 0 0 0 0 0 0 0 0 0 0 0 0 0 0 0 0 0 0 0 0 0 0 0 0 0 0 0 0 0 0 0 0 0 0 0 0 0 0 0 0 0 0 0 0 0 0 0 0 0 0 0 0 0 0 0 0 0 0 0 0 0 0 0 0 0 0 0 0 0 0 0 0 0 0 0 0 0 0 0 0 0 0 0 0 0 0 0 0 0 0 0 0 0 0 0 0 0 0 0 0 0 0 0 0 0 0 0 0 0 0 0 0 0 
0 0 0 0 0 0 0 0 0 0 0 0 0 0 0 0 0 0 0 0 0 0 0 0 0 0 0 0 0 0 0 0 0 0 0 0 0 0 0 0 0 0 0 0 0 0 0 0 0 0 0 0 0 0 0 0 0 0 0 0 0 0 0 0 0 0 0 0 0 0 0 0 0 0 0 0 0 0 0 0 0 0 0 0 0 0 0 0 0 0 0 0 0 0 0 0 0 0 0 0 0 0 0 0 0 0 0 0 0 0 0 0 0 0 0 0 0 0 0 0 0 0 0 0 0 0 0 0 0 0 0 0 0 0 0 0 0 0 0 0 0 0 0 0 0 0 0 0 0 0 0 0 0 0 0 0 0 0 0 0 0 0 0 0 0 0 0 0 0 0 0 0 0 0 0 0 0 0 0 0 0 0 0 0 0 0 0 0 0 0 0 0 0 0 0 0 0 0 0 0 0 0 0 0 0 0 0 0 0 0 0 0 0 0 0 0 0 0 0 0 0 0 0 0 0 0 0 0 0 0 0 0 0 0 0 0 0 0 0 0 0 0 0 0 0 0 0 0 0 0 0 0 0 0 0 0 0 0 0 0 0 0 0 0 0 0 0 0 0 0 0 0 0 0 0 0 0 0 0 0 0 0 0 0 0 0 0 0 0 0 0 0 0 0 0 0 0 0 0 0 0 0 0 0 0 0 0 0 0 0 0 0 0 0 0 0 0 0 0 0 0 0 0 0 0 0 0 0 0 0 0 0 0 0 0 0 0 0 0 0 0 0 0 0 0 0 0 0 0 0 0 0 0 0 0 0 0 0 0 0 0 0 0 0 0 0 0 0 0 0 0 0 0 0 0 0 0 0 0 0 0 0 0 0 0 0 0 0 0 0 0 0 0 0 0 0 0 0 0 0 0 0 0 0 0 0 0 0 0 0 0 0 0 0 0 0 0 0 0 0 0 0 0 0 0 0 0 0 0 0 0 0 0 0 0 0 0 0 0 0 0 0 0 0 0 0 0 0 0 0 0 0 0 0 0 0 0 0 0 0 0 0 0 0 0 0 0 0 0 0 0 0 0 0 0 0 0 0 0 0 0 0 0 0 0 0 0 0 0 0 0 0 0 0 0 0 0 0 0 0 0 0 0 0 0 0 0 0 0 0 0 0 0 0 0 0 0 0 0 0 0 0 0 0 0 0 0 0 0 0 0 0 0 0 0 0 0 0 0 0 0 0 0 0 0 0 0 0 0 0 0 0 0 0 0 0 0 0 0 0 0 0 0 0 0 0 0 0 0 0 0 0 0 0 0 0 0 0 0 0 0 0 0 0 0 0 0 0 0 0 0 0 0 0 0 0 0 0 0 0 
0 0 0 0 0 0 0 0 0 0 0 0 0 0 0 0 0 0 0 0 0 0 0 0 0 0 0 0 0 0 0 0 0 0 0 0 0 0 0 0 0 0 0 0 0 0 0 0 0 0 0 0 0 0 0 0 0 0 0 0 0 0 0 0 0 0 0 0 0 0 0 0 0 0 0 0 0 0 0 0 0 0 0 0 0 0 0 0 0 0 0 0 0 0 0 0 0 0 0 0 0 0 0 0 0 0 0 0 0 0 0 0 0 0 0 0 0 0 0 0 0 0 0 0 0 0 0 0 0 0 0 0 0 0 0 0 0 0 0 0 0 0 0 0 0 0 0 0 0 0 0 0 0 0 0 0 0 0 0 0 0 0 0 0 0 0 0 0 0 0 0 0 0 0 0 0 0 0 0 0 0 0 0 0 0 0 0 0 0 0 0 0 0 0 0 0 0 0 0 0 0 0 0 0 0 0 0 0 0 0 0 0 0 0 0 0 0 0 0 0 0 0 0 0 0 0 0 0 0 0 0 0 0 0 0 0 0 0 0 0 0 0 0 0 0 0 0 0 0 0 0 0 0 0 0 0 0 0 0 0 0 0 0 0 0 0 0 0 0 0 0 0 0 0 0 0 0 0 0 0 0 0 0 0 0 0 0 0 0 0 0 0 0 0 0 0 0 0 0 0 0 0 0 0 0 0 0 0 0 0 0 0 0 0 0 0 0 0 0 0 0 0 0 0 0 0 0 0 0 0 0 0 0 0 0 0 0 0 0 0 0 0 0 0 0 0 0 0 0 0 0 0 0 0 0 0 0 0 0 0 0 0 0 0 0 0 0 0 0 0 0 0 0 0 0 0 0 0 0 0 0 0 0 0 0 0 0 0 0 0 0 0 0 0 0 0 0 0 0 0 0 0 0 0 0 0 0 0 0 0 0 0 0 0 0 0 0 0 0 0 0 0 0 0 0 0 0 0 0 0 0 0 0 0 0 0 0 0 0 0 0 0 0 0 0 0 0 0 0 0 0 0 0 0 0 0 0 0 0 0 0 0 0 0 0 0 0 0 0 0 0 0 0 0 0 0 0 0 0 0 0 0 0 0 0 0 0 0 0 0 0 0 0 0 0 0 0 0 0 0 0 0 0 0 0 0 0 0 0 0 0 0 0 0 0 0 0 0 0 0 0 0 0 0 0 0 0 0 0 0 0 0 0 0 0 0 0 0 0 0 0 0 0 0 0 0 0 0 0 0 0 0 0 0 0 0 0 0 0 0 0 0 0 0 0 0 0 0 0 0 0 0 0 0 0 0 0 0 0 0 0 0 0 0 0 0 0 0 0 0 0 0 0 0 0 0 0 0 0 0 
0 0 0 0 0 0 0 0 0 0 0 0 0 0 0 0 0 0 0 0 0 0 0 0 0 0 0 0 0 0 0 0 0 0 0 0 0 0 0 0 0 0 0 0 0 0 0 0 0 0 0 0 0 0 0 0 0 0 0 0 0 0 0 0 0 0 0 0 0 0 0 0 0 0 0 0 0 0 0 0 0 0 0 0 0 0 0 0 0 0 0 0 0 0 0 0 0 0 0 0 0 0 0 0 0 0 0 0 0 0 0 0 0 0 0 0 0 0 0 0 0 0 0 0 0 0 0 0 0 0 0 0 0 0 0 0 0 0 0 0 0 0 0 0 0 0 0 0 0 0 0 0 0 0 0 0 0 0 0 0 0 0 0 0 0 0 0 0 0 0 0 0 0 0 0 0 0 0 0 0 0 0 0 0 0 0 0 0 0 0 0 0 0 0 0 0 0 0 0 0 0 0 0 0 0 0 0 0 0 0 0 0 0 0 0 0 0 0 0 0 0 0 0 0 0 0 0 0 0 0 0 0 0 0 0 0 0 0 0 0 0 0 0 0 0 0 0 0 0 0 0 0 0 0 0 0 0 0 0 0 0 0 0 0 0 0 0 0 0 0 0 0 0 0 0 0 0 0 0 0 0 0 0 0 0 0 0 0 0 0 0 0 0 0 0 0 0 0 0 0 0 0 0 0 0 0 0 0 0 0 0 0 0 0 0 0 0 0 0 0 0 0 0 0 0 0 0 0 0 0 0 0 0 0 0 0 0 0 0 0 0 0 0 0 0 0 0 0 0 0 0 0 0 0 0 0 0 0 0 0 0 0 0 0 0 0 0 0 0 0 0 0 0 0 0 0 0 0 0 0 0 0 0 0 0 0 0 0 0 0 0 0 0 0 0 0 0 0 0 0 0 0 0 0 0 0 0 0 0 0 0 0 0 0 0 0 0 0 0 0 0 0 0 0 0 0 0 0 0 0 0 0 0 0 0 0 0 0 0 0 0 0 0 0 0 0 0 0 0 0 0 0 0 0 0 0 0 0 0 0 0 0 0 0 0 0 0 0 0 0 0 0 0 0 0 0 0 0 0 0 0 0 0 0 0 0 0 0 0 0 0 0 0 0 0 0 0 0 0 0 0 0 0 0 0 0 0 0 0 0 0 0 0 0 0 0 0 0 0 0 0 0 0 0 0 0 0 0 0 0 0 0 0 0 0 0 0 0 0 0 0 0 0 0 0 0 0 0 0 0 0 0 0 0 0 0 0 0 0 0 0 0 0 0 0 0 0 0 0 0 0 0 0 0 0 0 0 0 0 0 0 0 0 0 0 0 0 0 0 0 0 0 0 0 0 0 0 0 0 0 
0 0 0 0 0 0 0 0 0 0 0 0 0 0 0 0 0 0 0 0 0 0 0 0 0 0 0 0 0 0 0 0 0 0 0 0 0 0 0 0 0 0 0 0 0 0 0 0 0 0 0 0 0 0 0 0 0 0 0 0 0 0 0 0 0 0 0 0 0 0 0 0 0 0 0 0 0 0 0 0 0 0 0 0 0 0 0 0 0 0 0 0 0 0 0 0 0 0 0 0 0 0 0 0 0 0 0 0 0 0 0 0 0 0 0 0 0 0 0 0 0 0 0 0 0 0 0 0 0 0 0 0 0 0 0 0 0 0 0 0 0 0 0 0 0 0 0 0 0 0 0 0 0 0 0 0 0 0 0 0 0 0 0 0 0 0 0 0 0 0 0 0 0 0 0 0 0 0 0 0 0 0 0 0 0 0 0 0 0 0 0 0 0 0 0 0 0 0 0 0 0 0 0 0 0 0 0 0 0 0 0 0 0 0 0 0 0 0 0 0 0 0 0 0 0 0 0 0 0 0 0 0 0 0 0 0 0 0 0 0 0 0 0 0 0 0 0 0 0 0 0 0 0 0 0 0 0 0 0 0 0 0 0 0 0 0 0 0 0 0 0 0 0 0 0 0 0 0 0 0 0 0 0 0 0 0 0 0 0 0 0 0 0 0 0 0 0 0 0 0 0 0 0 0 0 0 0 0 0 0 0 0 0 0 0 0 0 0 0 0 0 0 0 0 0 0 0 0 0 0 0 0 0 0 0 0 0 0 0 0 0 0 0 0 0 0 0 0 0 0 0 0 0 0 0 0 0 0 0 0 0 0 0 0 0 0 0 0 0 0 0 0 0 0 0 0 0 0 0 0 0 0 0 0 0 0 0 0 0 0 0 0 0 0 0 0 0 0 0 0 0 0 0 0 0 0 0 0 0 0 0 0 0 0 0 0 0 0 0 0 0 0 0 0 0 0 0 0 0 0 0 0 0 0 0 0 0 0 0 0 0 0 0 0 0 0 0 0 0 0 0 0 0 0 0 0 0 0 0 0 0 0 0 0 0 0 0 0 0 0 0 0 0 0 0 0 0 0 0 0 0 0 0 0 0 0 0 0 0 0 0 0 0 0 0 0 0 0 0 0 0 0 0 0 0 0 0 0 0 0 0 0 0 0 0 0 0 0 0 0 0 0 0 0 0 0 0 0 0 0 0 0 0 0 0 0 0 0 0 0 0 0 0 0 0 0 0 0 0 0 0 0 0 0 0 0 0 0 0 0 0 0 0 0 0 0 0 0 0 0 0 0 0 0 0 0 0 0 0 0 0 0 0 0 0 0 0 0 0 0 0 0 0 0 0 0 0 0 0 0 
0 0 0 0 0 0 0 0 0 0 0 0 0 0 0 0 0 0 0 0 0 0 0 0 0 0 0 0 0 0 0 0 0 0 0 0 0 0 0 0 0 0 0 0 0 0 0 0 0 0 0 0 0 0 0 0 0 0 0 0 0 0 0 0 0 0 0 0 0 0 0 0 0 0 0 0 0 0 0 0 0 0 0 0 0 0 0 0 0 0 0 0 0 0 0 0 0 0 0 0 0 0 0 0 0 0 0 0 0 0 0 0 0 0 0 0 0 0 0 0 0 0 0 0 0 0 0 0 0 0 0 0 0 0 0 0 0 0 0 0 0 0 0 0 0 0 0 0 0 0 0 0 0 0 0 0 0 0 0 0 0 0 0 0 0 0 0 0 0 0 0 0 0 0 0 0 0 0 0 0 0 0 0 0 0 0 0 0 0 0 0 0 0 0 0 0 0 0 0 0 0 0 0 0 0 0 0 0 0 0 0 0 0 0 0 0 0 0 0 0 0 0 0 0 0 0 0 0 0 0 0 0 0 0 0 0 0 0 0 0 0 0 0 0 0 0 0 0 0 0 0 0 0 0 0 0 0 0 0 0 0 0 0 0 0 0 0 0 0 0 0 0 0 0 0 0 0 0 0 0 0 0 0 0 0 0 0 0 0 0 0 0 0 0 0 0 0 0 0 0 0 0 0 0 0 0 0 0 0 0 0 0 0 0 0 0 0 0 0 0 0 0 0 0 0 0 0 0 0 0 0 0 0 0 0 0 0 0 0 0 0 0 0 0 0 0 0 0 0 0 0 0 0 0 0 0 0 0 0 0 0 0 0 0 0 0 0 0 0 0 0 0 0 0 0 0 0 0 0 0 0 0 0 0 0 0 0 0 0 0 0 0 0 0 0 0 0 0 0 0 0 0 0 0 0 0 0 0 0 0 0 0 0 0 0 0 0 0 0 0 0 0 0 0 0 0 0 0 0 0 0 0 0 0 0 0 0 0 0 0 0 0 0 0 0 0 0 0 0 0 0 0 0 0 0 0 0 0 0 0 0 0 0 0 0 0 0 0 0 0 0 0 0 0 0 0 0 0 0 0 0 0 0 0 0 0 0 0 0 0 0 0 0 0 0 0 0 0 0 0 0 0 0 0 0 0 0 0 0 0 0 0 0 0 0 0 0 0 0 0 0 0 0 0 0 0 0 0 0 0 0 0 0 0 0 0 0 0 0 0 0 0 0 0 0 0 0 0 0 0 0 0 0 0 0 0 0 0 0 0 0 0 0 0 0 0 0 0 0 0 0 0 0 0 0 0 0 0 0 0 0 0 0 0 0 0 0 0 0 0 0 0 0 0 0 0 0 0 0 0 
0 0 0 0 0 0 0 0 0 0 0 0 0 0 0 0 0 0 0 0 0 0 0 0 0 0 0 0 0 0 0 0 0 0 0 0 0 0 0 0 0 0 0 0 0 0 0 0 0 0 0 0 0 0 0 0 0 0 0 0 0 0 0 0 0 0 0 0 0 0 0 0 0 0 0 0 0 0 0 0 0 0 0 0 0 0 0 0 0 0 0 0 0 0 0 0 0 0 0 0 0 0 0 0 0 0 0 0 0 0 0 0 0 0 0 0 0 0 0 0 0 0 0 0 0 0 0 0 0 0 0 0 0 0 0 0 0 0 0 0 0 0 0 0 0 0 0 0 0 0 0 0 0 0 0 0 0 0 0 0 0 0 0 0 0 0 0 0 0 0 0 0 0 0 0 0 0 0 0 0 0 0 0 0 0 0 0 0 0 0 0 0 0 0 0 0 0 0 0 0 0 0 0 0 0 0 0 0 0 0 0 0 0 0 0 0 0 0 0 0 0 0 0 0 0 0 0 0 0 0 0 0 0 0 0 0 0 0 0 0 0 0 0 0 0 0 0 0 0 0 0 0 0 0 0 0 0 0 0 0 0 0 0 0 0 0 0 0 0 0 0 0 0 0 0 0 0 0 0 0 0 0 0 0 0 0 0 0 0 0 0 0 0 0 0 0 0 0 0 0 0 0 0 0 0 0 0 0 0 0 0 0 0 0 0 0 0 0 0 0 0 0 0 0 0 0 0 0 0 0 0 0 0 0 0 0 0 0 0 0 0 0 0 0 0 0 0 0 0 0 0 0 0 0 0 0 0 0 0 0 0 0 0 0 0 0 0 0 0 0 0 0 0 0 0 0 0 0 0 0 0 0 0 0 0 0 0 0 0 0 0 0 0 0 0 0 0 0 0 0 0 0 0 0 0 0 0 0 0 0 0 0 0 0 0 0 0 0 0 0 0 0 0 0 0 0 0 0 0 0 0 0 0 0 0 0 0 0 0 0 0 0 0 0 0 0 0 0 0 0 0 0 0 0 0 0 0 0 0 0 0 0 0 0 0 0 0 0 0 0 0 0 0 0 0 0 0 0 0 0 0 0 0 0 0 0 0 0 0 0 0 0 0 0 0 0 0 0 0 0 0 0 0 0 0 0 0 0 0 0 0 0 0 0 0 0 0 0 0 0 0 0 0 0 0 0 0 0 0 0 0 0 0 0 0 0 0 0 0 0 0 0 0 0 0 0 0 0 0 0 0 0 0 0 0 0 0 0 0 0 0 0 0 0 0 0 0 0 0 0 0 0 0 0 0 0 0 0 0 0 0 0 0 0 0 0 0 0 0 0 0 0 0 0 0 0 0 0 0 0 
0 0 0 0 0 0 0 0 0 0 0 0 0 0 0 0 0 0 0 0 0 0 0 0 0 0 0 0 0 0 0 0 0 0 0 0 0 0 0 0 0 0 0 0 0 0 0 0 0 0 0 0 0 0 0 0 0 0 0 0 0 0 0 0 0 0 0 0 0 0 0 0 0 0 0 0 0 0 0 0 0 0 0 0 0 0 0 0 0 0 0 0 0 0 0 0 0 0 0 0 0 0 0 0 0 0 0 0 0 0 0 0 0 0 0 0 0 0 0 0 0 0 0 0 0 0 0 0 0 0 0 0 0 0 0 0 0 0 0 0 0 0 0 0 0 0 0 0 0 0 0 0 0 0 0 0 0 0 0 0 0 0 0 0 0 0 0 0 0 0 0 0 0 0 0 0 0 0 0 0 0 0 0 0 0 0 0 0 0 0 0 0 0 0 0 0 0 0 0 0 0 0 0 0 0 0 0 0 0 0 0 0 0 0 0 0 0 0 0 0 0 0 0 0 0 0 0 0 0 0 0 0 0 0 0 0 0 0 0 0 0 0 0 0 0 0 0 0 0 0 0 0 0 0 0 0 0 0 0 0 0 0 0 0 0 0 0 0 0 0 0 0 0 0 0 0 0 0 0 0 0 0 0 0 0 0 0 0 0 0 0 0 0 0 0 0 0 0 0 0 0 0 0 0 0 0 0 0 0 0 0 0 0 0 0 0 0 0 0 0 0 0 0 0 0 0 0 0 0 0 0 0 0 0 0 0 0 0 0 0 0 0 0 0 0 0 0 0 0 0 0 0 0 0 0 0 0 0 0 0 0 0 0 0 0 0 0 0 0 0 0 0 0 0 0 0 0 0 0 0 0 0 0 0 0 0 0 0 0 0 0 0 0 0 0 0 0 0 0 0 0 0 0 0 0 0 0 0 0 0 0 0 0 0 0 0 0 0 0 0 0 0 0 0 0 0 0 0 0 0 0 0 0 0 0 0 0 0 0 0 0 0 0 0 0 0 0 0 0 0 0 0 0 0 0 0 0 0 0 0 0 0 0 0 0 0 0 0 0 0 0 0 0 0 0 0 0 0 0 0 0 0 0 0 0 0 0 0 0 0 0 0 0 0 0 0 0 0 0 0 0 0 0 0 0 0 0 0 0 0 0 0 0 0 0 0 0 0 0 0 0 0 0 0 0 0 0 0 0 0 0 0 0 0 0 0 0 0 0 0 0 0 0 0 0 0 0 0 0 0 0 0 0 0 0 0 0 0 0 0 0 0 0 0 0 0 0 0 0 0 0 0 0 0 0 0 0 0 0 0 0 0 0 0 0 0 0 0 0 0 0 0 0 0 0 0 0 0 0 0 
0 0 0 0 0 0 0 0 0 0 0 0 0 0 0 0 0 0 0 0 0 0 0 0 0 0 0 0 0 0 0 0 0 0 0 0 0 0 0 0 0 0 0 0 0 0 0 0 0 0 0 0 0 0 0 0 0 0 0 0 0 0 0 0 0 0 0 0 0 0 0 0 0 0 0 0 0 0 0 0 0 0 0 0 0 0 0 0 0 0 0 0 0 0 0 0 0 0 0 0 0 0 0 0 0 0 0 0 0 0 0 0 0 0 0 0 0 0 0 0 0 0 0 0 0 0 0 0 0 0 0 0 0 0 0 0 0 0 0 0 0 0 0 0 0 0 0 0 0 0 0 0 0 0 0 0 0 0 0 0 0 0 0 0 0 0 0 0 0 0 0 0 0 0 0 0 0 0 0 0 0 0 0 0 0 0 0 0 0 0 0 0 0 0 0 0 0 0 0 0 0 0 0 0 0 0 0 0 0 0 0 0 0 0 0 0 0 0 0 0 0 0 0 0 0 0 0 0 0 0 0 0 0 0 0 0 0 0 0 0 0 0 0 0 0 0 0 0 0 0 0 0 0 0 0 0 0 0 0 0 0 0 0 0 0 0 0 0 0 0 0 0 0 0 0 0 0 0 0 0 0 0 0 0 0 0 0 0 0 0 0 0 0 0 0 0 0 0 0 0 0 0 0 0 0 0 0 0 0 0 0 0 0 0 0 0 0 0 0 0 0 0 0 0 0 0 0 0 0 0 0 0 0 0 0 0 0 0 0 0 0 0 0 0 0 0 0 0 0 0 0 0 0 0 0 0 0 0 0 0 0 0 0 0 0 0 0 0 0 0 0 0 0 0 0 0 0 0 0 0 0 0 0 0 0 0 0 0 0 0 0 0 0 0 0 0 0 0 0 0 0 0 0 0 0 0 0 0 0 0 0 0 0 0 0 0 0 0 0 0 0 0 0 0 0 0 0 0 0 0 0 0 0 0 0 0 0 0 0 0 0 0 0 0 0 0 0 0 0 0 0 0 0 0 0 0 0 0 0 0 0 0 0 0 0 0 0 0 0 0 0 0 0 0 0 0 0 0 0 0 0 0 0 0 0 0 0 0 0 0 0 0 0 0 0 0 0 0 0 0 0 0 0 0 0 0 0 0 0 0 0 0 0 0 0 0 0 0 0 0 0 0 0 0 0 0 0 0 0 0 0 0 0 0 0 0 0 0 0 0 0 0 0 0 0 0 0 0 0 0 0 0 0 0 0 0 0 0 0 0 0 0 0 0 0 0 0 0 0 0 0 0 0 0 0 0 0 0 0 0 0 0 0 0 0 0 0 0 0 0 0 0 0 0 0 0 0 0 0 0 
0 0 0 0 0 0 0 0 0 0 0 0 0 0 0 0 0 0 0 0 0 0 0 0 0 0 0 0 0 0 0 0 0 0 0 0 0 0 0 0 0 0 0 0 0 0 0 0 0 0 0 0 0 0 0 0 0 0 0 0 0 0 0 0 0 0 0 0 0 0 0 0 0 0 0 0 0 0 0 0 0 0 0 0 0 0 0 0 0 0 0 0 0 0 0 0 0 0 0 0 0 0 0 0 0 0 0 0 0 0 0 0 0 0 0 0 0 0 0 0 0 0 0 0 0 0 0 0 0 0 0 0 0 0 0 0 0 0 0 0 0 0 0 0 0 0 0 0 0 0 0 0 0 0 0 0 0 0 0 0 0 0 0 0 0 0 0 0 0 0 0 0 0 0 0 0 0 0 0 0 0 0 0 0 0 0 0 0 0 0 0 0 0 0 0 0 0 0 0 0 0 0 0 0 0 0 0 0 0 0 0 0 0 0 0 0 0 0 0 0 0 0 0 0 0 0 0 0 0 0 0 0 0 0 0 0 0 0 0 0 0 0 0 0 0 0 0 0 0 0 0 0 0 0 0 0 0 0 0 0 0 0 0 0 0 0 0 0 0 0 0 0 0 0 0 0 0 0 0 0 0 0 0 0 0 0 0 0 0 0 0 0 0 0 0 0 0 0 0 0 0 0 0 0 0 0 0 0 0 0 0 0 0 0 0 0 0 0 0 0 0 0 0 0 0 0 0 0 0 0 0 0 0 0 0 0 0 0 0 0 0 0 0 0 0 0 0 0 0 0 0 0 0 0 0 0 0 0 0 0 0 0 0 0 0 0 0 0 0 0 0 0 0 0 0 0 0 0 0 0 0 0 0 0 0 0 0 0 0 0 0 0 0 0 0 0 0 0 0 0 0 0 0 0 0 0 0 0 0 0 0 0 0 0 0 0 0 0 0 0 0 0 0 0 0 0 0 0 0 0 0 0 0 0 0 0 0 0 0 0 0 0 0 0 0 0 0 0 0 0 0 0 0 0 0 0 0 0 0 0 0 0 0 0 0 0 0 0 0 0 0 0 0 0 0 0 0 0 0 0 0 0 0 0 0 0 0 0 0 0 0 0 0 0 0 0 0 0 0 0 0 0 0 0 0 0 0 0 0 0 0 0 0 0 0 0 0 0 0 0 0 0 0 0 0 0 0 0 0 0 0 0 0 0 0 0 0 0 0 0 0 0 0 0 0 0 0 0 0 0 0 0 0 0 0 0 0 0 0 0 0 0 0 0 0 0 0 0 0 0 0 0 0 0 0 0 0 0 0 0 0 0 0 0 0 0 0 0 0 0 0 0 0 0 0 0 0 0 0 0 
0 0 0 0 0 0 0 0 0 0 0 0 0 0 0 0 0 0 0 0 0 0 0 0 0 0 0 0 0 0 0 0 0 0 0 0 0 0 0 0 0 0 0 0 0 0 0 0 0 0 0 0 0 0 0 0 0 0 0 0 0 0 0 0 0 0 0 0 0 0 0 0 0 0 0 0 0 0 0 0 0 0 0 0 0 0 0 0 0 0 0 0 0 0 0 0 0 0 0 0 0 0 0 0 0 0 0 0 0 0 0 0 0 0 0 0 0 0 0 0 0 0 0 0 0 0 0 0 0 0 0 0 0 0 0 0 0 0 0 0 0 0 0 0 0 0 0 0 0 0 0 0 0 0 0 0 0 0 0 0 0 0 0 0 0 0 0 0 0 0 0 0 0 0 0 0 0 0 0 0 0 0 0 0 0 0 0 0 0 0 0 0 0 0 0 0 0 0 0 0 0 0 0 0 0 0 0 0 0 0 0 0 0 0 0 0 0 0 0 0 0 0 0 0 0 0 0 0 0 0 0 0 0 0 0 0 0 0 0 0 0 0 0 0 0 0 0 0 0 0 0 0 0 0 0 0 0 0 0 0 0 0 0 0 0 0 0 0 0 0 0 0 0 0 0 0 0 0 0 0 0 0 0 0 0 0 0 0 0 0 0 0 0 0 0 0 0 0 0 0 0 0 0 0 0 0 0 0 0 0 0 0 0 0 0 0 0 0 0 0 0 0 0 0 0 0 0 0 0 0 0 0 0 0 0 0 0 0 0 0 0 0 0 0 0 0 0 0 0 0 0 0 0 0 0 0 0 0 0 0 0 0 0 0 0 0 0 0 0 0 0 0 0 0 0 0 0 0 0 0 0 0 0 0 0 0 0 0 0 0 0 0 0 0 0 0 0 0 0 0 0 0 0 0 0 0 0 0 0 0 0 0 0 0 0 0 0 0 0 0 0 0 0 0 0 0 0 0 0 0 0 0 0 0 0 0 0 0 0 0 0 0 0 0 0 0 0 0 0 0 0 0 0 0 0 0 0 0 0 0 0 0 0 0 0 0 0 0 0 0 0 0 0 0 0 0 0 0 0 0 0 0 0 0 0 0 0 0 0 0 0 0 0 0 0 0 0 0 0 0 0 0 0 0 0 0 0 0 0 0 0 0 0 0 0 0 0 0 0 0 0 0 0 0 0 0 0 0 0 0 0 0 0 0 0 0 0 0 0 0 0 0 0 0 0 0 0 0 0 0 0 0 0 0 0 0 0 0 0 0 0 0 0 0 0 0 0 0 0 0 0 0 0 0 0 0 0 0 0 0 0 0 0 0 0 0 0 0 0 0 0 0 0 0 0 0 0 0 0 0 
0 0 0 0 0 0 0 0 0 0 0 0 0 0 0 0 0 0 0 0 0 0 0 0 0 0 0 0 0 0 0 0 0 0 0 0 0 0 0 0 0 0 0 0 0 0 0 0 0 0 0 0 0 0 0 0 0 0 0 0 0 0 0 0 0 0 0 0 0 0 0 0 0 0 0 0 0 0 0 0 0 0 0 0 0 0 0 0 0 0 0 0 0 0 0 0 0 0 0 0 0 0 0 0 0 0 0 0 0 0 0 0 0 0 0 0 0 0 0 0 0 0 0 0 0 0 0 0 0 0 0 0 0 0 0 0 0 0 0 0 0 0 0 0 0 0 0 0 0 0 0 0 0 0 0 0 0 0 0 0 0 0 0 0 0 0 0 0 0 0 0 0 0 0 0 0 0 0 0 0 0 0 0 0 0 0 0 0 0 0 0 0 0 0 0 0 0 0 0 0 0 0 0 0 0 0 0 0 0 0 0 0 0 0 0 0 0 0 0 0 0 0 0 0 0 0 0 0 0 0 0 0 0 0 0 0 0 0 0 0 0 0 0 0 0 0 0 0 0 0 0 0 0 0 0 0 0 0 0 0 0 0 0 0 0 0 0 0 0 0 0 0 0 0 0 0 0 0 0 0 0 0 0 0 0 0 0 0 0 0 0 0 0 0 0 0 0 0 0 0 0 0 0 0 0 0 0 0 0 0 0 0 0 0 0 0 0 0 0 0 0 0 0 0 0 0 0 0 0 0 0 0 0 0 0 0 0 0 0 0 0 0 0 0 0 0 0 0 0 0 0 0 0 0 0 0 0 0 0 0 0 0 0 0 0 0 0 0 0 0 0 0 0 0 0 0 0 0 0 0 0 0 0 0 0 0 0 0 0 0 0 0 0 0 0 0 0 0 0 0 0 0 0 0 0 0 0 0 0 0 0 0 0 0 0 0 0 0 0 0 0 0 0 0 0 0 0 0 0 0 0 0 0 0 0 0 0 0 0 0 0 0 0 0 0 0 0 0 0 0 0 0 0 0 0 0 0 0 0 0 0 0 0 0 0 0 0 0 0 0 0 0 0 0 0 0 0 0 0 0 0 0 0 0 0 0 0 0 0 0 0 0 0 0 0 0 0 0 0 0 0 0 0 0 0 0 0 0 0 0 0 0 0 0 0 0 0 0 0 0 0 0 0 0 0 0 0 0 0 0 0 0 0 0 0 0 0 0 0 0 0 0 0 0 0 0 0 0 0 0 0 0 0 0 0 0 0 0 0 0 0 0 0 0 0 0 0 0 0 0 0 0 0 0 0 0 0 0 0 0 0 0 0 0 0 0 0 0 0 0 0 0 0 0 0 0 0 0 0 0 
0 0 0 0 0 0 0 0 0 0 0 0 0 0 0 0 0 0 0 0 0 0 0 0 0 0 0 0 0 0 0 0 0 0 0 0 0 0 0 0 0 0 0 0 0 0 0 0 0 0 0 0 0 0 0 0 0 0 0 0 0 0 0 0 0 0 0 0 0 0 0 0 0 0 0 0 0 0 0 0 0 0 0 0 0 0 0 0 0 0 0 0 0 0 0 0 0 0 0 0 0 0 0 0 0 0 0 0 0 0 0 0 0 0 0 0 0 0 0 0 0 0 0 0 0 0 0 0 0 0 0 0 0 0 0 0 0 0 0 0 0 0 0 0 0 0 0 0 0 0 0 0 0 0 0 0 0 0 0 0 0 0 0 0 0 0 0 0 0 0 0 0 0 0 0 0 0 0 0 0 0 0 0 0 0 0 0 0 0 0 0 0 0 0 0 0 0 0 0 0 0 0 0 0 0 0 0 0 0 0 0 0 0 0 0 0 0 0 0 0 0 0 0 0 0 0 0 0 0 0 0 0 0 0 0 0 0 0 0 0 0 0 0 0 0 0 0 0 0 0 0 0 0 0 0 0 0 0 0 0 0 0 0 0 0 0 0 0 0 0 0 0 0 0 0 0 0 0 0 0 0 0 0 0 0 0 0 0 0 0 0 0 0 0 0 0 0 0 0 0 0 0 0 0 0 0 0 0 0 0 0 0 0 0 0 0 0 0 0 0 0 0 0 0 0 0 0 0 0 0 0 0 0 0 0 0 0 0 0 0 0 0 0 0 0 0 0 0 0 0 0 0 0 0 0 0 0 0 0 0 0 0 0 0 0 0 0 0 0 0 0 0 0 0 0 0 0 0 0 0 0 0 0 0 0 0 0 0 0 0 0 0 0 0 0 0 0 0 0 0 0 0 0 0 0 0 0 0 0 0 0 0 0 0 0 0 0 0 0 0 0 0 0 0 0 0 0 0 0 0 0 0 0 0 0 0 0 0 0 0 0 0 0 0 0 0 0 0 0 0 0 0 0 0 0 0 0 0 0 0 0 0 0 0 0 0 0 0 0 0 0 0 0 0 0 0 0 0 0 0 0 0 0 0 0 0 0 0 0 0 0 0 0 0 0 0 0 0 0 0 0 0 0 0 0 0 0 0 0 0 0 0 0 0 0 0 0 0 0 0 0 0 0 0 0 0 0 0 0 0 0 0 0 0 0 0 0 0 0 0 0 0 0 0 0 0 0 0 0 0 0 0 0 0 0 0 0 0 0 0 0 0 0 0 0 0 0 0 0 0 0 0 0 0 0 0 0 0 0 0 0 0 0 0 0 0 0 0 0 0 0 0 0 0 0 0 0 0 0 0 
0 0 0 0 0 0 0 0 0 0 0 0 0 0 0 0 0 0 0 0 0 0 0 0 0 0 0 0 0 0 0 0 0 0 0 0 0 0 0 0 0 0 0 0 0 0 0 0 0 0 0 0 0 0 0 0 0 0 0 0 0 0 0 0 0 0 0 0 0 0 0 0 0 0 0 0 0 0 0 0 0 0 0 0 0 0 0 0 0 0 0 0 0 0 0 0 0 0 0 0 0 0 0 0 0 0 0 0 0 0 0 0 0 0 0 0 0 0 0 0 0 0 0 0 0 0 0 0 0 0 0 0 0 0 0 0 0 0 0 0 0 0 0 0 0 0 0 0 0 0 0 0 0 0 0 0 0 0 0 0 0 0 0 0 0 0 0 0 0 0 0 0 0 0 0 0 0 0 0 0 0 0 0 0 0 0 0 0 0 0 0 0 0 0 0 0 0 0 0 0 0 0 0 0 0 0 0 0 0 0 0 0 0 0 0 0 0 0 0 0 0 0 0 0 0 0 0 0 0 0 0 0 0 0 0 0 0 0 0 0 0 0 0 0 0 0 0 0 0 0 0 0 0 0 0 0 0 0 0 0 0 0 0 0 0 0 0 0 0 0 0 0 0 0 0 0 0 0 0 0 0 0 0 0 0 0 0 0 0 0 0 0 0 0 0 0 0 0 0 0 0 0 0 0 0 0 0 0 0 0 0 0 0 0 0 0 0 0 0 0 0 0 0 0 0 0 0 0 0 0 0 0 0 0 0 0 0 0 0 0 0 0 0 0 0 0 0 0 0 0 0 0 0 0 0 0 0 0 0 0 0 0 0 0 0 0 0 0 0 0 0 0 0 0 0 0 0 0 0 0 0 0 0 0 0 0 0 0 0 0 0 0 0 0 0 0 0 0 0 0 0 0 0 0 0 0 0 0 0 0 0 0 0 0 0 0 0 0 0 0 0 0 0 0 0 0 0 0 0 0 0 0 0 0 0 0 0 0 0 0 0 0 0 0 0 0 0 0 0 0 0 0 0 0 0 0 0 0 0 0 0 0 0 0 0 0 0 0 0 0 0 0 0 0 0 0 0 0 0 0 0 0 0 0 0 0 0 0 0 0 0 0 0 0 0 0 0 0 0 0 0 0 0 0 0 0 0 0 0 0 0 0 0 0 0 0 0 0 0 0 0 0 0 0 0 0 0 0 0 0 0 0 0 0 0 0 0 0 0 0 0 0 0 0 0 0 0 0 0 0 0 0 0 0 0 0 0 0 0 0 0 0 0 0 0 0 0 0 0 0 0 0 0 0 0 0 0 0 0 0 0 0 0 0 0 0 0 0 0 0 0 0 0 0 0 0 0 0 0 0 
0 0 0 0 0 0 0 0 0 0 0 0 0 0 0 0 0 0 0 0 0 0 0 0 0 0 0 0 0 0 0 0 0 0 0 0 0 0 0 0 0 0 0 0 0 0 0 0 0 0 0 0 0 0 0 0 0 0 0 0 0 0 0 0 0 0 0 0 0 0 0 0 0 0 0 0 0 0 0 0 0 0 0 0 0 0 0 0 0 0 0 0 0 0 0 0 0 0 0 0 0 0 0 0 0 0 0 0 0 0 0 0 0 0 0 0 0 0 0 0 0 0 0 0 0 0 0 0 0 0 0 0 0 0 0 0 0 0 0 0 0 0 0 0 0 0 0 0 0 0 0 0 0 0 0 0 0 0 0 0 0 0 0 0 0 0 0 0 0 0 0 0 0 0 0 0 0 0 0 0 0 0 0 0 0 0 0 0 0 0 0 0 0 0 0 0 0 0 0 0 0 0 0 0 0 0 0 0 0 0 0 0 0 0 0 0 0 0 0 0 0 0 0 0 0 0 0 0 0 0 0 0 0 0 0 0 0 0 0 0 0 0 0 0 0 0 0 0 0 0 0 0 0 0 0 0 0 0 0 0 0 0 0 0 0 0 0 0 0 0 0 0 0 0 0 0 0 0 0 0 0 0 0 0 0 0 0 0 0 0 0 0 0 0 0 0 0 0 0 0 0 0 0 0 0 0 0 0 0 0 0 0 0 0 0 0 0 0 0 0 0 0 0 0 0 0 0 0 0 0 0 0 0 0 0 0 0 0 0 0 0 0 0 0 0 0 0 0 0 0 0 0 0 0 0 0 0 0 0 0 0 0 0 0 0 0 0 0 0 0 0 0 0 0 0 0 0 0 0 0 0 0 0 0 0 0 0 0 0 0 0 0 0 0 0 0 0 0 0 0 0 0 0 0 0 0 0 0 0 0 0 0 0 0 0 0 0 0 0 0 0 0 0 0 0 0 0 0 0 0 0 0 0 0 0 0 0 0 0 0 0 0 0 0 0 0 0 0 0 0 0 0 0 0 0 0 0 0 0 0 0 0 0 0 0 0 0 0 0 0 0 0 0 0 0 0 0 0 0 0 0 0 0 0 0 0 0 0 0 0 0 0 0 0 0 0 0 0 0 0 0 0 0 0 0 0 0 0 0 0 0 0 0 0 0 0 0 0 0 0 0 0 0 0 0 0 0 0 0 0 0 0 0 0 0 0 0 0 0 0 0 0 0 0 0 0 0 0 0 0 0 0 0 0 0 0 0 0 0 0 0 0 0 0 0 0 0 0 0 0 0 0 0 0 0 0 0 0 0 0 0 0 0 0 0 0 0 0 0 0 0 0 0 0 0 0 0 0 0 0 
0 0 0 0 0 0 0 0 0 0 0 0 0 0 0 0 0 0 0 0 0 0 0 0 0 0 0 0 0 0 0 0 0 0 0 0 0 0 0 0 0 0 0 0 0 0 0 0 0 0 0 0 0 0 0 0 0 0 0 0 0 0 0 0 0 0 0 0 0 0 0 0 0 0 0 0 0 0 0 0 0 0 0 0 0 0 0 0 0 0 0 0 0 0 0 0 0 0 0 0 0 0 0 0 0 0 0 0 0 0 0 0 0 0 0 0 0 0 0 0 0 0 0 0 0 0 0 0 0 0 0 0 0 0 0 0 0 0 0 0 0 0 0 0 0 0 0 0 0 0 0 0 0 0 0 0 0 0 0 0 0 0 0 0 0 0 0 0 0 0 0 0 0 0 0 0 0 0 0 0 0 0 0 0 0 0 0 0 0 0 0 0 0 0 0 0 0 0 0 0 0 0 0 0 0 0 0 0 0 0 0 0 0 0 0 0 0 0 0 0 0 0 0 0 0 0 0 0 0 0 0 0 0 0 0 0 0 0 0 0 0 0 0 0 0 0 0 0 0 0 0 0 0 0 0 0 0 0 0 0 0 0 0 0 0 0 0 0 0 0 0 0 0 0 0 0 0 0 0 0 0 0 0 0 0 0 0 0 0 0 0 0 0 0 0 0 0 0 0 0 0 0 0 0 0 0 0 0 0 0 0 0 0 0 0 0 0 0 0 0 0 0 0 0 0 0 0 0 0 0 0 0 0 0 0 0 0 0 0 0 0 0 0 0 0 0 0 0 0 0 0 0 0 0 0 0 0 0 0 0 0 0 0 0 0 0 0 0 0 0 0 0 0 0 0 0 0 0 0 0 0 0 0 0 0 0 0 0 0 0 0 0 0 0 0 0 0 0 0 0 0 0 0 0 0 0 0 0 0 0 0 0 0 0 0 0 0 0 0 0 0 0 0 0 0 0 0 0 0 0 0 0 0 0 0 0 0 0 0 0 0 0 0 0 0 0 0 0 0 0 0 0 0 0 0 0 0 0 0 0 0 0 0 0 0 0 0 0 0 0 0 0 0 0 0 0 0 0 0 0 0 0 0 0 0 0 0 0 0 0 0 0 0 0 0 0 0 0 0 0 0 0 0 0 0 0 0 0 0 0 0 0 0 0 0 0 0 0 0 0 0 0 0 0 0 0 0 0 0 0 0 0 0 0 0 0 0 0 0 0 0 0 0 0 0 0 0 0 0 0 0 0 0 0 0 0 0 0 0 0 0 0 0 0 0 0 0 0 0 0 0 0 0 0 0 0 0 0 0 0 0 0 0 0 0 0 0 0 0 0 0 0 0 0 0 0 0 0 0 0 
0 0 0 0 0 0 0 0 0 0 0 0 0 0 0 0 0 0 0 0 0 0 0 0 0 0 0 0 0 0 0 0 0 0 0 0 0 0 0 0 0 0 0 0 0 0 0 0 0 0 0 0 0 0 0 0 0 0 0 0 0 0 0 0 0 0 0 0 0 0 0 0 0 0 0 0 0 0 0 0 0 0 0 0 0 0 0 0 0 0 0 0 0 0 0 0 0 0 0 0 0 0 0 0 0 0 0 0 0 0 0 0 0 0 0 0 0 0 0 0 0 0 0 0 0 0 0 0 0 0 0 0 0 0 0 0 0 0 0 0 0 0 0 0 0 0 0 0 0 0 0 0 0 0 0 0 0 0 0 0 0 0 0 0 0 0 0 0 0 0 0 0 0 0 0 0 0 0 0 0 0 0 0 0 0 0 0 0 0 0 0 0 0 0 0 0 0 0 0 0 0 0 0 0 0 0 0 0 0 0 0 0 0 0 0 0 0 0 0 0 0 0 0 0 0 0 0 0 0 0 0 0 0 0 0 0 0 0 0 0 0 0 0 0 0 0 0 0 0 0 0 0 0 0 0 0 0 0 0 0 0 0 0 0 0 0 0 0 0 0 0 0 0 0 0 0 0 0 0 0 0 0 0 0 0 0 0 0 0 0 0 0 0 0 0 0 0 0 0 0 0 0 0 0 0 0 0 0 0 0 0 0 0 0 0 0 0 0 0 0 0 0 0 0 0 0 0 0 0 0 0 0 0 0 0 0 0 0 0 0 0 0 0 0 0 0 0 0 0 0 0 0 0 0 0 0 0 0 0 0 0 0 0 0 0 0 0 0 0 0 0 0 0 0 0 0 0 0 0 0 0 0 0 0 0 0 0 0 0 0 0 0 0 0 0 0 0 0 0 0 0 0 0 0 0 0 0 0 0 0 0 0 0 0 0 0 0 0 0 0 0 0 0 0 0 0 0 0 0 0 0 0 0 0 0 0 0 0 0 0 0 0 0 0 0 0 0 0 0 0 0 0 0 0 0 0 0 0 0 0 0 0 0 0 0 0 0 0 0 0 0 0 0 0 0 0 0 0 0 0 0 0 0 0 0 0 0 0 0 0 0 0 0 0 0 0 0 0 0 0 0 0 0 0 0 0 0 0 0 0 0 0 0 0 0 0 0 0 0 0 0 0 0 0 0 0 0 0 0 0 0 0 0 0 0 0 0 0 0 0 0 0 0 0 0 0 0 0 0 0 0 0 0 0 0 0 0 0 0 0 0 0 0 0 0 0 0 0 0 0 0 0 0 0 0 0 0 0 0 0 0 0 0 0 0 0 0 0 0 0 0 0 0 0 0 0 0 0 0 0 
0 0 0 0 0 0 0 0 0 0 0 0 0 0 0 0 0 0 0 0 0 0 0 0 0 0 0 0 0 0 0 0 0 0 0 0 0 0 0 0 0 0 0 0 0 0 0 0 0 0 0 0 0 0 0 0 0 0 0 0 0 0 0 0 0 0 0 0 0 0 0 0 0 0 0 0 0 0 0 0 0 0 0 0 0 0 0 0 0 0 0 0 0 0 0 0 0 0 0 0 0 0 0 0 0 0 0 0 0 0 0 0 0 0 0 0 0 0 0 0 0 0 0 0 0 0 0 0 0 0 0 0 0 0 0 0 0 0 0 0 0 0 0 0 0 0 0 0 0 0 0 0 0 0 0 0 0 0 0 0 0 0 0 0 0 0 0 0 0 0 0 0 0 0 0 0 0 0 0 0 0 0 0 0 0 0 0 0 0 0 0 0 0 0 0 0 0 0 0 0 0 0 0 0 0 0 0 0 0 0 0 0 0 0 0 0 0 0 0 0 0 0 0 0 0 0 0 0 0 0 0 0 0 0 0 0 0 0 0 0 0 0 0 0 0 0 0 0 0 0 0 0 0 0 0 0 0 0 0 0 0 0 0 0 0 0 0 0 0 0 0 0 0 0 0 0 0 0 0 0 0 0 0 0 0 0 0 0 0 0 0 0 0 0 0 0 0 0 0 0 0 0 0 0 0 0 0 0 0 0 0 0 0 0 0 0 0 0 0 0 0 0 0 0 0 0 0 0 0 0 0 0 0 0 0 0 0 0 0 0 0 0 0 0 0 0 0 0 0 0 0 0 0 0 0 0 0 0 0 0 0 0 0 0 0 0 0 0 0 0 0 0 0 0 0 0 0 0 0 0 0 0 0 0 0 0 0 0 0 0 0 0 0 0 0 0 0 0 0 0 0 0 0 0 0 0 0 0 0 0 0 0 0 0 0 0 0 0 0 0 0 0 0 0 0 0 0 0 0 0 0 0 0 0 0 0 0 0 0 0 0 0 0 0 0 0 0 0 0 0 0 0 0 0 0 0 0 0 0 0 0 0 0 0 0 0 0 0 0 0 0 0 0 0 0 0 0 0 0 0 0 0 0 0 0 0 0 0 0 0 0 0 0 0 0 0 0 0 0 0 0 0 0 0 0 0 0 0 0 0 0 0 0 0 0 0 0 0 0 0 0 0 0 0 0 0 0 0 0 0 0 0 0 0 0 0 0 0 0 0 0 0 0 0 0 0 0 0 0 0 0 0 0 0 0 0 0 0 0 0 0 0 0 0 0 0 0 0 0 0 0 0 0 0 0 0 0 0 0 0 0 0 0 0 0 0 0 0 0 0 0 0 0 0 0 0 0 0 0 0 
0 0 0 0 0 0 0 0 0 0 0 0 0 0 0 0 0 0 0 0 0 0 0 0 0 0 0 0 0 0 0 0 0 0 0 0 0 0 0 0 0 0 0 0 0 0 0 0 0 0 0 0 0 0 0 0 0 0 0 0 0 0 0 0 0 0 0 0 0 0 0 0 0 0 0 0 0 0 0 0 0 0 0 0 0 0 0 0 0 0 0 0 0 0 0 0 0 0 0 0 0 0 0 0 0 0 0 0 0 0 0 0 0 0 0 0 0 0 0 0 0 0 0 0 0 0 0 0 0 0 0 0 0 0 0 0 0 0 0 0 0 0 0 0 0 0 0 0 0 0 0 0 0 0 0 0 0 0 0 0 0 0 0 0 0 0 0 0 0 0 0 0 0 0 0 0 0 0 0 0 0 0 0 0 0 0 0 0 0 0 0 0 0 0 0 0 0 0 0 0 0 0 0 0 0 0 0 0 0 0 0 0 0 0 0 0 0 0 0 0 0 0 0 0 0 0 0 0 0 0 0 0 0 0 0 0 0 0 0 0 0 0 0 0 0 0 0 0 0 0 0 0 0 0 0 0 0 0 0 0 0 0 0 0 0 0 0 0 0 0 0 0 0 0 0 0 0 0 0 0 0 0 0 0 0 0 0 0 0 0 0 0 0 0 0 0 0 0 0 0 0 0 0 0 0 0 0 0 0 0 0 0 0 0 0 0 0 0 0 0 0 0 0 0 0 0 0 0 0 0 0 0 0 0 0 0 0 0 0 0 0 0 0 0 0 0 0 0 0 0 0 0 0 0 0 0 0 0 0 0 0 0 0 0 0 0 0 0 0 0 0 0 0 0 0 0 0 0 0 0 0 0 0 0 0 0 0 0 0 0 0 0 0 0 0 0 0 0 0 0 0 0 0 0 0 0 0 0 0 0 0 0 0 0 0 0 0 0 0 0 0 0 0 0 0 0 0 0 0 0 0 0 0 0 0 0 0 0 0 0 0 0 0 0 0 0 0 0 0 0 0 0 0 0 0 0 0 0 0 0 0 0 0 0 0 0 0 0 0 0 0 0 0 0 0 0 0 0 0 0 0 0 0 0 0 0 0 0 0 0 0 0 0 0 0 0 0 0 0 0 0 0 0 0 0 0 0 0 0 0 0 0 0 0 0 0 0 0 0 0 0 0 0 0 0 0 0 0 0 0 0 0 0 0 0 0 0 0 0 0 0 0 0 0 0 0 0 0 0 0 0 0 0 0 0 0 0 0 0 0 0 0 0 0 0 0 0 0 0 0 0 0 0 0 0 0 0 0 0 0 0 0 0 0 0 0 0 0 0 0 0 0 0 0 0 0 0 0 0 0 
0 0 0 0 0 0 0 0 0 0 0 0 0 0 0 0 0 0 0 0 0 0 0 0 0 0 0 0 0 0 0 0 0 0 0 0 0 0 0 0 0 0 0 0 0 0 0 0 0 0 0 0 0 0 0 0 0 0 0 0 0 0 0 0 0 0 0 0 0 0 0 0 0 0 0 0 0 0 0 0 0 0 0 0 0 0 0 0 0 0 0 0 0 0 0 0 0 0 0 0 0 0 0 0 0 0 0 0 0 0 0 0 0 0 0 0 0 0 0 0 0 0 0 0 0 0 0 0 0 0 0 0 0 0 0 0 0 0 0 0 0 0 0 0 0 0 0 0 0 0 0 0 0 0 0 0 0 0 0 0 0 0 0 0 0 0 0 0 0 0 0 0 0 0 0 0 0 0 0 0 0 0 0 0 0 0 0 0 0 0 0 0 0 0 0 0 0 0 0 0 0 0 0 0 0 0 0 0 0 0 0 0 0 0 0 0 0 0 0 0 0 0 0 0 0 0 0 0 0 0 0 0 0 0 0 0 0 0 0 0 0 0 0 0 0 0 0 0 0 0 0 0 0 0 0 0 0 0 0 0 0 0 0 0 0 0 0 0 0 0 0 0 0 0 0 0 0 0 0 0 0 0 0 0 0 0 0 0 0 0 0 0 0 0 0 0 0 0 0 0 0 0 0 0 0 0 0 0 0 0 0 0 0 0 0 0 0 0 0 0 0 0 0 0 0 0 0 0 0 0 0 0 0 0 0 0 0 0 0 0 0 0 0 0 0 0 0 0 0 0 0 0 0 0 0 0 0 0 0 0 0 0 0 0 0 0 0 0 0 0 0 0 0 0 0 0 0 0 0 0 0 0 0 0 0 0 0 0 0 0 0 0 0 0 0 0 0 0 0 0 0 0 0 0 0 0 0 0 0 0 0 0 0 0 0 0 0 0 0 0 0 0 0 0 0 0 0 0 0 0 0 0 0 0 0 0 0 0 0 0 0 0 0 0 0 0 0 0 0 0 0 0 0 0 0 0 0 0 0 0 0 0 0 0 0 0 0 0 0 0 0 0 0 0 0 0 0 0 0 0 0 0 0 0 0 0 0 0 0 0 0 0 0 0 0 0 0 0 0 0 0 0 0 0 0 0 0 0 0 0 0 0 0 0 0 0 0 0 0 0 0 0 0 0 0 0 0 0 0 0 0 0 0 0 0 0 0 0 0 0 0 0 0 0 0 0 0 0 0 0 0 0 0 0 0 0 0 0 0 0 0 0 0 0 0 0 0 0 0 0 0 0 0 0 0 0 0 0 0 0 0 0 0 0 0 0 0 0 0 0 0 0 0 0 0 0 0 0 0 0 
0 0 0 0 0 0 0 0 0 0 0 0 0 0 0 0 0 0 0 0 0 0 0 0 0 0 0 0 0 0 0 0 0 0 0 0 0 0 0 0 0 0 0 0 0 0 0 0 0 0 0 0 0 0 0 0 0 0 0 0 0 0 0 0 0 0 0 0 0 0 0 0 0 0 0 0 0 0 0 0 0 0 0 0 0 0 0 0 0 0 0 0 0 0 0 0 0 0 0 0 0 0 0 0 0 0 0 0 0 0 0 0 0 0 0 0 0 0 0 0 0 0 0 0 0 0 0 0 0 0 0 0 0 0 0 0 0 0 0 0 0 0 0 0 0 0 0 0 0 0 0 0 0 0 0 0 0 0 0 0 0 0 0 0 0 0 0 0 0 0 0 0 0 0 0 0 0 0 0 0 0 0 0 0 0 0 0 0 0 0 0 0 0 0 0 0 0 0 0 0 0 0 0 0 0 0 0 0 0 0 0 0 0 0 0 0 0 0 0 0 0 0 0 0 0 0 0 0 0 0 0 0 0 0 0 0 0 0 0 0 0 0 0 0 0 0 0 0 0 0 0 0 0 0 0 0 0 0 0 0 0 0 0 0 0 0 0 0 0 0 0 0 0 0 0 0 0 0 0 0 0 0 0 0 0 0 0 0 0 0 0 0 0 0 0 0 0 0 0 0 0 0 0 0 0 0 0 0 0 0 0 0 0 0 0 0 0 0 0 0 0 0 0 0 0 0 0 0 0 0 0 0 0 0 0 0 0 0 0 0 0 0 0 0 0 0 0 0 0 0 0 0 0 0 0 0 0 0 0 0 0 0 0 0 0 0 0 0 0 0 0 0 0 0 0 0 0 0 0 0 0 0 0 0 0 0 0 0 0 0 0 0 0 0 0 0 0 0 0 0 0 0 0 0 0 0 0 0 0 0 0 0 0 0 0 0 0 0 0 0 0 0 0 0 0 0 0 0 0 0 0 0 0 0 0 0 0 0 0 0 0 0 0 0 0 0 0 0 0 0 0 0 0 0 0 0 0 0 0 0 0 0 0 0 0 0 0 0 0 0 0 0 0 0 0 0 0 0 0 0 0 0 0 0 0 0 0 0 0 0 0 0 0 0 0 0 0 0 0 0 0 0 0 0 0 0 0 0 0 0 0 0 0 0 0 0 0 0 0 0 0 0 0 0 0 0 0 0 0 0 0 0 0 0 0 0 0 0 0 0 0 0 0 0 0 0 0 0 0 0 0 0 0 0 0 0 0 0 0 0 0 0 0 0 0 0 0 0 0 0 0 0 0 0 0 0 0 0 0 0 0 0 0 0 0 0 0 0 0 0 0 0 0 0 0 0 0 0 0 0 
0 0 0 0 0 0 0 0 0 0 0 0 0 0 0 0 0 0 0 0 0 0 0 0 0 0 0 0 0 0 0 0 0 0 0 0 0 0 0 0 0 0 0 0 0 0 0 0 0 0 0 0 0 0 0 0 0 0 0 0 0 0 0 0 0 0 0 0 0 0 0 0 0 0 0 0 0 0 0 0 0 0 0 0 0 0 0 0 0 0 0 0 0 0 0 0 0 0 0 0 0 0 0 0 0 0 0 0 0 0 0 0 0 0 0 0 0 0 0 0 0 0 0 0 0 0 0 0 0 0 0 0 0 0 0 0 0 0 0 0 0 0 0 0 0 0 0 0 0 0 0 0 0 0 0 0 0 0 0 0 0 0 0 0 0 0 0 0 0 0 0 0 0 0 0 0 0 0 0 0 0 0 0 0 0 0 0 0 0 0 0 0 0 0 0 0 0 0 0 0 0 0 0 0 0 0 0 0 0 0 0 0 0 0 0 0 0 0 0 0 0 0 0 0 0 0 0 0 0 0 0 0 0 0 0 0 0 0 0 0 0 0 0 0 0 0 0 0 0 0 0 0 0 0 0 0 0 0 0 0 0 0 0 0 0 0 0 0 0 0 0 0 0 0 0 0 0 0 0 0 0 0 0 0 0 0 0 0 0 0 0 0 0 0 0 0 0 0 0 0 0 0 0 0 0 0 0 0 0 0 0 0 0 0 0 0 0 0 0 0 0 0 0 0 0 0 0 0 0 0 0 0 0 0 0 0 0 0 0 0 0 0 0 0 0 0 0 0 0 0 0 0 0 0 0 0 0 0 0 0 0 0 0 0 0 0 0 0 0 0 0 0 0 0 0 0 0 0 0 0 0 0 0 0 0 0 0 0 0 0 0 0 0 0 0 0 0 0 0 0 0 0 0 0 0 0 0 0 0 0 0 0 0 0 0 0 0 0 0 0 0 0 0 0 0 0 0 0 0 0 0 0 0 0 0 0 0 0 0 0 0 0 0 0 0 0 0 0 0 0 0 0 0 0 0 0 0 0 0 0 0 0 0 0 0 0 0 0 0 0 0 0 0 0 0 0 0 0 0 0 0 0 0 0 0 0 0 0 0 0 0 0 0 0 0 0 0 0 0 0 0 0 0 0 0 0 0 0 0 0 0 0 0 0 0 0 0 0 0 0 0 0 0 0 0 0 0 0 0 0 0 0 0 0 0 0 0 0 0 0 0 0 0 0 0 0 0 0 0 0 0 0 0 0 0 0 0 0 0 0 0 0 0 0 0 0 0 0 0 0 0 0 0 0 0 0 0 0 0 0 0 0 0 0 0 0 0 0 0 0 0 0 0 0 0 0 0 0 0 0 
0 0 0 0 0 0 0 0 0 0 0 0 0 0 0 0 0 0 0 0 0 0 0 0 0 0 0 0 0 0 0 0 0 0 0 0 0 0 0 0 0 0 0 0 0 0 0 0 0 0 0 0 0 0 0 0 0 0 0 0 0 0 0 0 0 0 0 0 0 0 0 0 0 0 0 0 0 0 0 0 0 0 0 0 0 0 0 0 0 0 0 0 0 0 0 0 0 0 0 0 0 0 0 0 0 0 0 0 0 0 0 0 0 0 0 0 0 0 0 0 0 0 0 0 0 0 0 0 0 0 0 0 0 0 0 0 0 0 0 0 0 0 0 0 0 0 0 0 0 0 0 0 0 0 0 0 0 0 0 0 0 0 0 0 0 0 0 0 0 0 0 0 0 0 0 0 0 0 0 0 0 0 0 0 0 0 0 0 0 0 0 0 0 0 0 0 0 0 0 0 0 0 0 0 0 0 0 0 0 0 0 0 0 0 0 0 0 0 0 0 0 0 0 0 0 0 0 0 0 0 0 0 0 0 0 0 0 0 0 0 0 0 0 0 0 0 0 0 0 0 0 0 0 0 0 0 0 0 0 0 0 0 0 0 0 0 0 0 0 0 0 0 0 0 0 0 0 0 0 0 0 0 0 0 0 0 0 0 0 0 0 0 0 0 0 0 0 0 0 0 0 0 0 0 0 0 0 0 0 0 0 0 0 0 0 0 0 0 0 0 0 0 0 0 0 0 0 0 0 0 0 0 0 0 0 0 0 0 0 0 0 0 0 0 0 0 0 0 0 0 0 0 0 0 0 0 0 0 0 0 0 0 0 0 0 0 0 0 0 0 0 0 0 0 0 0 0 0 0 0 0 0 0 0 0 0 0 0 0 0 0 0 0 0 0 0 0 0 0 0 0 0 0 0 0 0 0 0 0 0 0 0 0 0 0 0 0 0 0 0 0 0 0 0 0 0 0 0 0 0 0 0 0 0 0 0 0 0 0 0 0 0 0 0 0 0 0 0 0 0 0 0 0 0 0 0 0 0 0 0 0 0 0 0 0 0 0 0 0 0 0 0 0 0 0 0 0 0 0 0 0 0 0 0 0 0 0 0 0 0 0 0 0 0 0 0 0 0 0 0 0 0 0 0 0 0 0 0 0 0 0 0 0 0 0 0 0 0 0 0 0 0 0 0 0 0 0 0 0 0 0 0 0 0 0 0 0 0 0 0 0 0 0 0 0 0 0 0 0 0 0 0 0 0 0 0 0 0 0 0 0 0 0 0 0 0 0 0 0 0 0 0 0 0 0 0 0 0 0 0 0 0 0 0 0 0 0 0 0 0 0 0 0 0 0 0 0 0 0 0 
0 0 0 0 0 0 0 0 0 0 0 0 0 0 0 0 0 0 0 0 0 0 0 0 0 0 0 0 0 0 0 0 0 0 0 0 0 0 0 0 0 0 0 0 0 0 0 0 0 0 0 0 0 0 0 0 0 0 0 0 0 0 0 0 0 0 0 0 0 0 0 0 0 0 0 0 0 0 0 0 0 0 0 0 0 0 0 0 0 0 0 0 0 0 0 0 0 0 0 0 0 0 0 0 0 0 0 0 0 0 0 0 0 0 0 0 0 0 0 0 0 0 0 0 0 0 0 0 0 0 0 0 0 0 0 0 0 0 0 0 0 0 0 0 0 0 0 0 0 0 0 0 0 0 0 0 0 0 0 0 0 0 0 0 0 0 0 0 0 0 0 0 0 0 0 0 0 0 0 0 0 0 0 0 0 0 0 0 0 0 0 0 0 0 0 0 0 0 0 0 0 0 0 0 0 0 0 0 0 0 0 0 0 0 0 0 0 0 0 0 0 0 0 0 0 0 0 0 0 0 0 0 0 0 0 0 0 0 0 0 0 0 0 0 0 0 0 0 0 0 0 0 0 0 0 0 0 0 0 0 0 0 0 0 0 0 0 0 0 0 0 0 0 0 0 0 0 0 0 0 0 0 0 0 0 0 0 0 0 0 0 0 0 0 0 0 0 0 0 0 0 0 0 0 0 0 0 0 0 0 0 0 0 0 0 0 0 0 0 0 0 0 0 0 0 0 0 0 0 0 0 0 0 0 0 0 0 0 0 0 0 0 0 0 0 0 0 0 0 0 0 0 0 0 0 0 0 0 0 0 0 0 0 0 0 0 0 0 0 0 0 0 0 0 0 0 0 0 0 0 0 0 0 0 0 0 0 0 0 0 0 0 0 0 0 0 0 0 0 0 0 0 0 0 0 0 0 0 0 0 0 0 0 0 0 0 0 0 0 0 0 0 0 0 0 0 0 0 0 0 0 0 0 0 0 0 0 0 0 0 0 0 0 0 0 0 0 0 0 0 0 0 0 0 0 0 0 0 0 0 0 0 0 0 0 0 0 0 0 0 0 0 0 0 0 0 0 0 0 0 0 0 0 0 0 0 0 0 0 0 0 0 0 0 0 0 0 0 0 0 0 0 0 0 0 0 0 0 0 0 0 0 0 0 0 0 0 0 0 0 0 0 0 0 0 0 0 0 0 0 0 0 0 0 0 0 0 0 0 0 0 0 0 0 0 0 0 0 0 0 0 0 0 0 0 0 0 0 0 0 0 0 0 0 0 0 0 0 0 0 0 0 0 0 0 0 0 0 0 0 0 0 0 0 0 0 0 0 0 0 0 0 0 0 0 0 0 0 0 0 
0 0 0 0 0 0 0 0 0 0 0 0 0 0 0 0 0 0 0 0 0 0 0 0 0 0 0 0 0 0 0 0 0 0 0 0 0 0 0 0 0 0 0 0 0 0 0 0 0 0 0 0 0 0 0 0 0 0 0 0 0 0 0 0 0 0 0 0 0 0 0 0 0 0 0 0 0 0 0 0 0 0 0 0 0 0 0 0 0 0 0 0 0 0 0 0 0 0 0 0 0 0 0 0 0 0 0 0 0 0 0 0 0 0 0 0 0 0 0 0 0 0 0 0 0 0 0 0 0 0 0 0 0 0 0 0 0 0 0 0 0 0 0 0 0 0 0 0 0 0 0 0 0 0 0 0 0 0 0 0 0 0 0 0 0 0 0 0 0 0 0 0 0 0 0 0 0 0 0 0 0 0 0 0 0 0 0 0 0 0 0 0 0 0 0 0 0 0 0 0 0 0 0 0 0 0 0 0 0 0 0 0 0 0 0 0 0 0 0 0 0 0 0 0 0 0 0 0 0 0 0 0 0 0 0 0 0 0 0 0 0 0 0 0 0 0 0 0 0 0 0 0 0 0 0 0 0 0 0 0 0 0 0 0 0 0 0 0 0 0 0 0 0 0 0 0 0 0 0 0 0 0 0 0 0 0 0 0 0 0 0 0 0 0 0 0 0 0 0 0 0 0 0 0 0 0 0 0 0 0 0 0 0 0 0 0 0 0 0 0 0 0 0 0 0 0 0 0 0 0 0 0 0 0 0 0 0 0 0 0 0 0 0 0 0 0 0 0 0 0 0 0 0 0 0 0 0 0 0 0 0 0 0 0 0 0 0 0 0 0 0 0 0 0 0 0 0 0 0 0 0 0 0 0 0 0 0 0 0 0 0 0 0 0 0 0 0 0 0 0 0 0 0 0 0 0 0 0 0 0 0 0 0 0 0 0 0 0 0 0 0 0 0 0 0 0 0 0 0 0 0 0 0 0 0 0 0 0 0 0 0 0 0 0 0 0 0 0 0 0 0 0 0 0 0 0 0 0 0 0 0 0 0 0 0 0 0 0 0 0 0 0 0 0 0 0 0 0 0 0 0 0 0 0 0 0 0 0 0 0 0 0 0 0 0 0 0 0 0 0 0 0 0 0 0 0 0 0 0 0 0 0 0 0 0 0 0 0 0 0 0 0 0 0 0 0 0 0 0 0 0 0 0 0 0 0 0 0 0 0 0 0 0 0 0 0 0 0 0 0 0 0 0 0 0 0 0 0 0 0 0 0 0 0 0 0 0 0 0 0 0 0 0 0 0 0 0 0 0 0 0 0 0 0 0 0 0 0 0 0 0 0 0 0 0 0 0 0 0 0 
0 0 0 0 0 0 0 0 0 0 0 0 0 0 0 0 0 0 0 0 0 0 0 0 0 0 0 0 0 0 0 0 0 0 0 0 0 0 0 0 0 0 0 0 0 0 0 0 0 0 0 0 0 0 0 0 0 0 0 0 0 0 0 0 0 0 0 0 0 0 0 0 0 0 0 0 0 0 0 0 0 0 0 0 0 0 0 0 0 0 0 0 0 0 0 0 0 0 0 0 0 0 0 0 0 0 0 0 0 0 0 0 0 0 0 0 0 0 0 0 0 0 0 0 0 0 0 0 0 0 0 0 0 0 0 0 0 0 0 0 0 0 0 0 0 0 0 0 0 0 0 0 0 0 0 0 0 0 0 0 0 0 0 0 0 0 0 0 0 0 0 0 0 0 0 0 0 0 0 0 0 0 0 0 0 0 0 0 0 0 0 0 0 0 0 0 0 0 0 0 0 0 0 0 0 0 0 0 0 0 0 0 0 0 0 0 0 0 0 0 0 0 0 0 0 0 0 0 0 0 0 0 0 0 0 0 0 0 0 0 0 0 0 0 0 0 0 0 0 0 0 0 0 0 0 0 0 0 0 0 0 0 0 0 0 0 0 0 0 0 0 0 0 0 0 0 0 0 0 0 0 0 0 0 0 0 0 0 0 0 0 0 0 0 0 0 0 0 0 0 0 0 0 0 0 0 0 0 0 0 0 0 0 0 0 0 0 0 0 0 0 0 0 0 0 0 0 0 0 0 0 0 0 0 0 0 0 0 0 0 0 0 0 0 0 0 0 0 0 0 0 0 0 0 0 0 0 0 0 0 0 0 0 0 0 0 0 0 0 0 0 0 0 0 0 0 0 0 0 0 0 0 0 0 0 0 0 0 0 0 0 0 0 0 0 0 0 0 0 0 0 0 0 0 0 0 0 0 0 0 0 0 0 0 0 0 0 0 0 0 0 0 0 0 0 0 0 0 0 0 0 0 0 0 0 0 0 0 0 0 0 0 0 0 0 0 0 0 0 0 0 0 0 0 0 0 0 0 0 0 0 0 0 0 0 0 0 0 0 0 0 0 0 0 0 0 0 0 0 0 0 0 0 0 0 0 0 0 0 0 0 0 0 0 0 0 0 0 0 0 0 0 0 0 0 0 0 0 0 0 0 0 0 0 0 0 0 0 0 0 0 0 0 0 0 0 0 0 0 0 0 0 0 0 0 0 0 0 0 0 0 0 0 0 0 0 0 0 0 0 0 0 0 0 0 0 0 0 0 0 0 0 0 0 0 0 0 0 0 0 0 0 0 0 0 0 0 0 0 0 0 0 0 0 0 0 0 0 0 0 0 0 0 0 0 0 0 0 0 0 
0 0 0 0 0 0 0 0 0 0 0 0 0 0 0 0 0 0 0 0 0 0 0 0 0 0 0 0 0 0 0 0 0 0 0 0 0 0 0 0 0 0 0 0 0 0 0 0 0 0 0 0 0 0 0 0 0 0 0 0 0 0 0 0 0 0 0 0 0 0 0 0 0 0 0 0 0 0 0 0 0 0 0 0 0 0 0 0 0 0 0 0 0 0 0 0 0 0 0 0 0 0 0 0 0 0 0 0 0 0 0 0 0 0 0 0 0 0 0 0 0 0 0 0 0 0 0 0 0 0 0 0 0 0 0 0 0 0 0 0 0 0 0 0 0 0 0 0 0 0 0 0 0 0 0 0 0 0 0 0 0 0 0 0 0 0 0 0 0 0 0 0 0 0 0 0 0 0 0 0 0 0 0 0 0 0 0 0 0 0 0 0 0 0 0 0 0 0 0 0 0 0 0 0 0 0 0 0 0 0 0 0 0 0 0 0 0 0 0 0 0 0 0 0 0 0 0 0 0 0 0 0 0 0 0 0 0 0 0 0 0 0 0 0 0 0 0 0 0 0 0 0 0 0 0 0 0 0 0 0 0 0 0 0 0 0 0 0 0 0 0 0 0 0 0 0 0 0 0 0 0 0 0 0 0 0 0 0 0 0 0 0 0 0 0 0 0 0 0 0 0 0 0 0 0 0 0 0 0 0 0 0 0 0 0 0 0 0 0 0 0 0 0 0 0 0 0 0 0 0 0 0 0 0 0 0 0 0 0 0 0 0 0 0 0 0 0 0 0 0 0 0 0 0 0 0 0 0 0 0 0 0 0 0 0 0 0 0 0 0 0 0 0 0 0 0 0 0 0 0 0 0 0 0 0 0 0 0 0 0 0 0 0 0 0 0 0 0 0 0 0 0 0 0 0 0 0 0 0 0 0 0 0 0 0 0 0 0 0 0 0 0 0 0 0 0 0 0 0 0 0 0 0 0 0 0 0 0 0 0 0 0 0 0 0 0 0 0 0 0 0 0 0 0 0 0 0 0 0 0 0 0 0 0 0 0 0 0 0 0 0 0 0 0 0 0 0 0 0 0 0 0 0 0 0 0 0 0 0 0 0 0 0 0 0 0 0 0 0 0 0 0 0 0 0 0 0 0 0 0 0 0 0 0 0 0 0 0 0 0 0 0 0 0 0 0 0 0 0 0 0 0 0 0 0 0 0 0 0 0 0 0 0 0 0 0 0 0 0 0 0 0 0 0 0 0 0 0 0 0 0 0 0 0 0 0 0 0 0 0 0 0 0 0 0 0 0 0 0 0 0 0 0 0 0 0 0 0 0 0 0 0 0 0 0 0 0 0 0 0 
0 0 0 0 0 0 0 0 0 0 0 0 0 0 0 0 0 0 0 0 0 0 0 0 0 0 0 0 0 0 0 0 0 0 0 0 0 0 0 0 0 0 0 0 0 0 0 0 0 0 0 0 0 0 0 0 0 0 0 0 0 0 0 0 0 0 0 0 0 0 0 0 0 0 0 0 0 0 0 0 0 0 0 0 0 0 0 0 0 0 0 0 0 0 0 0 0 0 0 0 0 0 0 0 0 0 0 0 0 0 0 0 0 0 0 0 0 0 0 0 0 0 0 0 0 0 0 0 0 0 0 0 0 0 0 0 0 0 0 0 0 0 0 0 0 0 0 0 0 0 0 0 0 0 0 0 0 0 0 0 0 0 0 0 0 0 0 0 0 0 0 0 0 0 0 0 0 0 0 0 0 0 0 0 0 0 0 0 0 0 0 0 0 0 0 0 0 0 0 0 0 0 0 0 0 0 0 0 0 0 0 0 0 0 0 0 0 0 0 0 0 0 0 0 0 0 0 0 0 0 0 0 0 0 0 0 0 0 0 0 0 0 0 0 0 0 0 0 0 0 0 0 0 0 0 0 0 0 0 0 0 0 0 0 0 0 0 0 0 0 0 0 0 0 0 0 0 0 0 0 0 0 0 0 0 0 0 0 0 0 0 0 0 0 0 0 0 0 0 0 0 0 0 0 0 0 0 0 0 0 0 0 0 0 0 0 0 0 0 0 0 0 0 0 0 0 0 0 0 0 0 0 0 0 0 0 0 0 0 0 0 0 0 0 0 0 0 0 0 0 0 0 0 0 0 0 0 0 0 0 0 0 0 0 0 0 0 0 0 0 0 0 0 0 0 0 0 0 0 0 0 0 0 0 0 0 0 0 0 0 0 0 0 0 0 0 0 0 0 0 0 0 0 0 0 0 0 0 0 0 0 0 0 0 0 0 0 0 0 0 0 0 0 0 0 0 0 0 0 0 0 0 0 0 0 0 0 0 0 0 0 0 0 0 0 0 0 0 0 0 0 0 0 0 0 0 0 0 0 0 0 0 0 0 0 0 0 0 0 0 0 0 0 0 0 0 0 0 0 0 0 0 0 0 0 0 0 0 0 0 0 0 0 0 0 0 0 0 0 0 0 0 0 0 0 0 0 0 0 0 0 0 0 0 0 0 0 0 0 0 0 0 0 0 0 0 0 0 0 0 0 0 0 0 0 0 0 0 0 0 0 0 0 0 0 0 0 0 0 0 0 0 0 0 0 0 0 0 0 0 0 0 0 0 0 0 0 0 0 0 0 0 0 0 0 0 0 0 0 0 0 0 0 0 0 0 0 0 0 0 0 0 0 0 0 0 0 0 0 0 
0 0 0 0 0 0 0 0 0 0 0 0 0 0 0 0 0 0 0 0 0 0 0 0 0 0 0 0 0 0 0 0 0 0 0 0 0 0 0 0 0 0 0 0 0 0 0 0 0 0 0 0 0 0 0 0 0 0 0 0 0 0 0 0 0 0 0 0 0 0 0 0 0 0 0 0 0 0 0 0 0 0 0 0 0 0 0 0 0 0 0 0 0 0 0 0 0 0 0 0 0 0 0 0 0 0 0 0 0 0 0 0 0 0 0 0 0 0 0 0 0 0 0 0 0 0 0 0 0 0 0 0 0 0 0 0 0 0 0 0 0 0 0 0 0 0 0 0 0 0 0 0 0 0 0 0 0 0 0 0 0 0 0 0 0 0 0 0 0 0 0 0 0 0 0 0 0 0 0 0 0 0 0 0 0 0 0 0 0 0 0 0 0 0 0 0 0 0 0 0 0 0 0 0 0 0 0 0 0 0 0 0 0 0 0 0 0 0 0 0 0 0 0 0 0 0 0 0 0 0 0 0 0 0 0 0 0 0 0 0 0 0 0 0 0 0 0 0 0 0 0 0 0 0 0 0 0 0 0 0 0 0 0 0 0 0 0 0 0 0 0 0 0 0 0 0 0 0 0 0 0 0 0 0 0 0 0 0 0 0 0 0 0 0 0 0 0 0 0 0 0 0 0 0 0 0 0 0 0 0 0 0 0 0 0 0 0 0 0 0 0 0 0 0 0 0 0 0 0 0 0 0 0 0 0 0 0 0 0 0 0 0 0 0 0 0 0 0 0 0 0 0 0 0 0 0 0 0 0 0 0 0 0 0 0 0 0 0 0 0 0 0 0 0 0 0 0 0 0 0 0 0 0 0 0 0 0 0 0 0 0 0 0 0 0 0 0 0 0 0 0 0 0 0 0 0 0 0 0 0 0 0 0 0 0 0 0 0 0 0 0 0 0 0 0 0 0 0 0 0 0 0 0 0 0 0 0 0 0 0 0 0 0 0 0 0 0 0 0 0 0 0 0 0 0 0 0 0 0 0 0 0 0 0 0 0 0 0 0 0 0 0 0 0 0 0 0 0 0 0 0 0 0 0 0 0 0 0 0 0 0 0 0 0 0 0 0 0 0 0 0 0 0 0 0 0 0 0 0 0 0 0 0 0 0 0 0 0 0 0 0 0 0 0 0 0 0 0 0 0 0 0 0 0 0 0 0 0 0 0 0 0 0 0 0 0 0 0 0 0 0 0 0 0 0 0 0 0 0 0 0 0 0 0 0 0 0 0 0 0 0 0 0 0 0 0 0 0 0 0 0 0 0 0 0 0 0 0 0 0 0 0 0 0 0 0 0 0 0 0 
0 0 0 0 0 0 0 0 0 0 0 0 0 0 0 0 0 0 0 0 0 0 0 0 0 0 0 0 0 0 0 0 0 0 0 0 0 0 0 0 0 0 0 0 0 0 0 0 0 0 0 0 0 0 0 0 0 0 0 0 0 0 0 0 0 0 0 0 0 0 0 0 0 0 0 0 0 0 0 0 0 0 0 0 0 0 0 0 0 0 0 0 0 0 0 0 0 0 0 0 0 0 0 0 0 0 0 0 0 0 0 0 0 0 0 0 0 0 0 0 0 0 0 0 0 0 0 0 0 0 0 0 0 0 0 0 0 0 0 0 0 0 0 0 0 0 0 0 0 0 0 0 0 0 0 0 0 0 0 0 0 0 0 0 0 0 0 0 0 0 0 0 0 0 0 0 0 0 0 0 0 0 0 0 0 0 0 0 0 0 0 0 0 0 0 0 0 0 0 0 0 0 0 0 0 0 0 0 0 0 0 0 0 0 0 0 0 0 0 0 0 0 0 0 0 0 0 0 0 0 0 0 0 0 0 0 0 0 0 0 0 0 0 0 0 0 0 0 0 0 0 0 0 0 0 0 0 0 0 0 0 0 0 0 0 0 0 0 0 0 0 0 0 0 0 0 0 0 0 0 0 0 0 0 0 0 0 0 0 0 0 0 0 0 0 0 0 0 0 0 0 0 0 0 0 0 0 0 0 0 0 0 0 0 0 0 0 0 0 0 0 0 0 0 0 0 0 0 0 0 0 0 0 0 0 0 0 0 0 0 0 0 0 0 0 0 0 0 0 0 0 0 0 0 0 0 0 0 0 0 0 0 0 0 0 0 0 0 0 0 0 0 0 0 0 0 0 0 0 0 0 0 0 0 0 0 0 0 0 0 0 0 0 0 0 0 0 0 0 0 0 0 0 0 0 0 0 0 0 0 0 0 0 0 0 0 0 0 0 0 0 0 0 0 0 0 0 0 0 0 0 0 0 0 0 0 0 0 0 0 0 0 0 0 0 0 0 0 0 0 0 0 0 0 0 0 0 0 0 0 0 0 0 0 0 0 0 0 0 0 0 0 0 0 0 0 0 0 0 0 0 0 0 0 0 0 0 0 0 0 0 0 0 0 0 0 0 0 0 0 0 0 0 0 0 0 0 0 0 0 0 0 0 0 0 0 0 0 0 0 0 0 0 0 0 0 0 0 0 0 0 0 0 0 0 0 0 0 0 0 0 0 0 0 0 0 0 0 0 0 0 0 0 0 0 0 0 0 0 0 0 0 0 0 0 0 0 0 0 0 0 0 0 0 0 0 0 0 0 0 0 0 0 0 0 0 0 0 0 0 0 0 0 0 0 0 0 0 0 0 
0 0 0 0 0 0 0 0 0 0 0 0 0 0 0 0 0 0 0 0 0 0 0 0 0 0 0 0 0 0 0 0 0 0 0 0 0 0 0 0 0 0 0 0 0 0 0 0 0 0 0 0 0 0 0 0 0 0 0 0 0 0 0 0 0 0 0 0 0 0 0 0 0 0 0 0 0 0 0 0 0 0 0 0 0 0 0 0 0 0 0 0 0 0 0 0 0 0 0 0 0 0 0 0 0 0 0 0 0 0 0 0 0 0 0 0 0 0 0 0 0 0 0 0 0 0 0 0 0 0 0 0 0 0 0 0 0 0 0 0 0 0 0 0 0 0 0 0 0 0 0 0 0 0 0 0 0 0 0 0 0 0 0 0 0 0 0 0 0 0 0 0 0 0 0 0 0 0 0 0 0 0 0 0 0 0 0 0 0 0 0 0 0 0 0 0 0 0 0 0 0 0 0 0 0 0 0 0 0 0 0 0 0 0 0 0 0 0 0 0 0 0 0 0 0 0 0 0 0 0 0 0 0 0 0 0 0 0 0 0 0 0 0 0 0 0 0 0 0 0 0 0 0 0 0 0 0 0 0 0 0 0 0 0 0 0 0 0 0 0 0 0 0 0 0 0 0 0 0 0 0 0 0 0 0 0 0 0 0 0 0 0 0 0 0 0 0 0 0 0 0 0 0 0 0 0 0 0 0 0 0 0 0 0 0 0 0 0 0 0 0 0 0 0 0 0 0 0 0 0 0 0 0 0 0 0 0 0 0 0 0 0 0 0 0 0 0 0 0 0 0 0 0 0 0 0 0 0 0 0 0 0 0 0 0 0 0 0 0 0 0 0 0 0 0 0 0 0 0 0 0 0 0 0 0 0 0 0 0 0 0 0 0 0 0 0 0 0 0 0 0 0 0 0 0 0 0 0 0 0 0 0 0 0 0 0 0 0 0 0 0 0 0 0 0 0 0 0 0 0 0 0 0 0 0 0 0 0 0 0 0 0 0 0 0 0 0 0 0 0 0 0 0 0 0 0 0 0 0 0 0 0 0 0 0 0 0 0 0 0 0 0 0 0 0 0 0 0 0 0 0 0 0 0 0 0 0 0 0 0 0 0 0 0 0 0 0 0 0 0 0 0 0 0 0 0 0 0 0 0 0 0 0 0 0 0 0 0 0 0 0 0 0 0 0 0 0 0 0 0 0 0 0 0 0 0 0 0 0 0 0 0 0 0 0 0 0 0 0 0 0 0 0 0 0 0 0 0 0 0 0 0 0 0 0 0 0 0 0 0 0 0 0 0 0 0 0 0 0 0 0 0 0 0 0 0 0 0 0 0 0 0 0 0 0 0 0 0 0 0 
0 0 0 0 0 0 0 0 0 0 0 0 0 0 0 0 0 0 0 0 0 0 0 0 0 0 0 0 0 0 0 0 0 0 0 0 0 0 0 0 0 0 0 0 0 0 0 0 0 0 0 0 0 0 0 0 0 0 0 0 0 0 0 0 0 0 0 0 0 0 0 0 0 0 0 0 0 0 0 0 0 0 0 0 0 0 0 0 0 0 0 0 0 0 0 0 0 0 0 0 0 0 0 0 0 0 0 0 0 0 0 0 0 0 0 0 0 0 0 0 0 0 0 0 0 0 0 0 0 0 0 0 0 0 0 0 0 0 0 0 0 0 0 0 0 0 0 0 0 0 0 0 0 0 0 0 0 0 0 0 0 0 0 0 0 0 0 0 0 0 0 0 0 0 0 0 0 0 0 0 0 0 0 0 0 0 0 0 0 0 0 0 0 0 0 0 0 0 0 0 0 0 0 0 0 0 0 0 0 0 0 0 0 0 0 0 0 0 0 0 0 0 0 0 0 0 0 0 0 0 0 0 0 0 0 0 0 0 0 0 0 0 0 0 0 0 0 0 0 0 0 0 0 0 0 0 0 0 0 0 0 0 0 0 0 0 0 0 0 0 0 0 0 0 0 0 0 0 0 0 0 0 0 0 0 0 0 0 0 0 0 0 0 0 0 0 0 0 0 0 0 0 0 0 0 0 0 0 0 0 0 0 0 0 0 0 0 0 0 0 0 0 0 0 0 0 0 0 0 0 0 0 0 0 0 0 0 0 0 0 0 0 0 0 0 0 0 0 0 0 0 0 0 0 0 0 0 0 0 0 0 0 0 0 0 0 0 0 0 0 0 0 0 0 0 0 0 0 0 0 0 0 0 0 0 0 0 0 0 0 0 0 0 0 0 0 0 0 0 0 0 0 0 0 0 0 0 0 0 0 0 0 0 0 0 0 0 0 0 0 0 0 0 0 0 0 0 0 0 0 0 0 0 0 0 0 0 0 0 0 0 0 0 0 0 0 0 0 0 0 0 0 0 0 0 0 0 0 0 0 0 0 0 0 0 0 0 0 0 0 0 0 0 0 0 0 0 0 0 0 0 0 0 0 0 0 0 0 0 0 0 0 0 0 0 0 0 0 0 0 0 0 0 0 0 0 0 0 0 0 0 0 0 0 0 0 0 0 0 0 0 0 0 0 0 0 0 0 0 0 0 0 0 0 0 0 0 0 0 0 0 0 0 0 0 0 0 0 0 0 0 0 0 0 0 0 0 0 0 0 0 0 0 0 0 0 0 0 0 0 0 0 0 0 0 0 0 0 0 0 0 0 0 0 0 0 0 0 0 0 0 0 0 0 0 0 0 0 0 0 
0 0 0 0 0 0 0 0 0 0 0 0 0 0 0 0 0 0 0 0 0 0 0 0 0 0 0 0 0 0 0 0 0 0 0 0 0 0 0 0 0 0 0 0 0 0 0 0 0 0 0 0 0 0 0 0 0 0 0 0 0 0 0 0 0 0 0 0 0 0 0 0 0 0 0 0 0 0 0 0 0 0 0 0 0 0 0 0 0 0 0 0 0 0 0 0 0 0 0 0 0 0 0 0 0 0 0 0 0 0 0 0 0 0 0 0 0 0 0 0 0 0 0 0 0 0 0 0 0 0 0 0 0 0 0 0 0 0 0 0 0 0 0 0 0 0 0 0 0 0 0 0 0 0 0 0 0 0 0 0 0 0 0 0 0 0 0 0 0 0 0 0 0 0 0 0 0 0 0 0 0 0 0 0 0 0 0 0 0 0 0 0 0 0 0 0 0 0 0 0 0 0 0 0 0 0 0 0 0 0 0 0 0 0 0 0 0 0 0 0 0 0 0 0 0 0 0 0 0 0 0 0 0 0 0 0 0 0 0 0 0 0 0 0 0 0 0 0 0 0 0 0 0 0 0 0 0 0 0 0 0 0 0 0 0 0 0 0 0 0 0 0 0 0 0 0 0 0 0 0 0 0 0 0 0 0 0 0 0 0 0 0 0 0 0 0 0 0 0 0 0 0 0 0 0 0 0 0 0 0 0 0 0 0 0 0 0 0 0 0 0 0 0 0 0 0 0 0 0 0 0 0 0 0 0 0 0 0 0 0 0 0 0 0 0 0 0 0 0 0 0 0 0 0 0 0 0 0 0 0 0 0 0 0 0 0 0 0 0 0 0 0 0 0 0 0 0 0 0 0 0 0 0 0 0 0 0 0 0 0 0 0 0 0 0 0 0 0 0 0 0 0 0 0 0 0 0 0 0 0 0 0 0 0 0 0 0 0 0 0 0 0 0 0 0 0 0 0 0 0 0 0 0 0 0 0 0 0 0 0 0 0 0 0 0 0 0 0 0 0 0 0 0 0 0 0 0 0 0 0 0 0 0 0 0 0 0 0 0 0 0 0 0 0 0 0 0 0 0 0 0 0 0 0 0 0 0 0 0 0 0 0 0 0 0 0 0 0 0 0 0 0 0 0 0 0 0 0 0 0 0 0 0 0 0 0 0 0 0 0 0 0 0 0 0 0 0 0 0 0 0 0 0 0 0 0 0 0 0 0 0 0 0 0 0 0 0 0 0 0 0 0 0 0 0 0 0 0 0 0 0 0 0 0 0 0 0 0 0 0 0 0 0 0 0 0 0 0 0 0 0 0 0 0 0 0 0 0 0 0 0 0 0 0 0 0 0 0 0 0 
0 0 0 0 0 0 0 0 0 0 0 0 0 0 0 0 0 0 0 0 0 0 0 0 0 0 0 0 0 0 0 0 0 0 0 0 0 0 0 0 0 0 0 0 0 0 0 0 0 0 0 0 0 0 0 0 0 0 0 0 0 0 0 0 0 0 0 0 0 0 0 0 0 0 0 0 0 0 0 0 0 0 0 0 0 0 0 0 0 0 0 0 0 0 0 0 0 0 0 0 0 0 0 0 0 0 0 0 0 0 0 0 0 0 0 0 0 0 0 0 0 0 0 0 0 0 0 0 0 0 0 0 0 0 0 0 0 0 0 0 0 0 0 0 0 0 0 0 0 0 0 0 0 0 0 0 0 0 0 0 0 0 0 0 0 0 0 0 0 0 0 0 0 0 0 0 0 0 0 0 0 0 0 0 0 0 0 0 0 0 0 0 0 0 0 0 0 0 0 0 0 0 0 0 0 0 0 0 0 0 0 0 0 0 0 0 0 0 0 0 0 0 0 0 0 0 0 0 0 0 0 0 0 0 0 0 0 0 0 0 0 0 0 0 0 0 0 0 0 0 0 0 0 0 0 0 0 0 0 0 0 0 0 0 0 0 0 0 0 0 0 0 0 0 0 0 0 0 0 0 0 0 0 0 0 0 0 0 0 0 0 0 0 0 0 0 0 0 0 0 0 0 0 0 0 0 0 0 0 0 0 0 0 0 0 0 0 0 0 0 0 0 0 0 0 0 0 0 0 0 0 0 0 0 0 0 0 0 0 0 0 0 0 0 0 0 0 0 0 0 0 0 0 0 0 0 0 0 0 0 0 0 0 0 0 0 0 0 0 0 0 0 0 0 0 0 0 0 0 0 0 0 0 0 0 0 0 0 0 0 0 0 0 0 0 0 0 0 0 0 0 0 0 0 0 0 0 0 0 0 0 0 0 0 0 0 0 0 0 0 0 0 0 0 0 0 0 0 0 0 0 0 0 0 0 0 0 0 0 0 0 0 0 0 0 0 0 0 0 0 0 0 0 0 0 0 0 0 0 0 0 0 0 0 0 0 0 0 0 0 0 0 0 0 0 0 0 0 0 0 0 0 0 0 0 0 0 0 0 0 0 0 0 0 0 0 0 0 0 0 0 0 0 0 0 0 0 0 0 0 0 0 0 0 0 0 0 0 0 0 0 0 0 0 0 0 0 0 0 0 0 0 0 0 0 0 0 0 0 0 0 0 0 0 0 0 0 0 0 0 0 0 0 0 0 0 0 0 0 0 0 0 0 0 0 0 0 0 0 0 0 0 0 0 0 0 0 0 0 0 0 0 0 0 0 0 0 0 0 0 0 0 0 0 0 0 0 0 0 0 
0 0 0 0 0 0 0 0 0 0 0 0 0 0 0 0 0 0 0 0 0 0 0 0 0 0 0 0 0 0 0 0 0 0 0 0 0 0 0 0 0 0 0 0 0 0 0 0 0 0 0 0 0 0 0 0 0 0 0 0 0 0 0 0 0 0 0 0 0 0 0 0 0 0 0 0 0 0 0 0 0 0 0 0 0 0 0 0 0 0 0 0 0 0 0 0 0 0 0 0 0 0 0 0 0 0 0 0 0 0 0 0 0 0 0 0 0 0 0 0 0 0 0 0 0 0 0 0 0 0 0 0 0 0 0 0 0 0 0 0 0 0 0 0 0 0 0 0 0 0 0 0 0 0 0 0 0 0 0 0 0 0 0 0 0 0 0 0 0 0 0 0 0 0 0 0 0 0 0 0 0 0 0 0 0 0 0 0 0 0 0 0 0 0 0 0 0 0 0 0 0 0 0 0 0 0 0 0 0 0 0 0 0 0 0 0 0 0 0 0 0 0 0 0 0 0 0 0 0 0 0 0 0 0 0 0 0 0 0 0 0 0 0 0 0 0 0 0 0 0 0 0 0 0 0 0 0 0 0 0 0 0 0 0 0 0 0 0 0 0 0 0 0 0 0 0 0 0 0 0 0 0 0 0 0 0 0 0 0 0 0 0 0 0 0 0 0 0 0 0 0 0 0 0 0 0 0 0 0 0 0 0 0 0 0 0 0 0 0 0 0 0 0 0 0 0 0 0 0 0 0 0 0 0 0 0 0 0 0 0 0 0 0 0 0 0 0 0 0 0 0 0 0 0 0 0 0 0 0 0 0 0 0 0 0 0 0 0 0 0 0 0 0 0 0 0 0 0 0 0 0 0 0 0 0 0 0 0 0 0 0 0 0 0 0 0 0 0 0 0 0 0 0 0 0 0 0 0 0 0 0 0 0 0 0 0 0 0 0 0 0 0 0 0 0 0 0 0 0 0 0 0 0 0 0 0 0 0 0 0 0 0 0 0 0 0 0 0 0 0 0 0 0 0 0 0 0 0 0 0 0 0 0 0 0 0 0 0 0 0 0 0 0 0 0 0 0 0 0 0 0 0 0 0 0 0 0 0 0 0 0 0 0 0 0 0 0 0 0 0 0 0 0 0 0 0 0 0 0 0 0 0 0 0 0 0 0 0 0 0 0 0 0 0 0 0 0 0 0 0 0 0 0 0 0 0 0 0 0 0 0 0 0 0 0 0 0 0 0 0 0 0 0 0 0 0 0 0 0 0 0 0 0 0 0 0 0 0 0 0 0 0 0 0 0 0 0 0 0 0 0 0 0 0 0 0 0 0 0 0 0 0 0 0 0 0 0 0 0 0 
0 0 0 0 0 0 0 0 0 0 0 0 0 0 0 0 0 0 0 0 0 0 0 0 0 0 0 0 0 0 0 0 0 0 0 0 0 0 0 0 0 0 0 0 0 0 0 0 0 0 0 0 0 0 0 0 0 0 0 0 0 0 0 0 0 0 0 0 0 0 0 0 0 0 0 0 0 0 0 0 0 0 0 0 0 0 0 0 0 0 0 0 0 0 0 0 0 0 0 0 0 0 0 0 0 0 0 0 0 0 0 0 0 0 0 0 0 0 0 0 0 0 0 0 0 0 0 0 0 0 0 0 0 0 0 0 0 0 0 0 0 0 0 0 0 0 0 0 0 0 0 0 0 0 0 0 0 0 0 0 0 0 0 0 0 0 0 0 0 0 0 0 0 0 0 0 0 0 0 0 0 0 0 0 0 0 0 0 0 0 0 0 0 0 0 0 0 0 0 0 0 0 0 0 0 0 0 0 0 0 0 0 0 0 0 0 0 0 0 0 0 0 0 0 0 0 0 0 0 0 0 0 0 0 0 0 0 0 0 0 0 0 0 0 0 0 0 0 0 0 0 0 0 0 0 0 0 0 0 0 0 0 0 0 0 0 0 0 0 0 0 0 0 0 0 0 0 0 0 0 0 0 0 0 0 0 0 0 0 0 0 0 0 0 0 0 0 0 0 0 0 0 0 0 0 0 0 0 0 0 0 0 0 0 0 0 0 0 0 0 0 0 0 0 0 0 0 0 0 0 0 0 0 0 0 0 0 0 0 0 0 0 0 0 0 0 0 0 0 0 0 0 0 0 0 0 0 0 0 0 0 0 0 0 0 0 0 0 0 0 0 0 0 0 0 0 0 0 0 0 0 0 0 0 0 0 0 0 0 0 0 0 0 0 0 0 0 0 0 0 0 0 0 0 0 0 0 0 0 0 0 0 0 0 0 0 0 0 0 0 0 0 0 0 0 0 0 0 0 0 0 0 0 0 0 0 0 0 0 0 0 0 0 0 0 0 0 0 0 0 0 0 0 0 0 0 0 0 0 0 0 0 0 0 0 0 0 0 0 0 0 0 0 0 0 0 0 0 0 0 0 0 0 0 0 0 0 0 0 0 0 0 0 0 0 0 0 0 0 0 0 0 0 0 0 0 0 0 0 0 0 0 0 0 0 0 0 0 0 0 0 0 0 0 0 0 0 0 0 0 0 0 0 0 0 0 0 0 0 0 0 0 0 0 0 0 0 0 0 0 0 0 0 0 0 0 0 0 0 0 0 0 0 0 0 0 0 0 0 0 0 0 0 0 0 0 0 0 0 0 0 0 0 0 0 0 0 0 0 0 0 0 0 0 0 0 0 0 0 0 
