P3
100 100
255
114 114 114 114 114 114 115 115 115 116 116 116 116 116 116 117 117 117 118 118 118 118 118 118 119 119 119 120 120 120 120 120 120 121 121 121 122 122 122 122 122 122 123 123 123 124 124 124 124 124 124 125 125 125 126 126 126 126 126 126 127 127 127 128 128 128 128 128 128 129 129 129 129 129 129 130 130 130 131 131 131 131 131 131 132 132 132 132 132 132 133 133 133 142 138 134 142 139 135 184 183 182 188 187 186 193 192 190 197 196 195 255 255 255 255 255 255 255 255 255 255 255 255 142 141 139 142 141 139 142 141 140 142 142 140 143 142 141 154 148 141 154 148 142 155 149 142 155 149 142 156 149 142 156 150 143 156 150 143 157 150 143 157 151 143 157 151 144 157 151 144 255 255 255 255 255 255 255 255 255 255 255 255 255 255 255 152 152 150 149 148 146 144 144 144 144 144 144 144 144 144 144 144 144 144 144 144 144 144 144 143 143 143 143 143 143 143 143 143 143 143 143 143 143 143 143 143 143 142 142 142 142 142 142 142 142 142 141 141 141 141 141 141 141 141 141 140 140 140 140 140 140 140 140 140 139 139 139 139 139 139 138 138 138 138 138 138 137 137 137 137 137 137 136 136 136 136 136 136 135 135 135 135 135 135 134 134 134 134 134 134 133 133 133 133 133 133 132 132 132 
113 113 113 114 114 114 115 115 115 115 115 115 116 116 116 117 117 117 117 117 117 118 118 118 119 119 119 120 120 120 120 120 120 121 121 121 122 122 122 122 122 122 123 123 123 124 124 124 124 124 124 125 125 125 126 126 126 126 126 126 127 127 127 128 128 128 128 128 128 129 129 129 129 129 129 130 130 130 131 131 131 131 131 131 132 132 132 133 133 133 133 133 133 142 138 134 182 181 180 186 186 184 191 190 189 195 194 193 255 255 255 255 255 255 255 255 255 255 255 255 255 255 255 142 141 139 142 141 140 142 142 140 143 142 141 143 142 141 154 148 142 154 149 142 155 149 142 155 149 143 156 150 143 156 150 143 156 150 143 157 151 144 157 151 144 157 151 144 157 151 144 146 146 144 255 255 255 255 255 255 255 255 255 255 255 253 253 252 251 152 151 150 149 148 147 144 144 144 144 144 144 144 144 144 144 144 144 144 144 144 144 144 144 144 144 144 143 143 143 143 143 143 143 143 143 143 143 143 143 143 143 142 142 142 142 142 142 142 142 142 141 141 141 141 141 141 141 141 141 140 140 140 140 140 140 139 139 139 139 139 139 138 138 138 138 138 138 138 138 138 137 137 137 136 136 136 136 136 136 135 135 135 135 135 135 134 134 134 134 134 134 133 133 133 133 133 133 132 132 132 
113 113 113 114 114 114 115 115 115 115 115 115 116 116 116 117 117 117 117 117 117 118 118 118 119 119 119 119 119 119 120 120 120 121 121 121 121 121 121 122 122 122 123 123 123 124 124 124 124 124 124 125 125 125 126 126 126 126 126 126 127 127 127 128 128 128 128 128 128 129 129 129 130 130 130 130 130 130 131 131 131 131 131 131 132 132 132 133 133 133 141 138 134 142 138 134 184 184 182 189 188 187 193 192 191 197 197 195 255 255 255 255 255 255 255 255 255 255 255 255 150 150 148 146 145 143 142 141 140 143 142 140 183 163 142 198 170 142 199 171 143 200 172 143 200 172 144 201 173 144 202 173 144 203 174 144 156 150 144 157 151 144 157 151 144 157 151 144 147 146 144 147 146 145 147 146 145 255 255 254 255 254 253 253 252 251 251 250 248 248 247 246 152 151 150 149 148 147 145 145 145 145 145 145 144 144 144 144 144 144 144 144 144 144 144 144 144 144 144 144 144 144 143 143 143 143 143 143 143 143 143 143 143 143 142 142 142 142 142 142 142 142 142 141 141 141 141 141 141 140 140 140 140 140 140 140 140 140 139 139 139 139 139 139 138 138 138 138 138 138 137 137 137 137 137 137 136 136 136 135 135 135 135 135 135 134 134 134 134 134 134 133 133 133 133 133 133 132 132 132 
113 113 113 114 114 114 114 114 114 115 115 115 116 116 116 116 116 116 117 117 117 118 118 118 119 119 119 119 119 119 120 120 120 121 121 121 121 121 121 122 122 122 123 123 123 123 123 123 124 124 124 125 125 125 126 126 126 126 126 126 127 127 127 128 128 128 128 128 128 129 129 129 130 130 130 130 130 130 131 131 131 132 132 132 132 132 132 133 133 133 141 138 134 165 151 135 171 170 169 174 173 172 177 177 175 181 180 179 255 255 255 255 255 255 255 255 255 255 255 255 149 148 147 145 144 143 181 161 141 140 140 140 141 141 141 141 141 141 142 142 142 142 142 142 142 142 142 143 143 143 200 173 144 201 173 145 202 174 145 203 175 145 157 151 145 157 151 145 147 146 145 147 146 145 147 147 145 147 147 145 252 252 250 251 250 248 248 248 246 246 245 243 243 242 241 152 151 150 149 148 147 145 145 145 145 145 145 145 145 145 145 145 145 144 144 144 144 144 144 144 144 144 144 144 144 143 143 143 143 143 143 143 143 143 142 142 142 142 142 142 142 142 142 141 141 141 141 141 141 141 141 141 140 140 140 140 140 140 139 139 139 139 139 139 138 138 138 138 138 138 137 137 137 137 137 137 136 136 136 135 135 135 135 135 135 134 134 134 134 134 134 133 133 133 132 132 132 132 132 132 
113 113 113 113 113 113 114 114 114 115 115 115 115 115 115 116 116 116 117 117 117 118 118 118 118 118 118 119 119 119 120 120 120 120 120 120 121 121 121 122 122 122 123 123 123 123 123 123 124 124 124 125 125 125 125 125 125 126 126 126 127 127 127 128 128 128 128 128 128 129 129 129 130 130 130 130 130 130 131 131 131 132 132 132 132 132 132 133 133 133 164 150 134 165 150 135 171 171 169 174 174 172 178 177 176 181 180 179 255 255 255 255 255 255 255 255 255 255 255 255 148 147 146 145 144 142 140 140 140 141 141 141 141 141 141 142 142 142 142 142 142 142 142 142 143 143 143 143 143 143 143 143 143 144 144 144 200 173 145 201 174 146 202 174 146 188 167 146 147 147 145 147 147 145 148 147 145 148 147 146 148 147 146 248 247 246 246 245 244 255 255 255 255 255 255 153 153 151 150 150 148 145 145 145 145 145 145 145 145 145 145 145 145 145 145 145 144 144 144 144 144 144 144 144 144 144 144 144 143 143 143 143 143 143 143 143 143 142 142 142 142 142 142 142 142 142 141 141 141 141 141 141 140 140 140 140 140 140 139 139 139 139 139 139 138 138 138 138 138 138 137 137 137 137 137 137 136 136 136 135 135 135 135 135 135 134 134 134 134 134 134 133 133 133 132 132 132 132 132 132 
112 112 112 113 113 113 114 114 114 114 114 114 115 115 115 116 116 116 117 117 117 117 117 117 118 118 118 119 119 119 120 120 120 120 120 120 121 121 121 122 122 122 122 122 122 123 123 123 124 124 124 125 125 125 125 125 125 126 126 126 127 127 127 127 127 127 128 128 128 129 129 129 130 130 130 130 130 130 131 131 131 132 132 132 132 132 132 163 149 134 164 149 135 165 150 135 172 171 169 175 174 173 178 177 176 181 181 179 255 255 255 255 255 255 255 255 255 255 255 255 147 147 145 140 140 140 140 140 140 141 141 141 141 141 141 142 142 142 142 142 142 143 143 143 255 144 143 255 144 144 255 154 154 255 154 154 255 144 144 144 144 144 200 173 146 187 167 146 148 147 145 148 147 146 148 147 146 148 147 146 148 147 146 255 255 255 255 255 255 255 255 255 255 255 255 255 255 255 152 151 150 149 149 147 145 145 145 145 145 145 145 145 145 145 145 145 145 145 145 144 144 144 144 144 144 144 144 144 144 144 144 143 143 143 143 143 143 142 142 142 142 142 142 142 142 142 141 141 141 141 141 141 140 140 140 140 140 140 139 139 139 139 139 139 138 138 138 138 138 138 137 137 137 136 136 136 136 136 136 135 135 135 135 135 135 134 134 134 133 133 133 133 133 133 132 132 132 131 131 131 
112 112 112 113 113 113 113 113 113 114 114 114 115 115 115 116 116 116 116 116 116 117 117 117 118 118 118 119 119 119 119 119 119 120 120 120 121 121 121 122 122 122 122 122 122 123 123 123 124 124 124 124 124 124 125 125 125 126 126 126 127 127 127 127 127 127 128 128 128 129 129 129 130 130 130 130 130 130 131 131 131 132 132 132 132 132 132 162 148 134 163 149 135 164 150 135 172 171 170 175 174 173 178 177 176 181 181 179 185 184 182 255 255 255 255 255 255 255 255 255 146 146 144 140 140 140 141 141 141 141 141 141 142 142 142 142 142 142 142 142 142 221 145 145 227 143 143 238 146 146 255 173 173 255 210 210 255 169 169 255 145 145 145 145 145 186 166 146 187 167 147 148 147 146 148 147 146 148 148 146 167 166 165 171 170 168 255 255 255 255 255 255 255 255 255 255 255 255 154 153 151 151 150 148 146 146 146 145 145 145 145 145 145 145 145 145 145 145 145 145 145 145 144 144 144 144 144 144 144 144 144 143 143 143 143 143 143 143 143 143 142 142 142 142 142 142 141 141 141 141 141 141 140 140 140 140 140 140 139 139 139 139 139 139 138 138 138 138 138 138 137 137 137 136 136 136 136 136 136 135 135 135 135 135 135 134 134 134 133 133 133 133 133 133 132 132 132 131 131 131 
112 112 112 112 112 112 113 113 113 114 114 114 115 115 115 115 115 115 116 116 116 117 117 117 118 118 118 118 118 118 119 119 119 120 120 120 121 121 121 121 121 121 122 122 122 123 123 123 124 124 124 124 124 124 125 125 125 126 126 126 127 127 127 127 127 127 128 128 128 129 129 129 129 129 129 130 130 130 131 131 131 132 132 132 132 132 132 133 133 133 163 149 135 164 150 135 172 171 170 175 174 173 178 177 176 181 181 179 185 184 182 255 255 255 255 255 255 255 255 255 140 140 140 140 140 140 141 141 141 141 141 141 142 142 142 142 142 142 187 145 143 196 147 147 200 143 143 208 144 144 216 145 145 226 147 147 233 148 148 237 145 145 243 145 145 145 145 145 185 166 147 186 167 147 148 148 146 163 162 161 167 166 164 170 169 168 255 255 255 255 255 255 255 255 255 255 255 255 155 155 153 152 151 150 146 146 146 146 146 146 145 145 145 145 145 145 145 145 145 145 145 145 144 144 144 144 144 144 144 144 144 143 143 143 143 143 143 143 143 143 142 142 142 142 142 142 141 141 141 141 141 141 140 140 140 140 140 140 139 139 139 139 139 139 138 138 138 137 137 137 137 137 137 136 136 136 136 136 136 135 135 135 134 134 134 134 134 134 133 133 133 132 132 132 132 132 132 131 131 131 
111 111 111 112 112 112 113 113 113 113 113 113 114 114 114 115 115 115 116 116 116 116 116 116 117 117 117 118 118 118 119 119 119 119 119 119 120 120 120 121 121 121 122 122 122 123 123 123 123 123 123 124 124 124 125 125 125 126 126 126 126 126 126 127 127 127 128 128 128 129 129 129 129 129 129 130 130 130 131 131 131 131 131 131 132 132 132 133 133 133 162 149 134 163 150 135 164 150 136 175 174 173 178 177 176 181 180 179 184 184 182 255 255 255 255 255 255 255 255 255 140 140 140 140 140 140 141 141 141 141 141 141 142 142 142 151 142 142 163 147 147 168 144 144 174 144 144 183 145 145 190 146 146 197 145 145 203 145 145 209 145 145 215 145 145 222 148 146 146 146 146 185 166 147 186 167 147 163 162 161 166 165 164 170 169 167 255 255 255 255 255 255 255 255 255 255 255 255 255 255 255 153 153 151 151 150 148 146 146 146 146 146 146 145 145 145 145 145 145 145 145 145 144 144 144 144 144 144 144 144 144 143 143 143 143 143 143 143 143 143 142 142 142 142 142 142 141 141 141 141 141 141 140 140 140 140 140 140 139 139 139 138 138 138 138 138 138 137 137 137 137 137 137 136 136 136 135 135 135 135 135 135 134 134 134 133 133 133 133 133 133 132 132 132 131 131 131 131 131 131 
111 111 111 111 111 111 112 112 112 113 113 113 114 114 114 114 114 114 115 115 115 116 116 116 117 117 117 118 118 118 118 118 118 119 119 119 120 120 120 121 121 121 121 121 121 122 122 122 123 123 123 124 124 124 125 125 125 125 125 125 126 126 126 127 127 127 128 128 128 128 128 128 129 129 129 130 130 130 131 131 131 131 131 131 132 132 132 133 133 133 162 148 134 163 149 135 164 150 136 175 174 173 178 177 176 181 180 179 184 183 182 255 255 255 255 255 255 255 255 255 255 255 255 140 140 140 141 141 141 141 141 141 142 142 142 151 142 142 152 143 143 163 154 154 158 149 149 164 151 151 171 152 152 178 152 152 182 151 151 183 146 146 188 146 146 197 151 151 146 146 146 146 146 146 184 166 147 163 162 160 166 165 164 169 168 167 172 171 170 255 255 255 255 255 255 255 255 255 255 255 255 155 154 153 152 151 150 146 146 146 146 146 146 145 145 145 145 145 145 145 145 145 144 144 144 144 144 144 144 144 144 143 143 143 143 143 143 143 143 143 142 142 142 142 142 142 141 141 141 141 141 141 140 140 140 139 139 139 139 139 139 138 138 138 138 138 138 137 137 137 136 136 136 136 136 136 135 135 135 134 134 134 134 134 134 133 133 133 132 132 132 132 132 132 131 131 131 130 130 130 
110 110 110 111 111 111 112 112 112 112 112 112 113 113 113 114 114 114 115 115 115 116 116 116 116 116 116 117 117 117 118 118 118 119 119 119 120 120 120 120 120 120 121 121 121 122 122 122 123 123 123 123 123 123 124 124 124 125 125 125 126 126 126 127 127 127 127 127 127 128 128 128 129 129 129 130 130 130 130 130 130 131 131 131 132 132 132 133 133 133 161 148 134 162 149 135 163 150 136 174 174 172 177 177 175 180 180 178 183 183 181 186 186 184 255 255 255 255 255 255 255 255 255 140 140 140 141 141 141 141 141 141 142 142 142 151 142 142 152 143 143 160 150 150 160 151 151 161 152 152 162 153 153 163 154 154 162 153 153 162 151 151 161 146 146 169 149 149 146 146 146 146 146 146 146 146 146 162 155 147 165 164 163 168 167 166 171 171 169 255 255 255 255 255 255 255 255 255 255 255 255 156 156 154 153 152 151 146 146 146 146 146 146 145 145 145 145 145 145 145 145 145 144 144 144 144 144 144 144 144 144 143 143 143 143 143 143 142 142 142 142 142 142 141 141 141 141 141 141 140 140 140 140 140 140 139 139 139 139 139 139 138 138 138 137 137 137 137 137 137 136 136 136 135 135 135 135 135 135 134 134 134 133 133 133 133 133 133 132 132 132 131 131 131 130 130 130 130 130 130 
110 110 110 110 110 110 111 111 111 112 112 112 113 113 113 114 114 114 114 114 114 115 115 115 116 116 116 117 117 117 117 117 117 118 118 118 119 119 119 120 120 120 121 121 121 121 121 121 122 122 122 123 123 123 124 124 124 125 125 125 125 125 125 126 126 126 127 127 127 128 128 128 129 129 129 129 129 129 130 130 130 131 131 131 132 132 132 132 132 132 133 133 133 162 149 135 163 149 135 174 173 172 177 176 175 180 179 178 163 162 161 165 164 163 167 166 164 255 255 255 255 254 252 251 250 249 141 141 141 141 141 141 142 142 142 151 142 142 154 145 145 165 156 156 164 155 155 161 152 152 162 153 153 162 153 153 162 153 153 161 152 152 165 156 156 156 147 146 146 146 146 146 146 146 146 146 146 162 155 147 165 164 162 167 167 165 182 181 180 255 255 255 255 255 255 255 255 255 255 255 255 154 153 152 152 151 150 151 150 149 146 146 146 145 145 145 145 145 145 145 145 145 144 144 144 144 144 144 144 144 144 143 143 143 143 143 143 142 142 142 142 142 142 141 141 141 141 141 141 140 140 140 140 140 140 139 139 139 138 138 138 138 138 138 137 137 137 136 136 136 136 136 136 135 135 135 134 134 134 134 134 134 133 133 133 132 132 132 131 131 131 131 131 131 130 130 130 129 129 129 
109 109 109 110 110 110 111 111 111 111 111 111 112 112 112 113 113 113 114 114 114 115 115 115 115 115 115 116 116 116 117 117 117 118 118 118 119 119 119 119 119 119 120 120 120 121 121 121 122 122 122 123 123 123 123 123 123 124 124 124 125 125 125 126 126 126 127 127 127 127 127 127 128 128 128 129 129 129 130 130 130 131 131 131 131 131 131 132 132 132 133 133 133 161 148 134 162 149 135 163 150 136 158 158 156 160 159 158 162 161 160 164 163 162 166 165 163 167 167 165 255 255 255 254 253 252 250 250 248 141 141 141 142 142 142 142 142 142 153 144 144 152 143 143 161 152 152 167 158 158 164 155 155 154 145 145 154 145 145 168 159 159 163 154 154 146 146 146 146 146 146 146 146 146 146 146 146 162 155 147 172 171 170 178 178 176 185 184 183 255 255 255 255 255 255 255 255 255 255 255 255 154 153 152 152 151 150 150 149 148 145 145 145 145 145 145 145 145 145 144 144 144 144 144 144 144 144 144 143 143 143 143 143 143 142 142 142 142 142 142 141 141 141 141 141 141 140 140 140 140 140 140 139 139 139 139 139 139 138 138 138 137 137 137 137 137 137 136 136 136 135 135 135 135 135 135 134 134 134 133 133 133 132 132 132 132 132 132 131 131 131 130 130 130 129 129 129 129 129 129 
108 108 108 109 109 109 110 110 110 111 111 111 112 112 112 112 112 112 113 113 113 114 114 114 115 115 115 116 116 116 116 116 116 117 117 117 118 118 118 119 119 119 120 120 120 121 121 121 121 121 121 122 122 122 123 123 123 124 124 124 125 125 125 125 125 125 126 126 126 127 127 127 128 128 128 129 129 129 129 129 129 130 130 130 131 131 131 132 132 132 133 133 133 160 148 134 161 148 135 180 158 136 157 157 155 159 159 157 161 160 159 163 162 161 165 164 162 166 166 164 255 255 255 255 255 254 253 252 251 141 141 141 142 142 142 142 142 142 152 143 143 157 148 148 159 150 150 153 144 144 163 154 154 168 158 158 164 155 155 154 145 145 154 145 145 146 146 146 146 146 146 146 146 146 146 146 146 146 146 146 175 174 173 181 181 179 255 255 255 255 255 255 255 255 255 255 255 255 157 156 155 154 153 152 152 151 150 145 145 145 145 145 145 145 145 145 145 145 145 144 144 144 144 144 144 143 143 143 143 143 143 143 143 143 142 142 142 142 142 142 141 141 141 141 141 141 140 140 140 139 139 139 139 139 139 138 138 138 137 137 137 137 137 137 136 136 136 135 135 135 135 135 135 134 134 134 133 133 133 133 133 133 132 132 132 131 131 131 130 130 130 129 129 129 129 129 129 128 128 128 
108 108 108 109 109 109 109 109 109 110 110 110 111 111 111 112 112 112 113 113 113 113 113 113 114 114 114 115 115 115 116 116 116 117 117 117 118 118 118 118 118 118 119 119 119 120 120 120 121 121 121 122 122 122 122 122 122 123 123 123 124 124 124 125 125 125 126 126 126 127 127 127 127 127 127 128 128 128 129 129 129 130 130 130 131 131 131 131 131 131 132 132 132 160 147 134 178 157 135 179 158 136 180 158 136 158 158 156 160 159 158 162 161 160 163 163 161 165 164 163 167 166 165 255 255 255 255 254 253 252 251 250 141 141 141 142 142 142 142 142 142 152 143 143 158 149 149 159 150 150 160 151 151 160 151 151 159 150 150 154 145 145 145 145 145 145 145 145 146 146 146 146 146 146 146 146 146 146 146 146 177 177 175 184 183 182 255 255 255 255 255 255 255 255 255 255 255 255 157 156 154 154 153 152 152 151 150 145 145 145 145 145 145 145 145 145 144 144 144 144 144 144 144 144 144 143 143 143 143 143 143 142 142 142 142 142 142 141 141 141 141 141 141 140 140 140 139 139 139 139 139 139 138 138 138 138 138 138 137 137 137 136 136 136 136 136 136 135 135 135 134 134 134 133 133 133 133 133 133 132 132 132 131 131 131 130 130 130 130 130 130 129 129 129 128 128 128 127 127 127 
107 107 107 108 108 108 109 109 109 110 110 110 110 110 110 111 111 111 112 112 112 113 113 113 114 114 114 114 114 114 115 115 115 116 116 116 117 117 117 118 118 118 119 119 119 119 119 119 120 120 120 121 121 121 122 122 122 123 123 123 124 124 124 124 124 124 125 125 125 126 126 126 127 127 127 128 128 128 129 129 129 129 129 129 130 130 130 131 131 131 132 132 132 132 132 132 177 156 134 178 157 135 179 158 136 180 159 137 159 158 157 161 160 158 162 162 160 164 163 162 165 165 163 167 166 165 255 255 255 254 253 251 250 249 248 142 142 142 142 142 142 142 142 142 143 143 143 153 144 144 156 147 147 154 145 145 144 144 144 145 145 145 145 145 145 145 145 145 145 145 145 145 145 145 146 146 146 174 173 171 180 179 178 152 152 150 255 255 255 255 255 255 255 255 255 255 255 255 156 156 154 154 153 152 151 151 149 145 145 145 144 144 144 144 144 144 144 144 144 143 143 143 143 143 143 143 143 143 142 142 142 142 142 142 141 141 141 141 141 141 140 140 140 140 140 140 139 139 139 138 138 138 138 138 138 137 137 137 136 136 136 136 136 136 135 135 135 134 134 134 133 133 133 133 133 133 132 132 132 131 131 131 130 130 130 130 130 130 129 129 129 128 128 128 127 127 127 126 126 126 
106 106 106 107 107 107 108 108 108 109 109 109 110 110 110 110 110 110 111 111 111 112 112 112 113 113 113 114 114 114 115 115 115 115 115 115 116 116 116 117 117 117 118 118 118 119 119 119 120 120 120 120 120 120 121 121 121 122 122 122 123 123 123 124 124 124 125 125 125 125 125 125 126 126 126 127 127 127 128 128 128 129 129 129 130 130 130 130 130 130 131 131 131 132 132 132 176 155 134 177 156 135 178 157 135 179 158 136 180 159 137 159 159 157 161 160 159 163 162 160 164 163 162 166 165 163 167 166 165 255 254 253 252 251 249 254 253 252 252 251 250 142 142 142 143 143 143 143 143 143 143 143 143 144 144 144 144 144 144 144 144 144 145 145 145 145 145 145 145 145 145 145 145 145 145 145 145 150 149 148 255 255 255 255 255 255 255 255 255 255 255 255 255 255 255 255 255 255 156 155 154 153 153 151 151 150 149 144 144 144 144 144 144 144 144 144 143 143 143 143 143 143 143 143 143 142 142 142 142 142 142 141 141 141 141 141 141 140 140 140 139 139 139 139 139 139 138 138 138 138 138 138 137 137 137 136 136 136 136 136 136 135 135 135 134 134 134 133 133 133 133 133 133 132 132 132 131 131 131 130 130 130 130 130 130 129 129 129 128 128 128 127 127 127 126 126 126 125 125 125 
106 106 106 106 106 106 107 107 107 108 108 108 109 109 109 110 110 110 110 110 110 111 111 111 112 112 112 113 113 113 114 114 114 115 115 115 115 115 115 116 116 116 117 117 117 118 118 118 119 119 119 120 120 120 121 121 121 121 121 121 122 122 122 123 123 123 124 124 124 125 125 125 126 126 126 126 126 126 127 127 127 128 128 128 129 129 129 130 130 130 131 131 131 131 131 131 204 169 134 175 155 134 177 156 135 178 157 136 179 158 136 179 159 137 160 159 157 161 160 159 163 162 161 164 163 162 166 165 163 167 166 165 255 255 255 255 255 255 255 254 253 253 252 250 250 249 248 142 142 142 143 143 143 143 143 143 144 144 144 144 144 144 144 144 144 144 144 144 144 144 144 145 145 145 152 151 150 255 255 255 255 255 255 255 255 255 255 255 255 255 255 255 154 153 151 152 151 150 155 155 153 153 152 151 173 159 145 144 144 144 143 143 143 143 143 143 143 143 143 142 142 142 142 142 142 141 141 141 141 141 141 140 140 140 140 140 140 139 139 139 139 139 139 138 138 138 138 138 138 137 137 137 136 136 136 136 136 136 135 135 135 134 134 134 133 133 133 133 133 133 132 132 132 131 131 131 130 130 130 129 129 129 129 129 129 128 128 128 127 127 127 126 126 126 125 125 125 125 125 125 
105 105 105 106 106 106 106 106 106 107 107 107 108 108 108 109 109 109 110 110 110 110 110 110 111 111 111 112 112 112 113 113 113 114 114 114 115 115 115 116 116 116 116 116 116 117 117 117 118 118 118 119 119 119 120 120 120 121 121 121 122 122 122 122 122 122 123 123 123 124 124 124 125 125 125 126 126 126 127 127 127 127 127 127 128 128 128 129 129 129 130 130 130 131 131 131 131 131 131 203 169 134 175 155 134 176 156 135 177 157 136 178 158 136 179 158 137 160 159 158 161 160 159 163 162 160 164 163 162 155 154 153 155 155 153 156 155 154 255 255 255 255 255 253 253 252 251 250 249 248 247 246 244 243 242 241 143 143 143 255 255 255 255 255 255 255 255 255 255 254 253 252 251 250 255 255 255 255 255 255 255 255 255 255 255 255 255 255 255 154 153 152 153 152 150 151 150 149 150 149 148 152 151 150 143 143 143 143 143 143 143 143 143 142 142 142 142 142 142 142 142 142 141 141 141 141 141 141 140 140 140 140 140 140 139 139 139 139 139 139 138 138 138 137 137 137 137 137 137 136 136 136 135 135 135 135 135 135 134 134 134 133 133 133 132 132 132 132 132 132 131 131 131 130 130 130 129 129 129 129 129 129 128 128 128 127 127 127 126 126 126 125 125 125 124 124 124 124 124 124 
104 104 104 105 105 105 105 105 105 106 106 106 107 107 107 108 108 108 109 109 109 110 110 110 110 110 110 111 111 111 112 112 112 113 113 113 114 114 114 115 115 115 116 116 116 116 116 116 117 117 117 118 118 118 119 119 119 120 120 120 121 121 121 122 122 122 122 122 122 123 123 123 124 124 124 125 125 125 126 126 126 127 127 127 127 127 127 128 128 128 129 129 129 130 130 130 131 131 131 131 131 131 203 169 134 175 155 134 176 156 135 177 157 136 178 157 136 179 158 137 160 159 157 161 160 159 152 152 150 153 153 151 154 153 152 155 154 152 155 154 153 156 155 154 156 155 154 253 252 250 249 249 247 246 245 244 255 255 255 255 255 255 255 255 255 255 255 255 255 255 255 255 255 253 253 252 250 255 255 255 255 255 255 255 255 255 154 154 152 153 152 151 151 151 149 150 149 148 149 148 147 148 147 145 143 143 143 142 142 142 142 142 142 142 142 142 141 141 141 141 141 141 140 140 140 140 140 140 139 139 139 139 139 139 138 138 138 138 138 138 137 137 137 136 136 136 136 136 136 135 135 135 134 134 134 134 134 134 133 133 133 132 132 132 131 131 131 131 131 131 130 130 130 129 129 129 128 128 128 127 127 127 127 127 127 126 126 126 125 125 125 124 124 124 123 123 123 122 122 122 
103 103 103 104 104 104 105 105 105 105 105 105 106 106 106 107 107 107 108 108 108 109 109 109 109 109 109 110 110 110 111 111 111 112 112 112 113 113 113 114 114 114 115 115 115 115 115 115 116 116 116 117 117 117 118 118 118 119 119 119 120 120 120 121 121 121 122 122 122 122 122 122 123 123 123 124 124 124 125 125 125 126 126 126 127 127 127 127 127 127 128 128 128 129 129 129 130 130 130 131 131 131 131 131 131 202 168 134 174 155 134 175 155 135 176 156 135 177 157 136 178 158 137 159 158 157 151 150 149 152 151 149 152 152 150 153 152 151 154 153 151 154 153 152 155 154 152 155 154 153 155 155 153 249 248 246 255 255 255 255 255 255 255 255 255 255 255 255 255 255 255 255 255 255 255 255 253 252 252 250 255 255 255 154 154 152 153 152 151 152 151 149 150 149 148 149 148 147 148 147 146 187 165 143 142 142 142 141 141 141 141 141 141 141 141 141 140 140 140 140 140 140 139 139 139 139 139 139 138 138 138 138 138 138 137 137 137 137 137 137 136 136 136 135 135 135 135 135 135 134 134 134 133 133 133 133 133 133 132 132 132 131 131 131 130 130 130 130 130 130 129 129 129 128 128 128 127 127 127 126 126 126 125 125 125 125 125 125 124 124 124 123 123 123 122 122 122 121 121 121 
102 102 102 103 103 103 104 104 104 104 104 104 105 105 105 106 106 106 107 107 107 108 108 108 108 108 108 109 109 109 110 110 110 111 111 111 112 112 112 113 113 113 114 114 114 114 114 114 115 115 115 116 116 116 117 117 117 118 118 118 119 119 119 120 120 120 121 121 121 121 121 121 122 122 122 123 123 123 124 124 124 125 125 125 126 126 126 126 126 126 127 127 127 128 128 128 129 129 129 130 130 130 130 130 130 131 131 131 202 168 134 174 154 134 175 155 135 176 156 135 177 157 136 187 162 137 149 148 147 150 149 148 151 150 148 151 151 149 152 151 150 152 152 150 153 152 151 153 152 151 153 153 151 154 153 152 153 152 151 153 152 151 153 152 150 152 152 150 152 151 150 151 151 149 151 150 149 150 150 148 150 149 147 153 152 151 151 151 149 150 149 148 149 148 147 148 147 145 186 164 142 185 164 142 141 141 141 140 140 140 140 140 140 140 140 140 139 139 139 139 139 139 138 138 138 138 138 138 137 137 137 137 137 137 136 136 136 136 136 136 135 135 135 134 134 134 134 134 134 133 133 133 132 132 132 131 131 131 131 131 131 130 130 130 129 129 129 128 128 128 128 128 128 127 127 127 126 126 126 125 125 125 124 124 124 123 123 123 123 123 123 122 122 122 121 121 121 120 120 120 
101 101 101 102 102 102 102 102 102 103 103 103 104 104 104 105 105 105 106 106 106 107 107 107 107 107 107 108 108 108 109 109 109 110 110 110 111 111 111 112 112 112 113 113 113 113 113 113 114 114 114 115 115 115 116 116 116 117 117 117 118 118 118 119 119 119 120 120 120 120 120 120 121 121 121 122 122 122 123 123 123 124 124 124 125 125 125 125 125 125 126 126 126 127 127 127 128 128 128 129 129 129 129 129 129 130 130 130 131 131 131 201 167 133 173 154 133 174 155 134 175 155 135 185 161 136 186 162 136 187 162 137 188 163 137 149 149 147 150 149 148 151 150 148 151 150 149 151 151 149 152 151 150 152 151 150 151 151 149 151 150 149 151 150 149 151 150 148 150 149 148 150 149 148 149 148 147 149 148 146 148 147 146 151 150 149 150 149 148 149 148 146 147 147 145 184 163 141 184 163 141 140 140 140 139 139 139 139 139 139 139 139 139 138 138 138 138 138 138 138 138 138 137 137 137 137 137 137 136 136 136 135 135 135 135 135 135 134 134 134 134 134 134 133 133 133 132 132 132 132 132 132 131 131 131 130 130 130 129 129 129 129 129 129 128 128 128 127 127 127 126 126 126 125 125 125 125 125 125 124 124 124 123 123 123 122 122 122 121 121 121 120 120 120 120 120 120 119 119 119 
100 100 100 101 101 101 101 101 101 102 102 102 103 103 103 104 104 104 105 105 105 106 106 106 106 106 106 107 107 107 108 108 108 109 109 109 110 110 110 111 111 111 111 111 111 112 112 112 113 113 113 114 114 114 115 115 115 116 116 116 117 117 117 118 118 118 118 118 118 119 119 119 120 120 120 121 121 121 122 122 122 123 123 123 124 124 124 124 124 124 125 125 125 126 126 126 127 127 127 128 128 128 128 128 128 129 129 129 130 130 130 131 131 131 200 167 133 172 153 133 182 159 134 183 159 135 184 160 135 185 161 136 186 161 136 187 162 137 187 163 137 149 148 146 149 148 147 149 149 147 150 149 148 150 149 148 149 149 147 149 149 147 149 148 147 149 148 147 148 148 146 148 147 146 147 147 145 147 146 145 146 146 144 149 149 147 148 147 146 183 162 140 182 162 140 182 161 140 181 161 140 139 139 139 138 138 138 138 138 138 138 138 138 137 137 137 137 137 137 136 136 136 136 136 136 135 135 135 135 135 135 134 134 134 134 134 134 133 133 133 132 132 132 132 132 132 131 131 131 130 130 130 130 130 130 129 129 129 128 128 128 127 127 127 126 126 126 126 126 126 125 125 125 124 124 124 123 123 123 122 122 122 122 122 122 121 121 121 120 120 120 119 119 119 118 118 118 117 117 117 
99 99 99 99 99 99 100 100 100 101 101 101 102 102 102 103 103 103 104 104 104 104 104 104 105 105 105 106 106 106 107 107 107 108 108 108 109 109 109 109 109 109 110 110 110 111 111 111 112 112 112 113 113 113 114 114 114 115 115 115 115 115 115 116 116 116 117 117 117 118 118 118 119 119 119 120 120 120 121 121 121 121 121 121 122 122 122 123 123 123 124 124 124 125 125 125 126 126 126 126 126 126 127 127 127 128 128 128 129 129 129 129 129 129 130 130 130 198 166 132 180 157 133 181 158 133 182 158 134 183 159 134 184 160 135 185 160 136 185 161 136 186 162 137 187 162 137 147 147 145 148 147 146 148 147 146 147 147 145 147 147 145 147 146 145 147 146 145 146 146 144 146 145 144 146 145 143 145 144 143 145 144 142 147 147 145 181 160 139 180 160 139 180 160 139 138 138 138 137 137 137 137 137 137 137 137 137 137 137 137 136 136 136 136 136 136 135 135 135 135 135 135 134 134 134 134 134 134 133 133 133 133 133 133 132 132 132 131 131 131 131 131 131 130 130 130 129 129 129 129 129 129 128 128 128 127 127 127 127 127 127 126 126 126 125 125 125 124 124 124 123 123 123 123 123 123 122 122 122 121 121 121 120 120 120 119 119 119 118 118 118 117 117 117 117 117 117 116 116 116 
97 97 97 98 98 98 99 99 99 100 100 100 101 101 101 101 101 101 102 102 102 103 103 103 104 104 104 105 105 105 106 106 106 106 106 106 107 107 107 108 108 108 109 109 109 110 110 110 111 111 111 112 112 112 112 112 112 113 113 113 114 114 114 115 115 115 116 116 116 117 117 117 118 118 118 118 118 118 119 119 119 120 120 120 121 121 121 122 122 122 123 123 123 123 123 123 124 124 124 125 125 125 126 126 126 126 126 126 127 127 127 128 128 128 129 129 129 129 129 129 206 169 132 207 170 132 180 157 132 181 157 133 182 158 134 182 159 134 183 159 135 184 160 135 184 160 136 185 161 136 185 161 136 186 162 137 145 145 143 187 162 137 187 163 137 187 163 138 188 163 138 188 163 138 188 163 138 188 163 138 188 163 138 179 159 138 178 158 138 178 158 138 136 136 136 136 136 136 136 136 136 136 136 136 135 135 135 135 135 135 135 135 135 134 134 134 134 134 134 133 133 133 133 133 133 132 132 132 132 132 132 131 131 131 131 131 131 130 130 130 129 129 129 129 129 129 128 128 128 127 127 127 126 126 126 126 126 126 125 125 125 124 124 124 123 123 123 123 123 123 122 122 122 121 121 121 120 120 120 119 119 119 118 118 118 118 118 118 117 117 117 116 116 116 115 115 115 114 114 114 
96 96 96 97 97 97 98 98 98 99 99 99 99 99 99 100 100 100 101 101 101 102 102 102 103 103 103 103 103 103 104 104 104 105 105 105 106 106 106 107 107 107 108 108 108 109 109 109 109 109 109 110 110 110 111 111 111 112 112 112 113 113 113 114 114 114 115 115 115 115 115 115 116 116 116 117 117 117 118 118 118 119 119 119 120 120 120 120 120 120 121 121 121 122 122 122 123 123 123 124 124 124 124 124 124 125 125 125 126 126 126 126 126 126 127 127 127 128 128 128 128 128 128 129 129 129 205 169 132 206 170 132 179 156 132 180 157 133 181 157 133 182 158 134 182 158 134 183 159 134 183 159 135 184 160 135 184 160 135 184 160 136 185 161 136 185 161 136 185 161 136 185 161 136 186 161 136 186 161 136 186 161 136 176 157 136 176 156 136 135 135 135 135 135 135 134 134 134 134 134 134 134 134 134 134 134 134 133 133 133 133 133 133 133 133 133 132 132 132 132 132 132 131 131 131 131 131 131 130 130 130 129 129 129 129 129 129 128 128 128 128 128 128 127 127 127 126 126 126 125 125 125 125 125 125 124 124 124 123 123 123 122 122 122 122 122 122 121 121 121 120 120 120 119 119 119 118 118 118 118 118 118 117 117 117 116 116 116 115 115 115 114 114 114 113 113 113 113 113 113 
95 95 95 96 96 96 96 96 96 97 97 97 98 98 98 99 99 99 100 100 100 100 100 100 101 101 101 102 102 102 103 103 103 104 104 104 105 105 105 105 105 105 106 106 106 107 107 107 108 108 108 109 109 109 110 110 110 111 111 111 111 111 111 112 112 112 113 113 113 114 114 114 115 115 115 116 116 116 116 116 116 117 117 117 118 118 118 119 119 119 120 120 120 120 120 120 121 121 121 122 122 122 123 123 123 123 123 123 124 124 124 125 125 125 126 126 126 126 126 126 127 127 127 127 127 127 128 128 128 129 129 129 129 129 129 205 169 132 206 169 132 179 156 132 180 156 132 180 157 133 181 157 133 181 158 133 182 158 134 182 158 134 182 159 134 183 159 134 183 159 134 183 159 135 183 159 135 183 159 135 183 159 135 174 154 134 133 133 133 133 133 133 133 133 133 133 133 133 132 132 132 132 132 132 132 132 132 132 132 132 131 131 131 131 131 131 130 130 130 130 130 130 129 129 129 129 129 129 128 128 128 128 128 128 127 127 127 126 126 126 126 126 126 125 125 125 124 124 124 124 124 124 123 123 123 122 122 122 121 121 121 121 121 121 120 120 120 119 119 119 118 118 118 117 117 117 117 117 117 116 116 116 115 115 115 114 114 114 113 113 113 112 112 112 112 112 112 111 111 111 
94 94 94 94 94 94 95 95 95 96 96 96 97 97 97 97 97 97 98 98 98 99 99 99 100 100 100 101 101 101 102 102 102 102 102 102 103 103 103 104 104 104 105 105 105 106 106 106 107 107 107 107 107 107 108 108 108 109 109 109 110 110 110 111 111 111 112 112 112 112 112 112 113 113 113 114 114 114 115 115 115 116 116 116 116 116 116 117 117 117 118 118 118 119 119 119 120 120 120 120 120 120 121 121 121 122 122 122 123 123 123 123 123 123 124 124 124 125 125 125 125 125 125 126 126 126 126 126 126 127 127 127 127 127 127 128 128 128 128 128 128 204 168 131 204 168 131 178 155 131 178 155 131 179 155 132 179 156 132 179 156 132 180 156 132 180 157 133 180 157 133 208 171 133 208 171 133 132 132 132 131 131 131 131 131 131 131 131 131 131 131 131 131 131 131 131 131 131 131 131 131 130 130 130 130 130 130 130 130 130 129 129 129 129 129 129 128 128 128 128 128 128 127 127 127 127 127 127 126 126 126 126 126 126 125 125 125 125 125 125 124 124 124 123 123 123 122 122 122 122 122 122 121 121 121 120 120 120 120 120 120 119 119 119 118 118 118 117 117 117 116 116 116 116 116 116 115 115 115 114 114 114 113 113 113 112 112 112 112 112 112 111 111 111 110 110 110 109 109 109 
92 92 92 93 93 93 94 94 94 95 95 95 95 95 95 96 96 96 97 97 97 98 98 98 98 98 98 99 99 99 100 100 100 101 101 101 102 102 102 102 102 102 103 103 103 104 104 104 105 105 105 106 106 106 107 107 107 107 107 107 108 108 108 109 109 109 110 110 110 111 111 111 112 112 112 112 112 112 113 113 113 114 114 114 115 115 115 116 116 116 116 116 116 117 117 117 118 118 118 119 119 119 119 119 119 120 120 120 121 121 121 121 121 121 122 122 122 123 123 123 123 123 123 4 3 0 4 3 0 4 3 0 4 3 0 4 3 0 4 3 0 4 3 0 4 3 0 4 3 0 4 3 0 4 3 0 4 3 0 4 3 0 129 129 129 129 129 129 129 129 129 129 129 129 130 130 130 130 130 130 129 129 129 129 129 129 129 129 129 129 129 129 129 129 129 129 129 129 129 129 129 128 128 128 128 128 128 128 128 128 127 127 127 127 127 127 126 126 126 126 126 126 125 125 125 125 125 125 124 124 124 124 124 124 123 123 123 122 122 122 122 122 122 121 121 121 120 120 120 120 120 120 119 119 119 118 118 118 118 118 118 117 117 117 116 116 116 115 115 115 114 114 114 114 114 114 113 113 113 112 112 112 111 111 111 110 110 110 110 110 110 109 109 109 108 108 108 107 107 107 
91 91 91 92 92 92 92 92 92 93 93 93 94 94 94 95 95 95 95 95 95 96 96 96 97 97 97 98 98 98 98 98 98 99 99 99 100 100 100 101 101 101 102 102 102 103 103 103 103 103 103 104 104 104 105 105 105 106 106 106 107 107 107 107 107 107 108 108 108 109 109 109 110 110 110 111 111 111 111 111 111 112 112 112 113 113 113 114 114 114 115 115 115 115 115 115 116 116 116 117 117 117 117 117 117 118 118 118 119 119 119 120 120 120 120 120 120 70 36 1 4 3 0 4 3 0 4 3 0 4 3 0 4 3 0 4 3 0 4 3 0 4 3 0 4 3 0 4 3 0 4 3 0 4 3 0 4 3 0 4 3 0 4 3 0 4 3 0 127 127 127 127 127 127 127 127 127 127 127 127 127 127 127 127 127 127 127 127 127 127 127 127 127 127 127 127 127 127 126 126 126 126 126 126 126 126 126 125 125 125 125 125 125 125 125 125 124 124 124 124 124 124 123 123 123 123 123 123 122 122 122 122 122 122 121 121 121 120 120 120 120 120 120 119 119 119 118 118 118 118 118 118 117 117 117 116 116 116 116 116 116 115 115 115 114 114 114 113 113 113 112 112 112 112 112 112 111 111 111 110 110 110 109 109 109 108 108 108 108 108 108 107 107 107 106 106 106 105 105 105 
89 89 89 90 90 90 91 91 91 92 92 92 92 92 92 93 93 93 94 94 94 95 95 95 95 95 95 96 96 96 97 97 97 98 98 98 98 98 98 99 99 99 100 100 100 101 101 101 102 102 102 102 102 102 103 103 103 104 104 104 105 105 105 106 106 106 106 106 106 107 107 107 108 108 108 109 109 109 110 110 110 110 110 110 111 111 111 112 112 112 113 113 113 113 113 113 114 114 114 115 115 115 116 116 116 116 116 116 117 117 117 69 36 1 4 3 0 4 3 0 4 3 0 4 3 0 4 3 0 4 3 0 4 3 0 4 3 0 4 3 0 4 3 0 4 3 0 4 3 0 4 3 0 4 3 0 4 3 0 4 3 0 4 3 0 4 3 0 4 3 0 4 3 0 4 3 0 125 125 125 125 125 125 125 125 125 125 125 125 125 125 125 125 125 125 124 124 124 124 124 124 124 124 124 124 124 124 123 123 123 123 123 123 122 122 122 122 122 122 122 122 122 121 121 121 120 120 120 120 120 120 119 119 119 119 119 119 118 118 118 118 118 118 117 117 117 116 116 116 116 116 116 115 115 115 114 114 114 113 113 113 113 113 113 112 112 112 111 111 111 110 110 110 110 110 110 109 109 109 108 108 108 107 107 107 106 106 106 106 106 106 105 105 105 104 104 104 103 103 103 
88 88 88 89 89 89 89 89 89 90 90 90 91 91 91 91 91 91 92 92 92 93 93 93 94 94 94 94 94 94 95 95 95 96 96 96 97 97 97 98 98 98 98 98 98 99 99 99 100 100 100 101 101 101 101 101 101 102 102 102 103 103 103 104 104 104 105 105 105 105 105 105 106 106 106 107 107 107 108 108 108 108 108 108 109 109 109 110 110 110 111 111 111 111 111 111 112 112 112 113 113 113 113 113 113 114 114 114 71 37 1 4 3 0 4 3 0 4 3 0 4 3 0 4 3 0 4 3 0 53 52 50 112 111 109 109 108 106 106 105 102 102 101 99 99 98 95 95 94 92 91 90 88 87 86 84 111 110 107 109 108 105 107 105 103 4 3 0 4 3 0 4 3 0 4 3 0 4 3 0 4 3 0 123 123 123 123 123 123 122 122 122 122 122 122 122 122 122 122 122 122 121 121 121 121 121 121 121 121 121 120 120 120 120 120 120 120 120 120 119 119 119 119 119 119 118 118 118 118 118 118 117 117 117 116 116 116 116 116 116 115 115 115 115 115 115 114 114 114 113 113 113 113 113 113 112 112 112 111 111 111 110 110 110 110 110 110 109 109 109 108 108 108 107 107 107 107 107 107 106 106 106 105 105 105 104 104 104 104 104 104 103 103 103 102 102 102 101 101 101 
86 86 86 87 87 87 88 88 88 88 88 88 89 89 89 90 90 90 91 91 91 91 91 91 92 92 92 93 93 93 94 94 94 94 94 94 95 95 95 96 96 96 97 97 97 97 97 97 98 98 98 99 99 99 100 100 100 100 100 100 101 101 101 102 102 102 103 103 103 103 103 103 104 104 104 105 105 105 106 106 106 106 106 106 107 107 107 108 108 108 109 109 109 109 109 109 110 110 110 111 111 111 69 36 1 74 38 2 4 3 0 4 3 0 4 3 0 4 3 0 4 3 0 4 3 0 60 59 57 57 56 53 117 116 114 114 113 110 111 109 107 107 106 104 103 102 100 100 98 96 96 94 92 91 90 88 116 115 112 114 113 110 112 111 108 109 108 106 107 105 103 4 3 0 4 3 0 4 3 0 4 3 0 4 3 0 120 120 120 120 120 120 120 120 120 120 120 120 119 119 119 119 119 119 119 119 119 118 118 118 118 118 118 118 118 118 117 117 117 117 117 117 116 116 116 116 116 116 115 115 115 115 115 115 114 114 114 113 113 113 113 113 113 112 112 112 112 112 112 111 111 111 110 110 110 110 110 110 109 109 109 108 108 108 107 107 107 107 107 107 106 106 106 105 105 105 104 104 104 104 104 104 103 103 103 102 102 102 101 101 101 101 101 101 100 100 100 99 99 99 
85 85 85 85 85 85 86 86 86 87 87 87 87 87 87 88 88 88 89 89 89 90 90 90 90 90 90 91 91 91 92 92 92 92 92 92 93 93 93 94 94 94 95 95 95 95 95 95 96 96 96 97 97 97 98 98 98 98 98 98 99 99 99 100 100 100 101 101 101 101 101 101 102 102 102 103 103 103 104 104 104 104 104 104 105 105 105 106 106 106 106 106 106 107 107 107 108 108 108 72 37 1 4 3 0 4 3 0 4 3 0 4 3 0 4 3 0 4 3 0 4 3 0 68 67 64 64 63 61 60 59 57 122 121 119 119 118 115 115 114 112 112 111 108 108 107 104 104 103 100 100 99 96 96 94 92 121 120 118 119 118 116 117 116 113 114 113 111 112 110 108 109 108 105 106 104 102 102 101 99 4 3 0 4 3 0 4 3 0 117 117 117 117 117 117 117 117 117 117 117 117 116 116 116 116 116 116 116 116 116 115 115 115 115 115 115 115 115 115 114 114 114 114 114 114 113 113 113 113 113 113 112 112 112 112 112 112 111 111 111 110 110 110 110 110 110 109 109 109 108 108 108 108 108 108 107 107 107 106 106 106 106 106 106 105 105 105 104 104 104 104 104 104 103 103 103 102 102 102 101 101 101 101 101 101 100 100 100 99 99 99 98 98 98 98 98 98 97 97 97 
83 83 83 84 84 84 84 84 84 85 85 85 86 86 86 86 86 86 87 87 87 88 88 88 89 89 89 89 89 89 90 90 90 91 91 91 91 91 91 92 92 92 93 93 93 94 94 94 94 94 94 95 95 95 96 96 96 96 96 96 97 97 97 98 98 98 99 99 99 99 99 99 100 100 100 101 101 101 102 102 102 102 102 102 103 103 103 104 104 104 104 104 104 105 105 105 74 38 2 4 3 0 4 3 0 4 3 0 4 3 0 4 3 0 4 3 0 80 79 76 76 75 72 72 71 68 68 67 64 64 63 60 60 59 56 124 123 120 120 119 117 117 115 113 113 111 109 108 107 105 104 103 101 100 99 96 127 126 123 125 123 121 122 121 119 120 118 116 117 116 113 114 113 110 110 109 107 107 106 103 81 79 77 4 3 0 4 3 0 4 3 0 115 115 115 114 114 114 114 114 114 114 114 114 113 113 113 113 113 113 113 113 113 112 112 112 112 112 112 112 112 112 111 111 111 111 111 111 110 110 110 110 110 110 109 109 109 108 108 108 108 108 108 107 107 107 107 107 107 106 106 106 105 105 105 105 105 105 104 104 104 103 103 103 103 103 103 102 102 102 101 101 101 101 101 101 100 100 100 99 99 99 98 98 98 98 98 98 97 97 97 96 96 96 95 95 95 95 95 95 
81 81 81 82 82 82 83 83 83 83 83 83 84 84 84 85 85 85 85 85 85 86 86 86 87 87 87 87 87 87 88 88 88 89 89 89 89 89 89 90 90 90 91 91 91 92 92 92 92 92 92 93 93 93 94 94 94 94 94 94 95 95 95 96 96 96 97 97 97 97 97 97 98 98 98 99 99 99 99 99 99 100 100 100 101 101 101 101 101 101 72 37 1 45 24 1 4 3 0 4 3 0 4 3 0 4 3 0 4 3 0 4 3 0 88 87 84 84 83 81 80 79 77 76 75 72 72 71 68 68 67 64 63 62 60 129 128 125 125 124 122 121 120 118 117 116 114 49 48 45 45 44 42 42 41 38 112 110 108 130 129 126 128 126 124 125 124 121 122 121 118 119 117 115 115 114 112 112 111 108 86 84 82 84 83 81 4 3 0 4 3 0 4 3 0 112 112 112 111 111 111 111 111 111 111 111 111 110 110 110 110 110 110 110 110 110 109 109 109 109 109 109 108 108 108 108 108 108 107 107 107 107 107 107 106 106 106 106 106 106 105 105 105 105 105 105 104 104 104 103 103 103 103 103 103 102 102 102 102 102 102 101 101 101 100 100 100 100 100 100 99 99 99 98 98 98 97 97 97 97 97 97 96 96 96 95 95 95 95 95 95 94 94 94 93 93 93 93 93 93 
80 80 80 80 80 80 81 81 81 82 82 82 82 82 82 83 83 83 84 84 84 84 84 84 85 85 85 86 86 86 86 86 86 87 87 87 88 88 88 88 88 88 89 89 89 90 90 90 90 90 90 91 91 91 92 92 92 92 92 92 93 93 93 94 94 94 94 94 94 95 95 95 96 96 96 96 96 96 97 97 97 98 98 98 98 98 98 99 99 99 45 23 1 46 24 1 4 3 0 4 3 0 4 3 0 4 3 0 4 3 0 96 95 93 93 91 89 89 87 85 84 83 81 80 79 77 76 75 72 72 70 68 4 3 0 55 54 52 52 51 49 49 48 45 46 45 42 43 41 39 39 38 36 101 100 98 104 103 101 107 106 103 110 108 106 130 129 126 127 126 123 124 123 120 120 119 117 92 91 88 91 90 87 90 89 86 88 87 85 4 3 0 4 3 0 4 3 0 109 109 109 108 108 108 108 108 108 108 108 108 107 107 107 107 107 107 107 107 107 106 106 106 106 106 106 105 105 105 105 105 105 104 104 104 104 104 104 103 103 103 103 103 103 102 102 102 101 101 101 101 101 101 100 100 100 100 100 100 99 99 99 98 98 98 98 98 98 97 97 97 96 96 96 96 96 96 95 95 95 94 94 94 94 94 94 93 93 93 92 92 92 92 92 92 91 91 91 90 90 90 
78 78 78 79 79 79 79 79 79 80 80 80 80 80 80 81 81 81 82 82 82 82 82 82 83 83 83 84 84 84 84 84 84 85 85 85 86 86 86 86 86 86 87 87 87 88 88 88 88 88 88 89 89 89 90 90 90 90 90 90 91 91 91 92 92 92 92 92 92 93 93 93 93 93 93 94 94 94 95 95 95 95 95 95 96 96 96 44 23 1 46 24 1 4 3 0 4 3 0 4 3 0 4 3 0 4 3 0 32 31 29 101 100 98 97 96 94 93 92 90 89 88 85 85 83 81 80 79 76 4 3 0 4 3 0 49 47 45 46 44 42 43 41 39 40 38 36 37 35 33 34 32 30 94 93 90 97 96 93 100 98 96 102 101 98 104 103 101 106 105 103 108 107 105 98 97 95 98 96 94 96 95 93 95 94 92 94 92 90 92 91 88 4 3 0 4 3 0 4 3 0 105 105 105 105 105 105 105 105 105 104 104 104 104 104 104 104 104 104 103 103 103 103 103 103 102 102 102 102 102 102 101 101 101 101 101 101 100 100 100 100 100 100 99 99 99 99 99 99 98 98 98 98 98 98 97 97 97 96 96 96 96 96 96 95 95 95 95 95 95 94 94 94 93 93 93 93 93 93 92 92 92 91 91 91 91 91 91 90 90 90 89 89 89 89 89 89 88 88 88 
76 76 76 77 77 77 77 77 77 78 78 78 79 79 79 79 79 79 80 80 80 80 80 80 81 81 81 82 82 82 82 82 82 83 83 83 84 84 84 84 84 84 85 85 85 85 85 85 86 86 86 87 87 87 87 87 87 88 88 88 89 89 89 89 89 89 90 90 90 91 91 91 91 91 91 92 92 92 92 92 92 93 93 93 94 94 94 45 24 1 47 25 1 4 3 0 4 3 0 4 3 0 4 3 0 4 3 0 35 34 32 32 31 29 102 101 98 98 97 94 93 92 90 89 88 85 4 3 0 4 3 0 4 3 0 42 41 39 39 38 36 37 35 33 34 33 30 31 30 27 4 3 0 87 86 83 89 88 86 92 91 88 94 93 91 97 95 93 99 97 95 100 99 97 70 69 67 103 102 100 102 101 98 101 99 97 99 98 95 97 96 94 95 94 92 4 3 0 4 3 0 4 3 0 102 102 102 102 102 102 102 102 102 101 101 101 101 101 101 100 100 100 100 100 100 100 100 100 99 99 99 99 99 99 98 98 98 98 98 98 97 97 97 97 97 97 96 96 96 96 96 96 95 95 95 94 94 94 94 94 94 93 93 93 93 93 93 92 92 92 91 91 91 91 91 91 90 90 90 89 89 89 89 89 89 88 88 88 88 88 88 87 87 87 86 86 86 86 86 86 
74 74 74 75 75 75 76 76 76 76 76 76 77 77 77 77 77 77 78 78 78 78 78 78 79 79 79 80 80 80 80 80 80 81 81 81 82 82 82 82 82 82 83 83 83 83 83 83 84 84 84 85 85 85 85 85 85 86 86 86 86 86 86 87 87 87 88 88 88 88 88 88 89 89 89 89 89 89 90 90 90 91 91 91 91 91 91 47 24 1 48 25 1 4 3 0 4 3 0 4 3 0 4 3 0 4 3 0 39 37 35 36 34 32 32 31 29 102 101 99 98 97 94 4 3 0 4 3 0 4 3 0 99 99 99 99 99 99 99 99 99 100 100 100 100 100 100 100 100 100 100 100 100 100 100 100 4 3 0 84 83 81 87 85 83 89 88 85 91 90 87 62 61 58 68 67 64 74 73 71 108 107 104 106 105 103 105 103 101 103 102 99 101 100 97 98 97 95 4 3 0 4 3 0 4 3 0 99 99 99 99 99 99 98 98 98 98 98 98 98 98 98 97 97 97 97 97 97 96 96 96 96 96 96 95 95 95 95 95 95 94 94 94 94 94 94 93 93 93 93 93 93 92 92 92 92 92 92 91 91 91 91 91 91 90 90 90 89 89 89 89 89 89 88 88 88 88 88 88 87 87 87 86 86 86 86 86 86 85 85 85 85 85 85 84 84 84 83 83 83 
73 73 73 73 73 73 74 74 74 74 74 74 75 75 75 75 75 75 76 76 76 77 77 77 77 77 77 78 78 78 78 78 78 79 79 79 79 79 79 80 80 80 81 81 81 81 81 81 82 82 82 82 82 82 83 83 83 84 84 84 84 84 84 85 85 85 85 85 85 86 86 86 86 86 86 87 87 87 88 88 88 88 88 88 46 24 1 48 25 1 4 3 0 4 3 0 4 3 0 4 3 0 4 3 0 45 44 42 42 41 39 39 38 35 36 34 32 32 31 29 4 3 0 4 3 0 4 3 0 96 96 96 96 96 96 96 96 96 96 96 96 97 97 97 97 97 97 97 97 97 97 97 97 97 97 97 98 98 98 98 98 98 98 98 98 4 3 0 54 53 50 60 58 56 66 64 62 72 71 68 78 77 75 112 111 109 110 109 107 108 107 105 106 105 103 104 103 100 101 100 98 4 3 0 4 3 0 96 96 96 96 96 96 95 95 95 95 95 95 95 95 95 94 94 94 94 94 94 93 93 93 93 93 93 93 93 93 92 92 92 92 92 92 91 91 91 91 91 91 90 90 90 90 90 90 89 89 89 89 89 89 88 88 88 87 87 87 87 87 87 86 86 86 86 86 86 85 85 85 85 85 85 84 84 84 83 83 83 83 83 83 82 82 82 82 82 82 81 81 81 
71 71 71 71 71 71 72 72 72 72 72 72 73 73 73 73 73 73 74 74 74 75 75 75 75 75 75 76 76 76 76 76 76 77 77 77 77 77 77 78 78 78 78 78 78 79 79 79 80 80 80 80 80 80 81 81 81 81 81 81 82 82 82 82 82 82 83 83 83 84 84 84 84 84 84 85 85 85 85 85 85 86 86 86 47 25 1 49 26 1 4 3 0 4 3 0 4 3 0 4 3 0 4 3 0 49 48 46 46 45 42 42 41 39 39 38 35 4 3 0 4 3 0 4 3 0 92 92 92 93 93 93 93 93 93 93 93 93 94 94 94 94 94 94 94 94 94 94 94 94 94 94 94 94 94 94 95 95 95 95 95 95 95 95 95 95 95 95 4 3 0 57 56 54 63 62 60 69 68 66 76 75 72 82 81 79 116 115 113 114 113 111 112 111 108 109 108 106 46 44 42 4 3 0 4 3 0 4 3 0 93 93 93 92 92 92 92 92 92 92 92 92 91 91 91 91 91 91 91 91 91 90 90 90 90 90 90 89 89 89 89 89 89 88 88 88 88 88 88 87 87 87 87 87 87 86 86 86 86 86 86 85 85 85 85 85 85 84 84 84 84 84 84 83 83 83 83 83 83 82 82 82 81 81 81 81 81 81 80 80 80 80 80 80 79 79 79 79 79 79 
69 69 69 69 69 69 70 70 70 70 70 70 71 71 71 71 71 71 72 72 72 73 73 73 73 73 73 74 74 74 74 74 74 75 75 75 75 75 75 76 76 76 76 76 76 77 77 77 77 77 77 78 78 78 79 79 79 79 79 79 80 80 80 80 80 80 81 81 81 81 81 81 82 82 82 82 82 82 83 83 83 83 83 83 48 25 1 4 3 0 4 3 0 4 3 0 4 3 0 4 3 0 57 56 53 53 52 50 50 49 46 46 45 42 42 41 39 4 3 0 4 3 0 89 89 89 89 89 89 90 90 90 90 90 90 90 90 90 91 91 91 91 91 91 91 91 91 91 91 91 91 91 91 91 91 91 92 92 92 92 92 92 92 92 92 92 92 92 92 92 92 4 3 0 61 59 57 67 65 63 73 72 69 80 78 76 86 85 83 120 119 116 51 50 48 51 50 47 50 49 46 4 3 0 4 3 0 4 3 0 90 90 90 89 89 89 89 89 89 89 89 89 88 88 88 88 88 88 88 88 88 87 87 87 87 87 87 86 86 86 86 86 86 86 86 86 85 85 85 85 85 85 84 84 84 84 84 84 83 83 83 83 83 83 82 82 82 82 82 82 81 81 81 81 81 81 80 80 80 80 80 80 79 79 79 78 78 78 78 78 78 77 77 77 77 77 77 76 76 76 
67 67 67 68 68 68 68 68 68 69 69 69 69 69 69 70 70 70 70 70 70 71 71 71 71 71 71 72 72 72 72 72 72 73 73 73 73 73 73 74 74 74 74 74 74 75 75 75 75 75 75 76 76 76 76 76 76 77 77 77 77 77 77 78 78 78 78 78 78 79 79 79 79 79 79 80 80 80 80 80 80 48 25 1 50 26 1 4 3 0 4 3 0 4 3 0 4 3 0 4 3 0 61 60 58 58 56 54 54 53 50 50 49 46 46 45 42 4 3 0 86 86 86 86 86 86 87 87 87 87 87 87 87 87 87 87 87 87 88 88 88 88 88 88 88 88 88 88 88 88 25 10 10 88 88 88 89 89 89 89 89 89 89 89 89 89 89 89 89 89 89 89 89 89 4 3 0 64 63 60 70 69 66 76 75 73 6 4 2 57 55 53 56 55 53 56 54 52 55 54 51 54 53 50 4 3 0 4 3 0 87 87 87 87 87 87 86 86 86 86 86 86 86 86 86 85 85 85 85 85 85 84 84 84 84 84 84 84 84 84 83 83 83 83 83 83 82 82 82 82 82 82 81 81 81 81 81 81 81 81 81 80 80 80 80 80 80 79 79 79 79 79 79 78 78 78 78 78 78 77 77 77 77 77 77 76 76 76 76 76 76 75 75 75 74 74 74 74 74 74 
65 65 65 66 66 66 66 66 66 67 67 67 67 67 67 68 68 68 68 68 68 69 69 69 69 69 69 70 70 70 70 70 70 70 70 70 71 71 71 71 71 71 72 72 72 72 72 72 73 73 73 73 73 73 74 74 74 74 74 74 75 75 75 75 75 75 76 76 76 76 76 76 77 77 77 77 77 77 78 78 78 49 26 1 51 27 1 4 3 0 4 3 0 4 3 0 4 3 0 4 3 0 66 65 62 62 61 58 58 57 54 54 53 50 4 3 0 4 3 0 83 83 83 83 83 83 84 84 84 84 84 84 84 84 84 85 85 85 85 85 85 26 11 11 36 21 21 36 21 21 15 0 0 17 0 0 38 23 23 15 0 0 86 86 86 86 86 86 86 86 86 86 86 86 86 86 86 4 3 0 67 66 63 5 4 1 6 5 2 62 60 58 61 60 58 60 59 57 60 58 56 59 57 55 4 3 0 4 3 0 4 3 0 84 84 84 83 83 83 83 83 83 83 83 83 82 82 82 82 82 82 82 82 82 81 81 81 81 81 81 80 80 80 80 80 80 80 80 80 79 79 79 79 79 79 78 78 78 78 78 78 77 77 77 77 77 77 76 76 76 76 76 76 76 76 76 75 75 75 75 75 75 74 74 74 74 74 74 73 73 73 73 73 73 72 72 72 72 72 72 
63 63 63 64 64 64 64 64 64 65 65 65 65 65 65 66 66 66 66 66 66 66 66 66 67 67 67 67 67 67 68 68 68 68 68 68 69 69 69 69 69 69 70 70 70 70 70 70 71 71 71 71 71 71 72 72 72 72 72 72 73 73 73 73 73 73 73 73 73 74 74 74 74 74 74 75 75 75 48 25 1 50 26 1 4 3 0 4 3 0 4 3 0 4 3 0 4 3 0 75 73 71 71 69 67 67 65 63 62 61 59 58 57 54 4 3 0 4 3 0 80 80 80 81 81 81 81 81 81 81 81 81 81 81 81 82 82 82 25 10 10 28 13 13 38 0 0 73 13 13 87 14 14 93 14 14 90 13 13 74 13 13 42 16 16 83 83 83 83 83 83 83 83 83 83 83 83 83 83 83 4 3 1 5 4 1 6 5 3 8 7 4 66 65 63 66 64 62 65 64 61 64 63 60 4 3 0 4 3 0 4 3 0 81 81 81 80 80 80 80 80 80 80 80 80 79 79 79 79 79 79 79 79 79 78 78 78 78 78 78 78 78 78 77 77 77 77 77 77 76 76 76 76 76 76 76 76 76 75 75 75 75 75 75 74 74 74 74 74 74 73 73 73 73 73 73 73 73 73 72 72 72 72 72 72 71 71 71 71 71 71 70 70 70 70 70 70 69 69 69 
61 61 61 62 62 62 62 62 62 63 63 63 63 63 63 64 64 64 64 64 64 64 64 64 65 65 65 65 65 65 66 66 66 66 66 66 67 67 67 67 67 67 68 68 68 68 68 68 68 68 68 69 69 69 69 69 69 70 70 70 70 70 70 71 71 71 71 71 71 71 71 71 72 72 72 72 72 72 49 26 1 12 7 0 4 3 1 5 3 1 5 4 2 6 4 2 6 5 3 7 6 3 17 15 13 15 14 11 13 12 9 62 61 59 4 3 0 77 77 77 78 78 78 78 78 78 78 78 78 78 78 78 78 78 78 24 9 9 33 17 17 77 20 20 99 12 12 121 13 13 135 14 14 142 14 14 141 14 14 130 13 13 104 12 12 36 0 0 80 80 80 80 80 80 80 80 80 80 80 80 4 3 1 5 4 2 7 5 3 8 7 5 72 71 68 71 70 68 70 69 67 69 68 65 68 67 64 4 3 0 4 3 0 78 78 78 77 77 77 77 77 77 77 77 77 77 77 77 76 76 76 76 76 76 76 76 76 75 75 75 75 75 75 75 75 75 74 74 74 74 74 74 73 73 73 73 73 73 73 73 73 72 72 72 72 72 72 71 71 71 71 71 71 70 70 70 70 70 70 70 70 70 69 69 69 69 69 69 68 68 68 68 68 68 67 67 67 67 67 67 
60 60 60 60 60 60 60 60 60 61 61 61 61 61 61 62 62 62 62 62 62 62 62 62 63 63 63 63 63 63 64 64 64 64 64 64 65 65 65 65 65 65 65 65 65 66 66 66 66 66 66 67 67 67 67 67 67 67 67 67 68 68 68 68 68 68 69 69 69 69 69 69 69 69 69 70 70 70 12 7 0 12 7 0 13 7 0 5 4 1 6 4 2 6 5 3 7 6 3 8 7 4 19 18 16 17 16 14 15 14 12 13 12 10 4 3 0 74 74 74 75 75 75 75 75 75 75 75 75 75 75 75 76 76 76 24 9 9 66 7 7 107 10 10 136 10 10 157 11 11 172 11 11 179 11 11 180 12 12 171 11 11 150 11 11 106 6 6 77 77 77 77 77 77 77 77 77 77 77 77 4 3 0 5 4 2 7 6 3 9 7 5 78 76 74 77 76 73 76 75 72 75 73 71 73 72 70 4 3 0 4 3 0 4 3 0 75 75 75 74 74 74 74 74 74 74 74 74 73 73 73 73 73 73 73 73 73 72 72 72 72 72 72 72 72 72 71 71 71 71 71 71 71 71 71 70 70 70 70 70 70 70 70 70 69 69 69 69 69 69 68 68 68 68 68 68 68 68 68 67 67 67 67 67 67 66 66 66 66 66 66 65 65 65 65 65 65 65 65 65 
58 58 58 58 58 58 58 58 58 59 59 59 59 59 59 60 60 60 60 60 60 60 60 60 61 61 61 61 61 61 62 62 62 62 62 62 62 62 62 63 63 63 63 63 63 64 64 64 64 64 64 64 64 64 65 65 65 65 65 65 66 66 66 66 66 66 66 66 66 67 67 67 67 67 67 67 67 67 12 7 0 12 7 0 13 7 0 6 4 2 6 5 3 7 6 3 8 6 4 9 7 5 22 21 19 20 19 16 18 17 14 16 14 12 4 3 0 72 72 72 72 72 72 72 72 72 72 72 72 73 73 73 73 73 73 40 0 0 107 14 14 134 4 4 161 2 2 180 1 1 194 1 1 202 1 1 204 2 2 198 4 4 182 6 6 141 0 0 74 74 74 74 74 74 74 74 74 74 74 74 4 3 0 6 4 2 7 6 3 9 8 5 11 10 8 83 82 79 82 80 78 80 79 77 79 78 75 4 3 0 4 3 0 4 3 0 72 72 72 71 71 71 71 71 71 71 71 71 71 71 71 70 70 70 70 70 70 70 70 70 69 69 69 69 69 69 69 69 69 68 68 68 68 68 68 68 68 68 67 67 67 67 67 67 67 67 67 66 66 66 66 66 66 66 66 66 65 65 65 65 65 65 64 64 64 64 64 64 64 64 64 63 63 63 63 63 63 62 62 62 
56 56 56 56 56 56 56 56 56 57 57 57 57 57 57 58 58 58 58 58 58 58 58 58 59 59 59 59 59 59 60 60 60 60 60 60 60 60 60 61 61 61 61 61 61 61 61 61 62 62 62 62 62 62 62 62 62 63 63 63 63 63 63 64 64 64 64 64 64 64 64 64 65 65 65 65 65 65 12 7 0 12 7 0 13 7 0 6 5 2 7 6 3 8 6 4 9 7 5 10 8 6 25 24 22 23 22 19 21 19 17 18 17 15 4 3 0 69 69 69 69 69 69 69 69 69 70 70 70 70 70 70 21 6 6 69 3 3 120 2 2 155 0 0 184 0 0 205 0 0 222 1 1 232 4 4 230 0 0 222 0 0 204 0 0 170 0 0 82 7 7 71 71 71 71 71 71 71 71 71 71 71 71 6 5 2 7 6 4 9 8 6 12 11 8 89 88 85 88 86 84 86 85 83 85 83 81 83 82 79 4 3 0 4 3 0 69 69 69 69 69 69 68 68 68 68 68 68 68 68 68 68 68 68 67 67 67 67 67 67 67 67 67 66 66 66 66 66 66 66 66 66 66 66 66 65 65 65 65 65 65 64 64 64 64 64 64 64 64 64 63 63 63 63 63 63 63 63 63 62 62 62 62 62 62 62 62 62 61 61 61 61 61 61 60 60 60 60 60 60 
54 54 54 54 54 54 55 55 55 55 55 55 55 55 55 56 56 56 56 56 56 56 56 56 57 57 57 57 57 57 57 57 57 58 58 58 58 58 58 58 58 58 59 59 59 59 59 59 60 60 60 60 60 60 60 60 60 61 61 61 61 61 61 61 61 61 62 62 62 62 62 62 62 62 62 63 63 63 63 63 63 13 7 0 13 7 0 7 5 3 7 6 4 8 7 5 9 8 6 11 9 7 29 28 25 26 25 23 24 22 20 21 20 18 19 17 15 66 66 66 67 67 67 67 67 67 67 67 67 67 67 67 67 67 67 81 0 0 140 4 4 179 4 4 204 0 0 227 1 1 255 36 36 255 73 73 255 13 13 242 0 0 223 0 0 189 3 2 68 68 68 68 68 68 68 68 68 68 68 68 68 68 68 4 3 0 4 3 0 4 3 0 4 3 0 21 20 17 20 19 17 20 19 16 19 18 16 4 3 0 4 3 0 4 3 0 66 66 66 66 66 66 66 66 66 65 65 65 65 65 65 65 65 65 65 65 65 64 64 64 64 64 64 64 64 64 64 64 64 63 63 63 63 63 63 63 63 63 62 62 62 62 62 62 62 62 62 61 61 61 61 61 61 61 61 61 60 60 60 60 60 60 60 60 60 59 59 59 59 59 59 59 59 59 58 58 58 58 58 58 
52 52 52 52 52 52 53 53 53 53 53 53 53 53 53 54 54 54 54 54 54 54 54 54 55 55 55 55 55 55 55 55 55 56 56 56 56 56 56 56 56 56 57 57 57 57 57 57 57 57 57 58 58 58 58 58 58 58 58 58 59 59 59 59 59 59 59 59 59 60 60 60 60 60 60 60 60 60 60 60 60 13 7 0 13 7 0 13 7 0 8 7 5 9 8 6 10 9 7 12 11 8 13 12 9 30 29 26 27 26 23 24 23 21 22 20 18 64 64 64 64 64 64 64 64 64 64 64 64 64 64 64 64 64 64 83 0 0 150 3 0 187 1 0 217 0 0 242 2 2 255 55 55 255 99 99 255 14 14 255 0 0 233 0 0 192 2 2 65 65 65 65 65 65 65 65 65 65 65 65 65 65 65 4 3 0 4 3 0 4 3 0 4 3 0 24 23 21 24 23 20 23 22 20 23 21 19 4 3 0 4 3 0 4 3 0 63 63 63 63 63 63 63 63 63 63 63 63 63 63 63 62 62 62 62 62 62 62 62 62 62 62 62 61 61 61 61 61 61 61 61 61 60 60 60 60 60 60 60 60 60 60 60 60 59 59 59 59 59 59 59 59 59 58 58 58 58 58 58 58 58 58 57 57 57 57 57 57 57 57 57 56 56 56 56 56 56 56 56 56 
50 50 50 50 50 50 51 51 51 51 51 51 51 51 51 52 52 52 52 52 52 52 52 52 53 53 53 53 53 53 53 53 53 54 54 54 54 54 54 54 54 54 55 55 55 55 55 55 55 55 55 55 55 55 56 56 56 56 56 56 56 56 56 57 57 57 57 57 57 57 57 57 58 58 58 58 58 58 58 58 58 13 7 0 13 7 0 13 7 0 9 8 5 10 9 7 12 10 8 13 12 9 14 13 11 34 33 30 31 30 27 28 26 24 25 24 21 4 3 0 61 61 61 61 61 61 61 61 61 62 62 62 62 62 62 61 0 0 140 0 0 194 3 0 225 4 3 255 17 17 255 4 4 255 6 6 255 0 0 255 10 9 230 0 0 166 0 0 62 62 62 62 62 62 62 62 62 62 62 62 62 62 62 4 3 0 4 3 0 4 3 0 28 27 25 28 27 24 27 26 24 27 26 23 26 25 22 4 3 0 4 3 0 4 3 0 61 61 61 61 61 61 60 60 60 60 60 60 60 60 60 60 60 60 59 59 59 59 59 59 59 59 59 59 59 59 58 58 58 58 58 58 58 58 58 58 58 58 57 57 57 57 57 57 57 57 57 57 57 57 56 56 56 56 56 56 56 56 56 55 55 55 55 55 55 55 55 55 54 54 54 54 54 54 54 54 54 53 53 53 
48 48 48 49 49 49 49 49 49 49 49 49 49 49 49 50 50 50 50 50 50 50 50 50 51 51 51 51 51 51 51 51 51 52 52 52 52 52 52 52 52 52 52 52 52 53 53 53 53 53 53 53 53 53 54 54 54 54 54 54 54 54 54 54 54 54 55 55 55 55 55 55 55 55 55 55 55 55 56 56 56 13 7 0 13 7 0 13 7 0 10 9 6 11 10 8 13 11 9 14 13 11 16 15 12 38 37 34 35 33 31 31 30 28 28 27 25 4 3 0 59 59 59 59 59 59 59 59 59 59 59 59 59 59 59 59 59 59 113 0 0 174 0 0 222 5 0 241 1 0 255 1 0 255 1 0 255 1 0 243 0 0 201 0 0 60 60 60 60 60 60 60 60 60 60 60 60 60 60 60 60 60 60 4 3 0 4 3 0 4 3 0 32 31 29 32 31 28 31 30 28 31 29 27 30 29 26 4 3 0 4 3 0 4 3 0 58 58 58 58 58 58 58 58 58 58 58 58 57 57 57 57 57 57 57 57 57 57 57 57 56 56 56 56 56 56 56 56 56 56 56 56 56 56 56 55 55 55 55 55 55 55 55 55 54 54 54 54 54 54 54 54 54 54 54 54 53 53 53 53 53 53 53 53 53 53 53 53 52 52 52 52 52 52 52 52 52 51 51 51 
46 46 46 47 47 47 47 47 47 47 47 47 48 48 48 48 48 48 48 48 48 48 48 48 49 49 49 49 49 49 49 49 49 50 50 50 50 50 50 50 50 50 50 50 50 51 51 51 51 51 51 51 51 51 51 51 51 52 52 52 52 52 52 52 52 52 52 52 52 53 53 53 53 53 53 53 53 53 53 53 53 13 7 0 13 7 0 13 7 0 11 10 7 12 11 9 14 13 10 15 14 12 17 16 14 42 41 39 39 38 35 35 34 32 32 31 28 5 4 2 56 56 56 56 56 56 56 56 56 56 56 56 57 57 57 57 57 57 57 57 57 125 0 0 182 0 0 214 0 0 242 4 0 247 4 0 228 0 0 191 0 0 57 57 57 57 57 57 57 57 57 57 57 57 57 57 57 57 57 57 57 57 57 4 3 0 4 3 0 4 3 0 37 36 33 36 35 33 36 34 32 35 34 31 34 33 30 4 3 0 4 3 0 4 3 0 56 56 56 55 55 55 55 55 55 55 55 55 55 55 55 55 55 55 54 54 54 54 54 54 54 54 54 54 54 54 54 54 54 53 53 53 53 53 53 53 53 53 53 53 53 52 52 52 52 52 52 52 52 52 52 52 52 51 51 51 51 51 51 51 51 51 51 51 51 50 50 50 50 50 50 50 50 50 50 50 50 49 49 49 
45 45 45 45 45 45 45 45 45 45 45 45 46 46 46 46 46 46 46 46 46 46 46 46 47 47 47 47 47 47 47 47 47 48 48 48 48 48 48 48 48 48 48 48 48 49 49 49 49 49 49 49 49 49 49 49 49 49 49 49 50 50 50 50 50 50 50 50 50 50 50 50 51 51 51 51 51 51 51 51 51 51 51 51 13 7 0 14 8 0 12 11 8 13 12 10 15 14 11 17 16 13 19 18 15 21 20 17 9 8 6 8 7 5 7 6 4 6 5 3 6 4 2 54 54 54 54 54 54 54 54 54 54 54 54 54 54 54 54 54 54 54 54 54 54 54 54 54 54 54 147 1 1 54 54 54 54 54 54 54 54 54 54 54 54 54 54 54 54 54 54 54 54 54 54 54 54 54 54 54 4 3 0 4 3 0 4 3 0 4 3 0 42 40 38 41 40 37 40 39 37 39 38 36 4 3 0 4 3 0 4 3 0 53 53 53 53 53 53 53 53 53 53 53 53 53 53 53 52 52 52 52 52 52 52 52 52 52 52 52 52 52 52 51 51 51 51 51 51 51 51 51 51 51 51 51 51 51 50 50 50 50 50 50 50 50 50 50 50 50 49 49 49 49 49 49 49 49 49 49 49 49 48 48 48 48 48 48 48 48 48 48 48 48 47 47 47 47 47 47 
43 43 43 43 43 43 43 43 43 44 44 44 44 44 44 44 44 44 44 44 44 45 45 45 45 45 45 45 45 45 45 45 45 46 46 46 46 46 46 46 46 46 46 46 46 46 46 46 47 47 47 47 47 47 47 47 47 47 47 47 48 48 48 48 48 48 48 48 48 48 48 48 48 48 48 49 49 49 49 49 49 49 49 49 13 7 0 14 8 0 14 8 0 14 13 11 16 15 13 18 17 15 83 81 79 88 87 84 11 10 8 10 9 7 9 8 5 8 7 4 7 6 3 6 5 2 51 51 51 51 51 51 51 51 51 52 52 52 52 52 52 52 52 52 52 52 52 52 52 52 52 52 52 52 52 52 52 52 52 52 52 52 52 52 52 52 52 52 52 52 52 52 52 52 52 52 52 52 52 52 4 3 0 4 3 0 4 3 0 5 4 1 47 46 43 46 45 43 45 44 42 44 43 41 4 3 0 4 3 0 4 3 0 51 51 51 51 51 51 50 50 50 50 50 50 50 50 50 50 50 50 50 50 50 50 50 50 49 49 49 49 49 49 49 49 49 49 49 49 49 49 49 48 48 48 48 48 48 48 48 48 48 48 48 48 48 48 47 47 47 47 47 47 47 47 47 47 47 47 47 47 47 46 46 46 46 46 46 46 46 46 46 46 46 45 45 45 45 45 45 
41 41 41 41 41 41 42 42 42 42 42 42 42 42 42 42 42 42 42 42 42 43 43 43 43 43 43 43 43 43 43 43 43 44 44 44 44 44 44 44 44 44 44 44 44 44 44 44 45 45 45 45 45 45 45 45 45 45 45 45 45 45 45 46 46 46 46 46 46 46 46 46 46 46 46 46 46 46 47 47 47 47 47 47 13 7 0 14 8 0 14 8 0 16 14 12 74 73 71 80 78 76 85 84 81 90 89 87 96 95 92 12 11 9 11 10 8 10 9 6 9 7 5 7 6 4 4 3 0 49 49 49 49 49 49 49 49 49 49 49 49 49 49 49 49 49 49 49 49 49 49 49 49 49 49 49 49 49 49 49 49 49 49 49 49 49 49 49 49 49 49 49 49 49 49 49 49 4 3 0 4 3 0 4 3 0 6 5 2 6 5 2 6 4 2 5 4 2 51 49 47 50 48 46 4 3 0 4 3 0 4 3 0 48 48 48 48 48 48 48 48 48 48 48 48 48 48 48 48 48 48 47 47 47 47 47 47 47 47 47 47 47 47 47 47 47 47 47 47 46 46 46 46 46 46 46 46 46 46 46 46 46 46 46 45 45 45 45 45 45 45 45 45 45 45 45 45 45 45 44 44 44 44 44 44 44 44 44 44 44 44 44 44 44 43 43 43 43 43 43 
39 39 39 40 40 40 40 40 40 40 40 40 40 40 40 40 40 40 41 41 41 41 41 41 41 41 41 41 41 41 41 41 41 42 42 42 42 42 42 42 42 42 42 42 42 42 42 42 43 43 43 43 43 43 43 43 43 43 43 43 43 43 43 44 44 44 44 44 44 44 44 44 44 44 44 44 44 44 44 44 44 45 45 45 13 7 0 14 8 0 14 8 0 71 70 68 76 75 73 81 80 78 87 86 83 92 91 89 98 97 95 104 103 100 14 13 10 12 11 9 11 9 7 9 8 6 8 7 4 4 3 0 47 47 47 47 47 47 47 47 47 47 47 47 47 47 47 47 47 47 47 47 47 47 47 47 47 47 47 47 47 47 47 47 47 47 47 47 47 47 47 47 47 47 4 3 0 4 3 0 4 3 0 8 7 4 7 6 4 7 6 4 7 6 3 6 5 3 6 5 2 6 5 2 4 3 0 4 3 0 4 3 0 46 46 46 46 46 46 46 46 46 46 46 46 45 45 45 45 45 45 45 45 45 45 45 45 45 45 45 45 45 45 45 45 45 44 44 44 44 44 44 44 44 44 44 44 44 44 44 44 43 43 43 43 43 43 43 43 43 43 43 43 43 43 43 43 43 43 42 42 42 42 42 42 42 42 42 42 42 42 42 42 42 41 41 41 41 41 41 
38 38 38 38 38 38 38 38 38 38 38 38 38 38 38 39 39 39 39 39 39 39 39 39 39 39 39 39 39 39 40 40 40 40 40 40 40 40 40 40 40 40 40 40 40 40 40 40 41 41 41 41 41 41 41 41 41 41 41 41 41 41 41 42 42 42 42 42 42 42 42 42 42 42 42 42 42 42 42 42 42 42 42 42 13 7 0 4 3 0 4 3 0 4 3 0 78 77 74 83 82 80 89 88 85 94 93 91 100 99 97 106 105 103 113 111 109 15 14 11 13 12 10 12 10 8 10 9 6 9 7 5 4 3 0 44 44 44 44 44 44 44 44 44 45 45 45 45 45 45 45 45 45 45 45 45 45 45 45 45 45 45 45 45 45 45 45 45 45 45 45 4 3 0 4 3 0 4 3 0 10 9 7 10 9 6 9 8 6 9 8 5 8 7 5 8 7 4 8 6 4 4 3 1 4 3 0 4 3 0 4 3 0 44 44 44 44 44 44 43 43 43 43 43 43 43 43 43 43 43 43 43 43 43 43 43 43 43 43 43 42 42 42 42 42 42 42 42 42 42 42 42 42 42 42 42 42 42 42 42 42 41 41 41 41 41 41 41 41 41 41 41 41 41 41 41 41 41 41 40 40 40 40 40 40 40 40 40 40 40 40 40 40 40 39 39 39 39 39 39 
36 36 36 36 36 36 36 36 36 36 36 36 37 37 37 37 37 37 37 37 37 37 37 37 37 37 37 38 38 38 38 38 38 38 38 38 38 38 38 38 38 38 38 38 38 39 39 39 39 39 39 39 39 39 39 39 39 39 39 39 39 39 39 39 39 39 40 40 40 40 40 40 40 40 40 40 40 40 40 40 40 40 40 40 40 40 40 4 3 0 4 3 0 4 3 0 4 3 0 85 83 81 90 89 87 96 95 93 102 101 99 109 107 105 115 114 111 121 120 118 16 15 13 14 13 11 12 11 9 11 9 7 9 8 5 4 3 0 23 12 0 22 12 0 42 42 42 42 42 42 42 42 42 42 42 42 42 42 42 42 42 42 42 42 42 21 11 0 22 12 0 4 3 0 4 3 0 13 12 9 13 11 9 12 11 9 12 10 8 11 10 8 11 9 7 10 9 6 6 4 2 4 3 1 4 3 0 4 3 0 4 3 0 41 41 41 41 41 41 41 41 41 41 41 41 41 41 41 41 41 41 41 41 41 41 41 41 40 40 40 40 40 40 40 40 40 40 40 40 40 40 40 40 40 40 40 40 40 39 39 39 39 39 39 39 39 39 39 39 39 39 39 39 39 39 39 39 39 39 38 38 38 38 38 38 38 38 38 38 38 38 38 38 38 37 37 37 37 37 37 
34 34 34 34 34 34 35 35 35 35 35 35 35 35 35 35 35 35 35 35 35 35 35 35 36 36 36 36 36 36 36 36 36 36 36 36 36 36 36 36 36 36 36 36 36 37 37 37 37 37 37 37 37 37 37 37 37 37 37 37 37 37 37 38 38 38 38 38 38 38 38 38 38 38 38 38 38 38 38 38 38 38 38 38 38 38 38 39 39 39 4 3 0 4 3 0 4 3 0 4 3 0 92 91 88 98 97 94 104 103 100 110 109 107 117 116 113 124 122 120 130 129 127 17 16 14 15 14 12 13 12 10 5 4 1 4 3 1 4 3 0 4 3 0 4 3 0 23 12 0 22 12 0 22 12 0 22 12 0 23 12 0 23 12 0 23 12 0 4 3 0 4 3 0 4 3 0 16 15 12 15 14 12 15 14 11 14 13 11 14 13 10 13 12 10 7 6 4 6 4 2 4 3 1 4 3 0 4 3 0 39 39 39 39 39 39 39 39 39 39 39 39 39 39 39 39 39 39 39 39 39 39 39 39 38 38 38 38 38 38 38 38 38 38 38 38 38 38 38 38 38 38 38 38 38 38 38 38 37 37 37 37 37 37 37 37 37 37 37 37 37 37 37 37 37 37 37 37 37 36 36 36 36 36 36 36 36 36 36 36 36 36 36 36 36 36 36 35 35 35 
33 33 33 33 33 33 33 33 33 33 33 33 33 33 33 33 33 33 33 33 33 34 34 34 34 34 34 34 34 34 34 34 34 34 34 34 34 34 34 34 34 34 35 35 35 35 35 35 35 35 35 35 35 35 35 35 35 35 35 35 35 35 35 36 36 36 36 36 36 36 36 36 36 36 36 36 36 36 36 36 36 36 36 36 36 36 36 37 37 37 37 37 37 4 3 0 4 3 0 4 3 0 4 3 0 99 98 96 106 104 102 112 111 108 119 118 115 125 124 122 132 131 129 139 138 136 19 17 15 6 5 3 6 5 2 5 4 2 5 4 1 4 3 1 4 3 1 4 3 0 4 3 0 4 3 0 4 3 1 4 3 1 4 3 1 4 3 0 4 3 0 4 3 0 4 3 0 4 3 0 19 18 15 18 17 15 18 16 14 17 16 13 10 9 6 7 6 4 5 4 2 4 3 1 4 3 0 4 3 0 37 37 37 37 37 37 37 37 37 37 37 37 37 37 37 37 37 37 37 37 37 37 37 37 36 36 36 36 36 36 36 36 36 36 36 36 36 36 36 36 36 36 36 36 36 36 36 36 35 35 35 35 35 35 35 35 35 35 35 35 35 35 35 35 35 35 35 35 35 35 35 35 34 34 34 34 34 34 34 34 34 34 34 34 34 34 34 34 34 34 
31 31 31 31 31 31 31 31 31 31 31 31 31 31 31 32 32 32 32 32 32 32 32 32 32 32 32 32 32 32 32 32 32 32 32 32 33 33 33 33 33 33 33 33 33 33 33 33 33 33 33 33 33 33 33 33 33 33 33 33 34 34 34 34 34 34 34 34 34 34 34 34 34 34 34 34 34 34 34 34 34 34 34 34 34 34 34 35 35 35 35 35 35 35 35 35 4 3 0 4 3 0 4 3 0 4 3 0 107 106 103 113 112 110 120 119 117 127 126 124 134 133 131 141 140 138 148 147 145 8 7 5 8 6 4 7 6 3 6 5 3 6 4 2 5 4 1 4 3 1 4 3 1 4 3 0 6 4 2 5 4 2 5 4 1 5 3 1 4 3 1 4 3 1 4 3 0 4 3 0 4 3 0 22 21 18 21 20 18 13 12 10 10 9 6 7 6 4 5 4 2 4 3 1 4 3 0 35 35 35 35 35 35 35 35 35 35 35 35 35 35 35 35 35 35 35 35 35 35 35 35 35 35 35 34 34 34 34 34 34 34 34 34 34 34 34 34 34 34 34 34 34 34 34 34 34 34 34 34 34 34 33 33 33 33 33 33 33 33 33 33 33 33 33 33 33 33 33 33 33 33 33 33 33 33 32 32 32 32 32 32 32 32 32 32 32 32 32 32 32 
29 29 29 29 29 29 30 30 30 30 30 30 30 30 30 30 30 30 30 30 30 30 30 30 30 30 30 30 30 30 31 31 31 31 31 31 31 31 31 31 31 31 31 31 31 31 31 31 31 31 31 31 31 31 31 31 31 32 32 32 32 32 32 32 32 32 32 32 32 32 32 32 32 32 32 32 32 32 32 32 32 32 32 32 32 32 32 33 33 33 33 33 33 33 33 33 33 33 33 4 3 0 4 3 0 4 3 0 4 3 0 114 113 111 121 120 118 128 127 125 136 134 132 143 142 139 214 212 210 218 217 214 222 221 218 9 8 5 8 7 4 7 6 4 6 5 3 6 4 2 5 4 1 4 3 1 7 6 3 7 5 3 6 5 3 6 5 2 5 4 2 5 4 1 5 3 1 4 3 1 4 3 0 4 3 0 17 16 13 13 12 9 10 8 6 7 6 3 5 4 2 4 3 0 33 33 33 33 33 33 33 33 33 33 33 33 33 33 33 33 33 33 33 33 33 33 33 33 33 33 33 33 33 33 32 32 32 32 32 32 32 32 32 32 32 32 32 32 32 32 32 32 32 32 32 32 32 32 32 32 32 32 32 32 31 31 31 31 31 31 31 31 31 31 31 31 31 31 31 31 31 31 31 31 31 31 31 31 31 31 31 30 30 30 30 30 30 30 30 30 
28 28 28 28 28 28 28 28 28 28 28 28 28 28 28 28 28 28 28 28 28 29 29 29 29 29 29 29 29 29 29 29 29 29 29 29 29 29 29 29 29 29 29 29 29 29 29 29 30 30 30 30 30 30 30 30 30 30 30 30 30 30 30 30 30 30 30 30 30 30 30 30 30 30 30 30 30 30 30 30 30 31 31 31 31 31 31 31 31 31 31 31 31 31 31 31 31 31 31 4 3 0 4 3 0 4 3 0 4 3 0 115 114 111 122 121 118 129 128 126 137 135 133 144 143 140 212 211 208 216 215 213 220 219 216 223 222 220 226 225 222 228 227 225 8 7 5 7 6 4 6 5 3 5 4 2 9 8 6 9 7 5 8 7 4 7 6 4 7 6 3 6 5 3 6 5 2 103 102 100 93 92 90 84 83 80 17 15 13 13 11 9 9 8 6 7 6 3 4 3 0 31 31 31 31 31 31 31 31 31 31 31 31 31 31 31 31 31 31 31 31 31 31 31 31 31 31 31 31 31 31 31 31 31 31 31 31 30 30 30 30 30 30 30 30 30 30 30 30 30 30 30 30 30 30 30 30 30 30 30 30 30 30 30 30 30 30 30 30 30 29 29 29 29 29 29 29 29 29 29 29 29 29 29 29 29 29 29 29 29 29 29 29 29 29 29 29 28 28 28 
26 26 26 26 26 26 26 26 26 26 26 26 27 27 27 27 27 27 27 27 27 27 27 27 27 27 27 27 27 27 27 27 27 27 27 27 27 27 27 27 27 27 28 28 28 28 28 28 28 28 28 28 28 28 28 28 28 28 28 28 28 28 28 28 28 28 28 28 28 28 28 28 28 28 28 29 29 29 29 29 29 29 29 29 29 29 29 29 29 29 29 29 29 29 29 29 29 29 29 29 29 29 4 3 0 4 3 0 4 3 0 4 3 0 122 121 119 130 129 126 137 136 134 205 204 201 210 208 206 214 213 210 218 216 214 221 220 217 224 222 220 226 224 222 227 226 223 227 226 224 227 226 224 7 6 3 6 5 2 11 10 8 150 149 147 140 139 137 130 129 127 120 119 117 110 109 107 100 99 97 91 89 87 81 80 78 16 15 13 12 11 9 9 8 5 7 5 3 29 29 29 29 29 29 29 29 29 29 29 29 29 29 29 29 29 29 29 29 29 29 29 29 29 29 29 29 29 29 29 29 29 29 29 29 29 29 29 29 29 29 29 29 29 28 28 28 28 28 28 28 28 28 28 28 28 28 28 28 28 28 28 28 28 28 28 28 28 28 28 28 28 28 28 28 28 28 27 27 27 27 27 27 27 27 27 27 27 27 27 27 27 27 27 27 27 27 27 27 27 27 
25 25 25 25 25 25 25 25 25 25 25 25 25 25 25 25 25 25 25 25 25 25 25 25 25 25 25 25 25 25 26 26 26 26 26 26 26 26 26 26 26 26 26 26 26 26 26 26 26 26 26 26 26 26 26 26 26 26 26 26 26 26 26 26 26 26 27 27 27 27 27 27 27 27 27 27 27 27 27 27 27 27 27 27 27 27 27 27 27 27 27 27 27 27 27 27 27 27 27 27 27 27 27 27 27 4 3 0 4 3 0 4 3 0 4 3 0 130 129 126 197 196 193 202 201 198 206 205 203 211 210 207 214 213 211 218 216 214 220 219 217 222 221 219 223 222 220 224 223 220 224 222 220 223 221 219 221 219 217 156 155 152 146 145 143 137 135 133 127 125 123 117 115 113 107 106 103 97 96 93 88 86 84 78 77 75 70 68 66 12 10 8 9 7 5 28 28 28 27 27 27 27 27 27 27 27 27 27 27 27 27 27 27 27 27 27 27 27 27 27 27 27 27 27 27 27 27 27 27 27 27 27 27 27 27 27 27 27 27 27 27 27 27 27 27 27 27 27 27 27 27 27 26 26 26 26 26 26 26 26 26 26 26 26 26 26 26 26 26 26 26 26 26 26 26 26 26 26 26 26 26 26 26 26 26 26 26 26 25 25 25 25 25 25 25 25 25 25 25 25 
23 23 23 23 23 23 23 23 23 23 23 23 23 23 23 24 24 24 24 24 24 24 24 24 24 24 24 24 24 24 24 24 24 24 24 24 24 24 24 24 24 24 24 24 24 24 24 24 24 24 24 24 24 24 25 25 25 25 25 25 25 25 25 25 25 25 25 25 25 25 25 25 25 25 25 25 25 25 25 25 25 25 25 25 25 25 25 25 25 25 25 25 25 25 25 25 25 25 25 25 25 25 25 25 25 26 26 26 4 3 0 4 3 0 4 3 0 4 3 0 4 3 0 198 197 195 203 202 199 207 206 203 211 209 207 214 213 210 216 215 213 218 217 214 219 218 216 220 218 216 219 218 216 218 217 215 160 159 157 151 150 148 142 141 138 132 131 129 122 121 119 113 111 109 103 102 99 93 92 90 84 83 81 75 74 72 67 65 63 11 10 8 4 3 0 26 26 26 26 26 26 26 26 26 26 26 26 26 26 26 26 26 26 25 25 25 25 25 25 25 25 25 25 25 25 25 25 25 25 25 25 25 25 25 25 25 25 25 25 25 25 25 25 25 25 25 25 25 25 25 25 25 25 25 25 25 25 25 25 25 25 25 25 25 24 24 24 24 24 24 24 24 24 24 24 24 24 24 24 24 24 24 24 24 24 24 24 24 24 24 24 24 24 24 24 24 24 24 24 24 
22 22 22 22 22 22 22 22 22 22 22 22 22 22 22 22 22 22 22 22 22 22 22 22 22 22 22 22 22 22 22 22 22 22 22 22 23 23 23 23 23 23 23 23 23 23 23 23 23 23 23 23 23 23 23 23 23 23 23 23 23 23 23 23 23 23 23 23 23 23 23 23 23 23 23 23 23 23 23 23 23 23 23 23 23 23 23 24 24 24 24 24 24 24 24 24 24 24 24 24 24 24 24 24 24 24 24 24 24 24 24 4 3 0 4 3 0 4 3 0 4 3 0 4 3 0 4 3 0 4 3 0 206 205 202 209 208 205 211 210 208 213 212 210 214 213 211 215 213 211 214 213 211 213 212 209 155 154 152 146 145 143 137 136 133 128 126 124 118 117 114 108 107 105 99 98 95 90 88 86 80 79 77 4 3 0 4 3 0 4 3 0 24 24 24 24 24 24 24 24 24 24 24 24 24 24 24 24 24 24 24 24 24 24 24 24 24 24 24 24 24 24 24 24 24 24 24 24 23 23 23 23 23 23 23 23 23 23 23 23 23 23 23 23 23 23 23 23 23 23 23 23 23 23 23 23 23 23 23 23 23 23 23 23 23 23 23 23 23 23 23 23 23 23 23 23 23 23 23 22 22 22 22 22 22 22 22 22 22 22 22 22 22 22 22 22 22 22 22 22 
20 20 20 20 20 20 20 20 20 20 20 20 20 20 20 21 21 21 21 21 21 21 21 21 21 21 21 21 21 21 21 21 21 21 21 21 21 21 21 21 21 21 21 21 21 21 21 21 21 21 21 21 21 21 21 21 21 21 21 21 21 21 21 21 21 21 22 22 22 22 22 22 22 22 22 22 22 22 22 22 22 22 22 22 22 22 22 22 22 22 22 22 22 22 22 22 22 22 22 22 22 22 22 22 22 22 22 22 22 22 22 22 22 22 4 3 0 4 3 0 4 3 0 4 3 0 4 3 0 4 3 0 4 3 0 4 3 0 4 3 0 208 207 204 209 208 205 209 208 205 209 207 205 207 206 204 150 149 146 141 140 137 132 131 128 122 121 119 113 112 109 104 102 100 4 3 0 4 3 0 4 3 0 4 3 0 4 3 0 22 22 22 22 22 22 22 22 22 22 22 22 22 22 22 22 22 22 22 22 22 22 22 22 22 22 22 22 22 22 22 22 22 22 22 22 22 22 22 22 22 22 22 22 22 22 22 22 22 22 22 22 22 22 22 22 22 22 22 22 21 21 21 21 21 21 21 21 21 21 21 21 21 21 21 21 21 21 21 21 21 21 21 21 21 21 21 21 21 21 21 21 21 21 21 21 21 21 21 21 21 21 21 21 21 21 21 21 21 21 21 
19 19 19 19 19 19 19 19 19 19 19 19 19 19 19 19 19 19 19 19 19 19 19 19 19 19 19 19 19 19 19 19 19 19 19 19 19 19 19 20 20 20 20 20 20 20 20 20 20 20 20 20 20 20 20 20 20 20 20 20 20 20 20 20 20 20 20 20 20 20 20 20 20 20 20 20 20 20 20 20 20 20 20 20 20 20 20 20 20 20 20 20 20 20 20 20 20 20 20 20 20 20 20 20 20 20 20 20 20 20 20 20 20 20 20 20 20 21 21 21 21 21 21 21 21 21 4 3 0 4 3 0 4 3 0 4 3 0 4 3 0 4 3 0 4 3 0 4 3 0 4 3 0 201 200 197 144 142 140 135 134 131 4 3 0 4 3 0 4 3 0 4 3 0 4 3 0 4 3 0 4 3 0 21 21 21 21 21 21 21 21 21 21 21 21 20 20 20 20 20 20 20 20 20 20 20 20 20 20 20 20 20 20 20 20 20 20 20 20 20 20 20 20 20 20 20 20 20 20 20 20 20 20 20 20 20 20 20 20 20 20 20 20 20 20 20 20 20 20 20 20 20 20 20 20 20 20 20 20 20 20 20 20 20 20 20 20 20 20 20 20 20 20 19 19 19 19 19 19 19 19 19 19 19 19 19 19 19 19 19 19 19 19 19 19 19 19 19 19 19 
17 17 17 17 17 17 18 18 18 18 18 18 18 18 18 18 18 18 18 18 18 18 18 18 18 18 18 18 18 18 18 18 18 18 18 18 18 18 18 18 18 18 18 18 18 18 18 18 18 18 18 18 18 18 18 18 18 18 18 18 18 18 18 18 18 18 18 18 18 18 18 18 18 18 18 19 19 19 19 19 19 19 19 19 19 19 19 19 19 19 19 19 19 19 19 19 19 19 19 19 19 19 19 19 19 19 19 19 19 19 19 19 19 19 19 19 19 19 19 19 19 19 19 19 19 19 19 19 19 19 19 19 19 19 19 4 3 0 4 3 0 4 3 0 4 3 0 4 3 0 4 3 0 4 3 0 4 3 0 4 3 0 4 3 0 4 3 0 4 3 0 19 19 19 19 19 19 19 19 19 19 19 19 19 19 19 19 19 19 19 19 19 19 19 19 19 19 19 19 19 19 19 19 19 19 19 19 19 19 19 19 19 19 19 19 19 19 19 19 19 19 19 19 19 19 19 19 19 19 19 19 19 19 19 19 19 19 18 18 18 18 18 18 18 18 18 18 18 18 18 18 18 18 18 18 18 18 18 18 18 18 18 18 18 18 18 18 18 18 18 18 18 18 18 18 18 18 18 18 18 18 18 18 18 18 18 18 18 18 18 18 18 18 18 18 18 18 18 18 18 
16 16 16 16 16 16 16 16 16 16 16 16 16 16 16 16 16 16 16 16 16 16 16 16 16 16 16 16 16 16 16 16 16 17 17 17 17 17 17 17 17 17 17 17 17 17 17 17 17 17 17 17 17 17 17 17 17 17 17 17 17 17 17 17 17 17 17 17 17 17 17 17 17 17 17 17 17 17 17 17 17 17 17 17 17 17 17 17 17 17 17 17 17 17 17 17 17 17 17 17 17 17 17 17 17 17 17 17 17 17 17 17 17 17 17 17 17 17 17 17 17 17 17 17 17 17 17 17 17 17 17 17 17 17 17 17 17 17 17 17 17 17 17 17 4 3 0 4 3 0 4 3 0 4 3 0 4 3 0 17 17 17 17 17 17 17 17 17 17 17 17 17 17 17 17 17 17 17 17 17 17 17 17 17 17 17 17 17 17 17 17 17 17 17 17 17 17 17 17 17 17 17 17 17 17 17 17 17 17 17 17 17 17 17 17 17 17 17 17 17 17 17 17 17 17 17 17 17 17 17 17 17 17 17 17 17 17 17 17 17 17 17 17 17 17 17 17 17 17 17 17 17 17 17 17 17 17 17 17 17 17 17 17 17 17 17 17 17 17 17 17 17 17 17 17 17 16 16 16 16 16 16 16 16 16 16 16 16 16 16 16 16 16 16 16 16 16 16 16 16 
15 15 15 15 15 15 15 15 15 15 15 15 15 15 15 15 15 15 15 15 15 15 15 15 15 15 15 15 15 15 15 15 15 15 15 15 15 15 15 15 15 15 15 15 15 15 15 15 15 15 15 15 15 15 15 15 15 15 15 15 15 15 15 15 15 15 15 15 15 15 15 15 15 15 15 16 16 16 16 16 16 16 16 16 16 16 16 16 16 16 16 16 16 16 16 16 16 16 16 16 16 16 16 16 16 16 16 16 16 16 16 16 16 16 16 16 16 16 16 16 16 16 16 16 16 16 16 16 16 16 16 16 16 16 16 16 16 16 16 16 16 16 16 16 16 16 16 16 16 16 16 16 16 16 16 16 16 16 16 16 16 16 16 16 16 16 16 16 16 16 16 16 16 16 16 16 16 16 16 16 16 16 16 16 16 16 16 16 16 16 16 16 16 16 16 16 16 16 16 16 16 16 16 16 16 16 16 16 16 16 16 16 16 16 16 16 16 16 16 16 16 16 16 16 16 16 16 16 16 16 16 16 16 16 15 15 15 15 15 15 15 15 15 15 15 15 15 15 15 15 15 15 15 15 15 15 15 15 15 15 15 15 15 15 15 15 15 15 15 15 15 15 15 15 15 15 15 15 15 15 15 15 15 15 15 15 15 15 15 15 15 15 15 15 15 15 15 15 15 15 
13 13 13 13 13 13 13 13 13 14 14 14 14 14 14 14 14 14 14 14 14 14 14 14 14 14 14 14 14 14 14 14 14 14 14 14 14 14 14 14 14 14 14 14 14 14 14 14 14 14 14 14 14 14 14 14 14 14 14 14 14 14 14 14 14 14 14 14 14 14 14 14 14 14 14 14 14 14 14 14 14 14 14 14 14 14 14 14 14 14 14 14 14 14 14 14 14 14 14 14 14 14 14 14 14 14 14 14 14 14 14 14 14 14 14 14 14 14 14 14 14 14 14 14 14 14 14 14 14 14 14 14 14 14 14 14 14 14 14 14 14 14 14 14 14 14 14 14 14 14 14 14 14 14 14 14 14 14 14 14 14 14 14 14 14 14 14 14 14 14 14 14 14 14 14 14 14 14 14 14 14 14 14 14 14 14 14 14 14 14 14 14 14 14 14 14 14 14 14 14 14 14 14 14 14 14 14 14 14 14 14 14 14 14 14 14 14 14 14 14 14 14 14 14 14 14 14 14 14 14 14 14 14 14 14 14 14 14 14 14 14 14 14 14 14 14 14 14 14 14 14 14 14 14 14 14 14 14 14 14 14 14 14 14 14 14 14 14 14 14 14 14 14 14 14 14 14 14 14 14 14 14 14 14 14 14 14 14 14 14 14 14 14 14 14 14 14 14 14 14 
12 12 12 12 12 12 12 12 12 12 12 12 12 12 12 12 12 12 12 12 12 12 12 12 12 12 12 12 12 12 12 12 12 12 12 12 12 12 12 12 12 12 12 12 12 12 12 12 12 12 12 13 13 13 13 13 13 13 13 13 13 13 13 13 13 13 13 13 13 13 13 13 13 13 13 13 13 13 13 13 13 13 13 13 13 13 13 13 13 13 13 13 13 13 13 13 13 13 13 13 13 13 13 13 13 13 13 13 13 13 13 13 13 13 13 13 13 13 13 13 13 13 13 13 13 13 13 13 13 13 13 13 13 13 13 13 13 13 13 13 13 13 13 13 13 13 13 13 13 13 13 13 13 13 13 13 13 13 13 13 13 13 13 13 13 13 13 13 13 13 13 13 13 13 13 13 13 13 13 13 13 13 13 13 13 13 13 13 13 13 13 13 13 13 13 13 13 13 13 13 13 13 13 13 13 13 13 13 13 13 13 13 13 13 13 13 13 13 13 13 13 13 13 13 13 13 13 13 13 13 13 13 13 13 13 13 13 13 13 13 13 13 13 13 13 13 13 13 13 13 13 13 13 13 13 12 12 12 12 12 12 12 12 12 12 12 12 12 12 12 12 12 12 12 12 12 12 12 12 12 12 12 12 12 12 12 12 12 12 12 12 12 12 12 12 12 12 12 12 12 
11 11 11 11 11 11 11 11 11 11 11 11 11 11 11 11 11 11 11 11 11 11 11 11 11 11 11 11 11 11 11 11 11 11 11 11 11 11 11 11 11 11 11 11 11 11 11 11 11 11 11 11 11 11 11 11 11 11 11 11 11 11 11 11 11 11 11 11 11 11 11 11 11 11 11 11 11 11 11 11 11 11 11 11 11 11 11 11 11 11 11 11 11 11 11 11 11 11 11 11 11 11 11 11 11 11 11 11 11 11 11 11 11 11 11 11 11 11 11 11 11 11 11 11 11 11 11 11 11 11 11 11 11 11 11 11 11 11 11 11 11 11 11 11 11 11 11 11 11 11 11 11 11 11 11 11 11 11 11 11 11 11 11 11 11 11 11 11 11 11 11 11 11 11 11 11 11 11 11 11 11 11 11 11 11 11 11 11 11 11 11 11 11 11 11 11 11 11 11 11 11 11 11 11 11 11 11 11 11 11 11 11 11 11 11 11 11 11 11 11 11 11 11 11 11 11 11 11 11 11 11 11 11 11 11 11 11 11 11 11 11 11 11 11 11 11 11 11 11 11 11 11 11 11 11 11 11 11 11 11 11 11 11 11 11 11 11 11 11 11 11 11 11 11 11 11 11 11 11 11 11 11 11 11 11 11 11 11 11 11 11 11 11 11 11 11 11 11 11 11 
10 10 10 10 10 10 10 10 10 10 10 10 10 10 10 10 10 10 10 10 10 10 10 10 10 10 10 10 10 10 10 10 10 10 10 10 10 10 10 10 10 10 10 10 10 10 10 10 10 10 10 10 10 10 10 10 10 10 10 10 10 10 10 10 10 10 10 10 10 10 10 10 10 10 10 10 10 10 10 10 10 10 10 10 10 10 10 10 10 10 10 10 10 10 10 10 10 10 10 10 10 10 10 10 10 10 10 10 10 10 10 10 10 10 10 10 10 10 10 10 10 10 10 10 10 10 10 10 10 10 10 10 10 10 10 10 10 10 10 10 10 10 10 10 10 10 10 10 10 10 10 10 10 10 10 10 10 10 10 10 10 10 10 10 10 10 10 10 10 10 10 10 10 10 10 10 10 10 10 10 10 10 10 10 10 10 10 10 10 10 10 10 10 10 10 10 10 10 10 10 10 10 10 10 10 10 10 10 10 10 10 10 10 10 10 10 10 10 10 10 10 10 10 10 10 10 10 10 10 10 10 10 10 10 10 10 10 10 10 10 10 10 10 10 10 10 10 10 10 10 10 10 10 10 10 10 10 10 10 10 10 10 10 10 10 10 10 10 10 10 10 10 10 10 10 10 10 10 10 10 10 10 10 10 10 10 10 10 10 10 10 10 10 10 10 10 10 10 10 10 
8 8 8 8 8 8 8 8 8 8 8 8 8 8 8 8 8 8 8 8 8 9 9 9 9 9 9 9 9 9 9 9 9 9 9 9 9 9 9 9 9 9 9 9 9 9 9 9 9 9 9 9 9 9 9 9 9 9 9 9 9 9 9 9 9 9 9 9 9 9 9 9 9 9 9 9 9 9 9 9 9 9 9 9 9 9 9 9 9 9 9 9 9 9 9 9 9 9 9 9 9 9 9 9 9 9 9 9 9 9 9 9 9 9 9 9 9 9 9 9 9 9 9 9 9 9 9 9 9 9 9 9 9 9 9 9 9 9 9 9 9 9 9 9 9 9 9 9 9 9 9 9 9 9 9 9 9 9 9 9 9 9 9 9 9 9 9 9 9 9 9 9 9 9 9 9 9 9 9 9 9 9 9 9 9 9 9 9 9 9 9 9 9 9 9 9 9 9 9 9 9 9 9 9 9 9 9 9 9 9 9 9 9 9 9 9 9 9 9 9 9 9 9 9 9 9 9 9 9 9 9 9 9 9 9 9 9 9 9 9 9 9 9 9 9 9 9 9 9 9 9 9 9 9 9 9 9 9 9 9 9 9 9 9 9 9 9 9 9 9 9 9 9 9 9 9 9 9 9 9 9 9 9 9 9 8 8 8 8 8 8 8 8 8 8 8 8 8 8 8 
7 7 7 7 7 7 7 7 7 7 7 7 7 7 7 7 7 7 7 7 7 7 7 7 7 7 7 7 7 7 7 7 7 7 7 7 7 7 7 7 7 7 7 7 7 7 7 7 7 7 7 7 7 7 7 7 7 7 7 7 7 7 7 7 7 7 7 7 7 7 7 7 7 7 7 7 7 7 7 7 7 7 7 7 7 7 7 7 7 7 7 7 7 7 7 7 7 7 7 7 7 7 7 7 7 7 7 7 7 7 7 7 7 7 7 7 7 7 7 7 7 7 7 7 7 7 7 7 7 7 7 7 7 7 7 7 7 7 7 7 7 7 7 7 7 7 7 7 7 7 7 7 7 7 7 7 7 7 7 7 7 7 7 7 7 7 7 7 7 7 7 7 7 7 7 7 7 7 7 7 7 7 7 7 7 7 7 7 7 7 7 7 7 7 7 7 7 7 7 7 7 7 7 7 7 7 7 7 7 7 7 7 7 7 7 7 7 7 7 7 7 7 7 7 7 7 7 7 7 7 7 7 7 7 7 7 7 7 7 7 7 7 7 7 7 7 7 7 7 7 7 7 7 7 7 7 7 7 7 7 7 7 7 7 7 7 7 7 7 7 7 7 7 7 7 7 7 7 7 7 7 7 7 7 7 7 7 7 7 7 7 7 7 7 7 7 7 7 7 7 
0 0 0 0 0 0 0 0 0 0 0 0 0 0 0 0 0 0 0 0 0 0 0 0 0 0 0 0 0 0 0 0 0 0 0 0 0 0 0 0 0 0 0 0 0 0 0 0 0 0 0 0 0 0 0 0 0 0 0 0 0 0 0 0 0 0 0 0 0 0 0 0 0 0 0 0 0 0 0 0 0 0 0 0 0 0 0 0 0 0 0 0 0 0 0 0 0 0 0 0 0 0 0 0 0 0 0 0 0 0 0 0 0 0 0 0 0 0 0 0 0 0 0 0 0 0 0 0 0 0 0 0 0 0 0 0 0 0 0 0 0 0 0 0 0 0 0 0 0 0 0 0 0 0 0 0 0 0 0 0 0 0 0 0 0 0 0 0 0 0 0 0 0 0 0 0 0 0 0 0 0 0 0 0 0 0 0 0 0 0 0 0 0 0 0 0 0 0 0 0 0 0 0 0 0 0 0 0 0 0 0 0 0 0 0 0 0 0 0 0 0 0 0 0 0 0 0 0 0 0 0 0 0 0 0 0 0 0 0 0 0 0 0 0 0 0 0 0 0 0 0 0 0 0 0 0 0 0 0 0 0 0 0 0 0 0 0 0 0 0 0 0 0 0 0 0 0 0 0 0 0 0 0 0 0 0 0 0 0 0 0 0 0 0 0 0 0 0 0 0 
0 0 0 0 0 0 0 0 0 0 0 0 0 0 0 0 0 0 0 0 0 0 0 0 0 0 0 0 0 0 0 0 0 0 0 0 0 0 0 0 0 0 0 0 0 0 0 0 0 0 0 0 0 0 0 0 0 0 0 0 0 0 0 0 0 0 0 0 0 0 0 0 0 0 0 0 0 0 0 0 0 0 0 0 0 0 0 0 0 0 0 0 0 0 0 0 0 0 0 0 0 0 0 0 0 0 0 0 0 0 0 0 0 0 0 0 0 0 0 0 0 0 0 0 0 0 0 0 0 0 0 0 0 0 0 0 0 0 0 0 0 0 0 0 0 0 0 0 0 0 0 0 0 0 0 0 0 0 0 0 0 0 0 0 0 0 0 0 0 0 0 0 0 0 0 0 0 0 0 0 0 0 0 0 0 0 0 0 0 0 0 0 0 0 0 0 0 0 0 0 0 0 0 0 0 0 0 0 0 0 0 0 0 0 0 0 0 0 0 0 0 0 0 0 0 0 0 0 0 0 0 0 0 0 0 0 0 0 0 0 0 0 0 0 0 0 0 0 0 0 0 0 0 0 0 0 0 0 0 0 0 0 0 0 0 0 0 0 0 0 0 0 0 0 0 0 0 0 0 0 0 0 0 0 0 0 0 0 0 0 0 0 0 0 0 0 0 0 0 0 
0 0 0 0 0 0 0 0 0 0 0 0 0 0 0 0 0 0 0 0 0 0 0 0 0 0 0 0 0 0 0 0 0 0 0 0 0 0 0 0 0 0 0 0 0 0 0 0 0 0 0 0 0 0 0 0 0 0 0 0 0 0 0 0 0 0 0 0 0 0 0 0 0 0 0 0 0 0 0 0 0 0 0 0 0 0 0 0 0 0 0 0 0 0 0 0 0 0 0 0 0 0 0 0 0 0 0 0 0 0 0 0 0 0 0 0 0 0 0 0 0 0 0 0 0 0 0 0 0 0 0 0 0 0 0 0 0 0 0 0 0 0 0 0 0 0 0 0 0 0 0 0 0 0 0 0 0 0 0 0 0 0 0 0 0 0 0 0 0 0 0 0 0 0 0 0 0 0 0 0 0 0 0 0 0 0 0 0 0 0 0 0 0 0 0 0 0 0 0 0 0 0 0 0 0 0 0 0 0 0 0 0 0 0 0 0 0 0 0 0 0 0 0 0 0 0 0 0 0 0 0 0 0 0 0 0 0 0 0 0 0 0 0 0 0 0 0 0 0 0 0 0 0 0 0 0 0 0 0 0 0 0 0 0 0 0 0 0 0 0 0 0 0 0 0 0 0 0 0 0 0 0 0 0 0 0 0 0 0 0 0 0 0 0 0 0 0 0 0 0 
0 0 0 0 0 0 0 0 0 0 0 0 0 0 0 0 0 0 0 0 0 0 0 0 0 0 0 0 0 0 0 0 0 0 0 0 0 0 0 0 0 0 0 0 0 0 0 0 0 0 0 0 0 0 0 0 0 0 0 0 0 0 0 0 0 0 0 0 0 0 0 0 0 0 0 0 0 0 0 0 0 0 0 0 0 0 0 0 0 0 0 0 0 0 0 0 0 0 0 0 0 0 0 0 0 0 0 0 0 0 0 0 0 0 0 0 0 0 0 0 0 0 0 0 0 0 0 0 0 0 0 0 0 0 0 0 0 0 0 0 0 0 0 0 0 0 0 0 0 0 0 0 0 0 0 0 0 0 0 0 0 0 0 0 0 0 0 0 0 0 0 0 0 0 0 0 0 0 0 0 0 0 0 0 0 0 0 0 0 0 0 0 0 0 0 0 0 0 0 0 0 0 0 0 0 0 0 0 0 0 0 0 0 0 0 0 0 0 0 0 0 0 0 0 0 0 0 0 0 0 0 0 0 0 0 0 0 0 0 0 0 0 0 0 0 0 0 0 0 0 0 0 0 0 0 0 0 0 0 0 0 0 0 0 0 0 0 0 0 0 0 0 0 0 0 0 0 0 0 0 0 0 0 0 0 0 0 0 0 0 0 0 0 0 0 0 0 0 0 0 
0 0 0 0 0 0 0 0 0 0 0 0 0 0 0 0 0 0 0 0 0 0 0 0 0 0 0 0 0 0 0 0 0 0 0 0 0 0 0 0 0 0 0 0 0 0 0 0 0 0 0 0 0 0 0 0 0 0 0 0 0 0 0 0 0 0 0 0 0 0 0 0 0 0 0 0 0 0 0 0 0 0 0 0 0 0 0 0 0 0 0 0 0 0 0 0 0 0 0 0 0 0 0 0 0 0 0 0 0 0 0 0 0 0 0 0 0 0 0 0 0 0 0 0 0 0 0 0 0 0 0 0 0 0 0 0 0 0 0 0 0 0 0 0 0 0 0 0 0 0 0 0 0 0 0 0 0 0 0 0 0 0 0 0 0 0 0 0 0 0 0 0 0 0 0 0 0 0 0 0 0 0 0 0 0 0 0 0 0 0 0 0 0 0 0 0 0 0 0 0 0 0 0 0 0 0 0 0 0 0 0 0 0 0 0 0 0 0 0 0 0 0 0 0 0 0 0 0 0 0 0 0 0 0 0 0 0 0 0 0 0 0 0 0 0 0 0 0 0 0 0 0 0 0 0 0 0 0 0 0 0 0 0 0 0 0 0 0 0 0 0 0 0 0 0 0 0 0 0 0 0 0 0 0 0 0 0 0 0 0 0 0 0 0 0 0 0 0 0 0 
0 0 0 0 0 0 0 0 0 0 0 0 0 0 0 0 0 0 0 0 0 0 0 0 0 0 0 0 0 0 0 0 0 0 0 0 0 0 0 0 0 0 0 0 0 0 0 0 0 0 0 0 0 0 0 0 0 0 0 0 0 0 0 0 0 0 0 0 0 0 0 0 0 0 0 0 0 0 0 0 0 0 0 0 0 0 0 0 0 0 0 0 0 0 0 0 0 0 0 0 0 0 0 0 0 0 0 0 0 0 0 0 0 0 0 0 0 0 0 0 0 0 0 0 0 0 0 0 0 0 0 0 0 0 0 0 0 0 0 0 0 0 0 0 0 0 0 0 0 0 0 0 0 0 0 0 0 0 0 0 0 0 0 0 0 0 0 0 0 0 0 0 0 0 0 0 0 0 0 0 0 0 0 0 0 0 0 0 0 0 0 0 0 0 0 0 0 0 0 0 0 0 0 0 0 0 0 0 0 0 0 0 0 0 0 0 0 0 0 0 0 0 0 0 0 0 0 0 0 0 0 0 0 0 0 0 0 0 0 0 0 0 0 0 0 0 0 0 0 0 0 0 0 0 0 0 0 0 0 0 0 0 0 0 0 0 0 0 0 0 0 0 0 0 0 0 0 0 0 0 0 0 0 0 0 0 0 0 0 0 0 0 0 0 0 0 0 0 0 0 
0 0 0 0 0 0 0 0 0 0 0 0 0 0 0 0 0 0 0 0 0 0 0 0 0 0 0 0 0 0 0 0 0 0 0 0 0 0 0 0 0 0 0 0 0 0 0 0 0 0 0 0 0 0 0 0 0 0 0 0 0 0 0 0 0 0 0 0 0 0 0 0 0 0 0 0 0 0 0 0 0 0 0 0 0 0 0 0 0 0 0 0 0 0 0 0 0 0 0 0 0 0 0 0 0 0 0 0 0 0 0 0 0 0 0 0 0 0 0 0 0 0 0 0 0 0 0 0 0 0 0 0 0 0 0 0 0 0 0 0 0 0 0 0 0 0 0 0 0 0 0 0 0 0 0 0 0 0 0 0 0 0 0 0 0 0 0 0 0 0 0 0 0 0 0 0 0 0 0 0 0 0 0 0 0 0 0 0 0 0 0 0 0 0 0 0 0 0 0 0 0 0 0 0 0 0 0 0 0 0 0 0 0 0 0 0 0 0 0 0 0 0 0 0 0 0 0 0 0 0 0 0 0 0 0 0 0 0 0 0 0 0 0 0 0 0 0 0 0 0 0 0 0 0 0 0 0 0 0 0 0 0 0 0 0 0 0 0 0 0 0 0 0 0 0 0 0 0 0 0 0 0 0 0 0 0 0 0 0 0 0 0 0 0 0 0 0 0 0 0 
0 0 0 0 0 0 0 0 0 0 0 0 0 0 0 0 0 0 0 0 0 0 0 0 0 0 0 0 0 0 0 0 0 0 0 0 0 0 0 0 0 0 0 0 0 0 0 0 0 0 0 0 0 0 0 0 0 0 0 0 0 0 0 0 0 0 0 0 0 0 0 0 0 0 0 0 0 0 0 0 0 0 0 0 0 0 0 0 0 0 0 0 0 0 0 0 0 0 0 0 0 0 0 0 0 0 0 0 0 0 0 0 0 0 0 0 0 0 0 0 0 0 0 0 0 0 0 0 0 0 0 0 0 0 0 0 0 0 0 0 0 0 0 0 0 0 0 0 0 0 0 0 0 0 0 0 0 0 0 0 0 0 0 0 0 0 0 0 0 0 0 0 0 0 0 0 0 0 0 0 0 0 0 0 0 0 0 0 0 0 0 0 0 0 0 0 0 0 0 0 0 0 0 0 0 0 0 0 0 0 0 0 0 0 0 0 0 0 0 0 0 0 0 0 0 0 0 0 0 0 0 0 0 0 0 0 0 0 0 0 0 0 0 0 0 0 0 0 0 0 0 0 0 0 0 0 0 0 0 0 0 0 0 0 0 0 0 0 0 0 0 0 0 0 0 0 0 0 0 0 0 0 0 0 0 0 0 0 0 0 0 0 0 0 0 0 0 0 0 0 
0 0 0 0 0 0 0 0 0 0 0 0 0 0 0 0 0 0 0 0 0 0 0 0 0 0 0 0 0 0 0 0 0 0 0 0 0 0 0 0 0 0 0 0 0 0 0 0 0 0 0 0 0 0 0 0 0 0 0 0 0 0 0 0 0 0 0 0 0 0 0 0 0 0 0 0 0 0 0 0 0 0 0 0 0 0 0 0 0 0 0 0 0 0 0 0 0 0 0 0 0 0 0 0 0 0 0 0 0 0 0 0 0 0 0 0 0 0 0 0 0 0 0 0 0 0 0 0 0 0 0 0 0 0 0 0 0 0 0 0 0 0 0 0 0 0 0 0 0 0 0 0 0 0 0 0 0 0 0 0 0 0 0 0 0 0 0 0 0 0 0 0 0 0 0 0 0 0 0 0 0 0 0 0 0 0 0 0 0 0 0 0 0 0 0 0 0 0 0 0 0 0 0 0 0 0 0 0 0 0 0 0 0 0 0 0 0 0 0 0 0 0 0 0 0 0 0 0 0 0 0 0 0 0 0 0 0 0 0 0 0 0 0 0 0 0 0 0 0 0 0 0 0 0 0 0 0 0 0 0 0 0 0 0 0 0 0 0 0 0 0 0 0 0 0 0 0 0 0 0 0 0 0 0 0 0 0 0 0 0 0 0 0 0 0 0 0 0 0 0 
0 0 0 0 0 0 0 0 0 0 0 0 0 0 0 0 0 0 0 0 0 0 0 0 0 0 0 0 0 0 0 0 0 0 0 0 0 0 0 0 0 0 0 0 0 0 0 0 0 0 0 0 0 0 0 0 0 0 0 0 0 0 0 0 0 0 0 0 0 0 0 0 0 0 0 0 0 0 0 0 0 0 0 0 0 0 0 0 0 0 0 0 0 0 0 0 0 0 0 0 0 0 0 0 0 0 0 0 0 0 0 0 0 0 0 0 0 0 0 0 0 0 0 0 0 0 0 0 0 0 0 0 0 0 0 0 0 0 0 0 0 0 0 0 0 0 0 0 0 0 0 0 0 0 0 0 0 0 0 0 0 0 0 0 0 0 0 0 0 0 0 0 0 0 0 0 0 0 0 0 0 0 0 0 0 0 0 0 0 0 0 0 0 0 0 0 0 0 0 0 0 0 0 0 0 0 0 0 0 0 0 0 0 0 0 0 0 0 0 0 0 0 0 0 0 0 0 0 0 0 0 0 0 0 0 0 0 0 0 0 0 0 0 0 0 0 0 0 0 0 0 0 0 0 0 0 0 0 0 0 0 0 0 0 0 0 0 0 0 0 0 0 0 0 0 0 0 0 0 0 0 0 0 0 0 0 0 0 0 0 0 0 0 0 0 0 0 0 0 0 
0 0 0 0 0 0 0 0 0 0 0 0 0 0 0 0 0 0 0 0 0 0 0 0 0 0 0 0 0 0 0 0 0 0 0 0 0 0 0 0 0 0 0 0 0 0 0 0 0 0 0 0 0 0 0 0 0 0 0 0 0 0 0 0 0 0 0 0 0 0 0 0 0 0 0 0 0 0 0 0 0 0 0 0 0 0 0 0 0 0 0 0 0 0 0 0 0 0 0 0 0 0 0 0 0 0 0 0 0 0 0 0 0 0 0 0 0 0 0 0 0 0 0 0 0 0 0 0 0 0 0 0 0 0 0 0 0 0 0 0 0 0 0 0 0 0 0 0 0 0 0 0 0 0 0 0 0 0 0 0 0 0 0 0 0 0 0 0 0 0 0 0 0 0 0 0 0 0 0 0 0 0 0 0 0 0 0 0 0 0 0 0 0 0 0 0 0 0 0 0 0 0 0 0 0 0 0 0 0 0 0 0 0 0 0 0 0 0 0 0 0 0 0 0 0 0 0 0 0 0 0 0 0 0 0 0 0 0 0 0 0 0 0 0 0 0 0 0 0 0 0 0 0 0 0 0 0 0 0 0 0 0 0 0 0 0 0 0 0 0 0 0 0 0 0 0 0 0 0 0 0 0 0 0 0 0 0 0 0 0 0 0 0 0 0 0 0 0 0 0 
0 0 0 0 0 0 0 0 0 0 0 0 0 0 0 0 0 0 0 0 0 0 0 0 0 0 0 0 0 0 0 0 0 0 0 0 0 0 0 0 0 0 0 0 0 0 0 0 0 0 0 0 0 0 0 0 0 0 0 0 0 0 0 0 0 0 0 0 0 0 0 0 0 0 0 0 0 0 0 0 0 0 0 0 0 0 0 0 0 0 0 0 0 0 0 0 0 0 0 0 0 0 0 0 0 0 0 0 0 0 0 0 0 0 0 0 0 0 0 0 0 0 0 0 0 0 0 0 0 0 0 0 0 0 0 0 0 0 0 0 0 0 0 0 0 0 0 0 0 0 0 0 0 0 0 0 0 0 0 0 0 0 0 0 0 0 0 0 0 0 0 0 0 0 0 0 0 0 0 0 0 0 0 0 0 0 0 0 0 0 0 0 0 0 0 0 0 0 0 0 0 0 0 0 0 0 0 0 0 0 0 0 0 0 0 0 0 0 0 0 0 0 0 0 0 0 0 0 0 0 0 0 0 0 0 0 0 0 0 0 0 0 0 0 0 0 0 0 0 0 0 0 0 0 0 0 0 0 0 0 0 0 0 0 0 0 0 0 0 0 0 0 0 0 0 0 0 0 0 0 0 0 0 0 0 0 0 0 0 0 0 0 0 0 0 0 0 0 0 0 
0 0 0 0 0 0 0 0 0 0 0 0 0 0 0 0 0 0 0 0 0 0 0 0 0 0 0 0 0 0 0 0 0 0 0 0 0 0 0 0 0 0 0 0 0 0 0 0 0 0 0 0 0 0 0 0 0 0 0 0 0 0 0 0 0 0 0 0 0 0 0 0 0 0 0 0 0 0 0 0 0 0 0 0 0 0 0 0 0 0 0 0 0 0 0 0 0 0 0 0 0 0 0 0 0 0 0 0 0 0 0 0 0 0 0 0 0 0 0 0 0 0 0 0 0 0 0 0 0 0 0 0 0 0 0 0 0 0 0 0 0 0 0 0 0 0 0 0 0 0 0 0 0 0 0 0 0 0 0 0 0 0 0 0 0 0 0 0 0 0 0 0 0 0 0 0 0 0 0 0 0 0 0 0 0 0 0 0 0 0 0 0 0 0 0 0 0 0 0 0 0 0 0 0 0 0 0 0 0 0 0 0 0 0 0 0 0 0 0 0 0 0 0 0 0 0 0 0 0 0 0 0 0 0 0 0 0 0 0 0 0 0 0 0 0 0 0 0 0 0 0 0 0 0 0 0 0 0 0 0 0 0 0 0 0 0 0 0 0 0 0 0 0 0 0 0 0 0 0 0 0 0 0 0 0 0 0 0 0 0 0 0 0 0 0 0 0 0 0 0 
0 0 0 0 0 0 0 0 0 0 0 0 0 0 0 0 0 0 0 0 0 0 0 0 0 0 0 0 0 0 0 0 0 0 0 0 0 0 0 0 0 0 0 0 0 0 0 0 0 0 0 0 0 0 0 0 0 0 0 0 0 0 0 0 0 0 0 0 0 0 0 0 0 0 0 0 0 0 0 0 0 0 0 0 0 0 0 0 0 0 0 0 0 0 0 0 0 0 0 0 0 0 0 0 0 0 0 0 0 0 0 0 0 0 0 0 0 0 0 0 0 0 0 0 0 0 0 0 0 0 0 0 0 0 0 0 0 0 0 0 0 0 0 0 0 0 0 0 0 0 0 0 0 0 0 0 0 0 0 0 0 0 0 0 0 0 0 0 0 0 0 0 0 0 0 0 0 0 0 0 0 0 0 0 0 0 0 0 0 0 0 0 0 0 0 0 0 0 0 0 0 0 0 0 0 0 0 0 0 0 0 0 0 0 0 0 0 0 0 0 0 0 0 0 0 0 0 0 0 0 0 0 0 0 0 0 0 0 0 0 0 0 0 0 0 0 0 0 0 0 0 0 0 0 0 0 0 0 0 0 0 0 0 0 0 0 0 0 0 0 0 0 0 0 0 0 0 0 0 0 0 0 0 0 0 0 0 0 0 0 0 0 0 0 0 0 0 0 0 0 
0 0 0 0 0 0 0 0 0 0 0 0 0 0 0 0 0 0 0 0 0 0 0 0 0 0 0 0 0 0 0 0 0 0 0 0 0 0 0 0 0 0 0 0 0 0 0 0 0 0 0 0 0 0 0 0 0 0 0 0 0 0 0 0 0 0 0 0 0 0 0 0 0 0 0 0 0 0 0 0 0 0 0 0 0 0 0 0 0 0 0 0 0 0 0 0 0 0 0 0 0 0 0 0 0 0 0 0 0 0 0 0 0 0 0 0 0 0 0 0 0 0 0 0 0 0 0 0 0 0 0 0 0 0 0 0 0 0 0 0 0 0 0 0 0 0 0 0 0 0 0 0 0 0 0 0 0 0 0 0 0 0 0 0 0 0 0 0 0 0 0 0 0 0 0 0 0 0 0 0 0 0 0 0 0 0 0 0 0 0 0 0 0 0 0 0 0 0 0 0 0 0 0 0 0 0 0 0 0 0 0 0 0 0 0 0 0 0 0 0 0 0 0 0 0 0 0 0 0 0 0 0 0 0 0 0 0 0 0 0 0 0 0 0 0 0 0 0 0 0 0 0 0 0 0 0 0 0 0 0 0 0 0 0 0 0 0 0 0 0 0 0 0 0 0 0 0 0 0 0 0 0 0 0 0 0 0 0 0 0 0 0 0 0 0 0 0 0 0 0 
0 0 0 0 0 0 0 0 0 0 0 0 0 0 0 0 0 0 0 0 0 0 0 0 0 0 0 0 0 0 0 0 0 0 0 0 0 0 0 0 0 0 0 0 0 0 0 0 0 0 0 0 0 0 0 0 0 0 0 0 0 0 0 0 0 0 0 0 0 0 0 0 0 0 0 0 0 0 0 0 0 0 0 0 0 0 0 0 0 0 0 0 0 0 0 0 0 0 0 0 0 0 0 0 0 0 0 0 0 0 0 0 0 0 0 0 0 0 0 0 0 0 0 0 0 0 0 0 0 0 0 0 0 0 0 0 0 0 0 0 0 0 0 0 0 0 0 0 0 0 0 0 0 0 0 0 0 0 0 0 0 0 0 0 0 0 0 0 0 0 0 0 0 0 0 0 0 0 0 0 0 0 0 0 0 0 0 0 0 0 0 0 0 0 0 0 0 0 0 0 0 0 0 0 0 0 0 0 0 0 0 0 0 0 0 0 0 0 0 0 0 0 0 0 0 0 0 0 0 0 0 0 0 0 0 0 0 0 0 0 0 0 0 0 0 0 0 0 0 0 0 0 0 0 0 0 0 0 0 0 0 0 0 0 0 0 0 0 0 0 0 0 0 0 0 0 0 0 0 0 0 0 0 0 0 0 0 0 0 0 0 0 0 0 0 0 0 0 0 0 
0 0 0 0 0 0 0 0 0 0 0 0 0 0 0 0 0 0 0 0 0 0 0 0 0 0 0 0 0 0 0 0 0 0 0 0 0 0 0 0 0 0 0 0 0 0 0 0 0 0 0 0 0 0 0 0 0 0 0 0 0 0 0 0 0 0 0 0 0 0 0 0 0 0 0 0 0 0 0 0 0 0 0 0 0 0 0 0 0 0 0 0 0 0 0 0 0 0 0 0 0 0 0 0 0 0 0 0 0 0 0 0 0 0 0 0 0 0 0 0 0 0 0 0 0 0 0 0 0 0 0 0 0 0 0 0 0 0 0 0 0 0 0 0 0 0 0 0 0 0 0 0 0 0 0 0 0 0 0 0 0 0 0 0 0 0 0 0 0 0 0 0 0 0 0 0 0 0 0 0 0 0 0 0 0 0 0 0 0 0 0 0 0 0 0 0 0 0 0 0 0 0 0 0 0 0 0 0 0 0 0 0 0 0 0 0 0 0 0 0 0 0 0 0 0 0 0 0 0 0 0 0 0 0 0 0 0 0 0 0 0 0 0 0 0 0 0 0 0 0 0 0 0 0 0 0 0 0 0 0 0 0 0 0 0 0 0 0 0 0 0 0 0 0 0 0 0 0 0 0 0 0 0 0 0 0 0 0 0 0 0 0 0 0 0 0 0 0 0 0 
0 0 0 0 0 0 0 0 0 0 0 0 0 0 0 0 0 0 0 0 0 0 0 0 0 0 0 0 0 0 0 0 0 0 0 0 0 0 0 0 0 0 0 0 0 0 0 0 0 0 0 0 0 0 0 0 0 0 0 0 0 0 0 0 0 0 0 0 0 0 0 0 0 0 0 0 0 0 0 0 0 0 0 0 0 0 0 0 0 0 0 0 0 0 0 0 0 0 0 0 0 0 0 0 0 0 0 0 0 0 0 0 0 0 0 0 0 0 0 0 0 0 0 0 0 0 0 0 0 0 0 0 0 0 0 0 0 0 0 0 0 0 0 0 0 0 0 0 0 0 0 0 0 0 0 0 0 0 0 0 0 0 0 0 0 0 0 0 0 0 0 0 0 0 0 0 0 0 0 0 0 0 0 0 0 0 0 0 0 0 0 0 0 0 0 0 0 0 0 0 0 0 0 0 0 0 0 0 0 0 0 0 0 0 0 0 0 0 0 0 0 0 0 0 0 0 0 0 0 0 0 0 0 0 0 0 0 0 0 0 0 0 0 0 0 0 0 0 0 0 0 0 0 0 0 0 0 0 0 0 0 0 0 0 0 0 0 0 0 0 0 0 0 0 0 0 0 0 0 0 0 0 0 0 0 0 0 0 0 0 0 0 0 0 0 0 0 0 0 0 
